;FLAVOR:Marlin
;TIME:2570
;Filament used: 1.844m
;Layer height: 0.2
;MINX:64.959
;MINY:75
;MINZ:0.2
;MAXX:155.041
;MAXY:145
;MAXZ:6
;Generated with Cura_SteamEngine 5.2.0
M82 ;absolute extrusion mode
; Ender 3 S1 Start G-code
G92 E0 ; Reset Extruder
G28 ; Home all axes
G1 Z10.0 F3000 ; Move Z Axis up little to prevent scratching of Heat Bed
G1 X0 Y0

M104 S200
M190 S60
M109 S200

G1 X0.1 Y20 Z0.3 F5000.0 ; Move to start position
G1 X0.1 Y200.0 Z0.3 F1500.0 E15 ; Draw the first line
G1 X0.4 Y200.0 Z0.3 F5000.0 ; Move to side a little
G1 X0.4 Y20 Z0.3 F1500.0 E30 ; Draw the second line
G92 E0 ; Reset Extruder
G1 Z2.0 F3000 ; Move Z Axis up little to prevent scratching of Heat Bed
G1 X5 Y20 Z0.3 F5000.0 ; Move over to prevent blob squish

G92 E0
G92 E0
G1 F2400 E-0.8
;LAYER_COUNT:30
;LAYER:0
M107
M204 S2000
G0 F7500 X68.858 Y77.616 Z0.2
M204 S500
;TYPE:SKIRT
G1 F2400 E0
G1 F1500 X69.599 Y77.041 E0.0312
G1 X70.386 Y76.531 E0.06239
G1 X71.214 Y76.09 E0.09359
G1 X72.076 Y75.721 E0.12478
G1 X72.967 Y75.427 E0.15598
G1 X73.879 Y75.209 E0.18717
G1 X74.806 Y75.071 E0.21834
G1 X75.66 Y75.013 E0.24681
G1 X76.289 Y75 E0.26774
G1 X95.392 Y75.001 E0.9031
G1 X96.515 Y75.017 E0.94046
G1 X99.158 Y75.017 E1.02837
G1 X99.95 Y75.002 E1.05471
G1 X119.326 Y75.001 E1.69916
G1 X120.58 Y75.019 E1.74087
G1 X123.226 Y75.019 E1.82888
G1 X124.114 Y75.002 E1.85842
G1 X143.492 Y75.001 E2.50294
G1 X144.19 Y75.011 E2.52615
G1 X145.126 Y75.065 E2.55734
G1 X146.054 Y75.197 E2.58851
G1 X146.968 Y75.409 E2.61972
G1 X147.86 Y75.698 E2.65091
G1 X148.725 Y76.061 E2.68211
G1 X149.555 Y76.497 E2.71329
G1 X150.346 Y77.002 E2.7445
G1 X151.09 Y77.573 E2.7757
G1 X151.783 Y78.205 E2.80689
G1 X152.42 Y78.893 E2.83808
G1 X152.995 Y79.634 E2.86927
G1 X153.506 Y80.42 E2.90045
G1 X153.948 Y81.248 E2.93167
G1 X154.317 Y82.11 E2.96286
G1 X154.612 Y83 E2.99404
G1 X154.83 Y83.912 E3.02523
G1 X154.97 Y84.84 E3.05645
G1 X155.028 Y85.701 E3.08515
G1 X155.041 Y86.33 E3.10607
G1 X155.04 Y105.426 E3.74121
G1 X155.03 Y106.15 E3.76529
G1 X154.992 Y107.152 E3.79864
G1 X154.917 Y109.797 E3.88665
G1 X154.917 Y112.334 E3.97103
G1 X154.959 Y114.283 E4.03587
G1 X154.958 Y133.369 E4.67067
G1 X154.948 Y134.096 E4.69485
G1 X154.895 Y135.033 E4.72607
G1 X154.763 Y135.961 E4.75725
G1 X154.552 Y136.875 E4.78844
G1 X154.263 Y137.767 E4.81963
G1 X153.9 Y138.632 E4.85083
G1 X153.465 Y139.463 E4.88203
G1 X152.96 Y140.253 E4.91321
G1 X152.39 Y140.998 E4.94441
G1 X151.759 Y141.692 E4.97561
G1 X151.07 Y142.329 E5.00682
G1 X150.33 Y142.905 E5.03801
G1 X149.544 Y143.416 E5.06919
G1 X148.717 Y143.858 E5.10038
G1 X147.855 Y144.228 E5.13158
G1 X146.965 Y144.523 E5.16276
G1 X146.053 Y144.742 E5.19396
G1 X145.126 Y144.882 E5.22514
G1 X144.258 Y144.941 E5.25408
G1 X143.629 Y144.954 E5.275
G1 X124.489 Y144.953 E5.9116
G1 X123.345 Y144.937 E5.94966
G1 X120.705 Y144.937 E6.03746
G1 X119.918 Y144.952 E6.06364
G1 X97.809 Y144.954 E6.79899
G1 X95.727 Y145 E6.86826
G1 X76.615 Y144.999 E7.50392
G1 X75.917 Y144.99 E7.52714
G1 X74.981 Y144.938 E7.55832
G1 X74.052 Y144.806 E7.58953
G1 X73.138 Y144.596 E7.62072
G1 X72.245 Y144.309 E7.65192
G1 X71.38 Y143.946 E7.68312
G1 X70.549 Y143.512 E7.7143
G1 X69.758 Y143.008 E7.7455
G1 X69.013 Y142.438 E7.7767
G1 X68.319 Y141.807 E7.80789
G1 X67.682 Y141.12 E7.83905
G1 X67.105 Y140.38 E7.87026
G1 X66.593 Y139.594 E7.90146
G1 X66.15 Y138.767 E7.93267
G1 X65.779 Y137.906 E7.96385
G1 X65.483 Y137.016 E7.99505
G1 X65.264 Y136.104 E8.02624
G1 X65.123 Y135.177 E8.05743
G1 X65.063 Y134.288 E8.08706
G1 X65.05 Y133.658 E8.10802
G1 X65.051 Y114.503 E8.74512
G1 X65.08 Y112.683 E8.80566
G1 X65.088 Y110.12 E8.89091
G1 X65.025 Y107.552 E8.97634
G1 X64.991 Y106.856 E8.99952
G1 X64.959 Y105.67 E9.03898
G1 X64.96 Y86.509 E9.67628
G1 X64.97 Y85.844 E9.6984
G1 X65.024 Y84.907 E9.72962
G1 X65.158 Y83.979 E9.7608
G1 X65.37 Y83.065 E9.79201
G1 X65.659 Y82.173 E9.8232
G1 X66.024 Y81.309 E9.85439
G1 X66.46 Y80.479 E9.88557
G1 X66.966 Y79.689 E9.91678
G1 X67.537 Y78.945 E9.94797
G1 X68.169 Y78.252 E9.97917
G1 X68.858 Y77.616 E10.01035
M204 S2000
G0 F7500 X69.247 Y77.813
M204 S500
G1 F1500 X69.983 Y77.261 E10.04095
G1 X70.765 Y76.774 E10.07159
G1 X71.586 Y76.358 E10.1022
G1 X72.44 Y76.014 E10.13283
G1 X73.32 Y75.745 E10.16343
G1 X74.221 Y75.554 E10.19407
G1 X75.135 Y75.442 E10.22469
G1 X75.671 Y75.413 E10.24255
G1 X76.289 Y75.4 E10.26311
G1 X95.386 Y75.401 E10.89827
G1 X96.509 Y75.417 E10.93563
G1 X99.12 Y75.417 E11.02247
G1 X99.722 Y75.404 E11.0425
G1 X119.32 Y75.401 E11.69433
G1 X120.574 Y75.419 E11.73604
G1 X123.187 Y75.419 E11.82295
G1 X123.888 Y75.404 E11.84627
G1 X143.333 Y75.4 E12.49302
G1 X144.184 Y75.411 E12.52132
G1 X145.103 Y75.464 E12.55194
G1 X146.014 Y75.597 E12.58256
G1 X146.91 Y75.808 E12.61318
G1 X147.784 Y76.096 E12.64378
G1 X148.631 Y76.459 E12.67443
G1 X149.442 Y76.894 E12.70504
G1 X150.212 Y77.398 E12.73565
G1 X150.936 Y77.967 E12.76628
G1 X151.608 Y78.597 E12.79692
G1 X152.223 Y79.282 E12.82753
G1 X152.776 Y80.018 E12.85815
G1 X153.263 Y80.799 E12.88877
G1 X153.68 Y81.62 E12.91939
G1 X154.025 Y82.474 E12.95003
G1 X154.294 Y83.354 E12.98063
G1 X154.486 Y84.255 E13.01127
G1 X154.599 Y85.168 E13.04187
G1 X154.628 Y85.712 E13.05999
G1 X154.641 Y86.33 E13.08055
G1 X154.64 Y105.42 E13.71549
G1 X154.63 Y106.144 E13.73957
G1 X154.593 Y107.1 E13.77139
G1 X154.517 Y109.786 E13.86076
G1 X154.517 Y112.343 E13.94581
G1 X154.559 Y114.283 E14.01035
G1 X154.558 Y133.364 E14.64498
G1 X154.548 Y134.091 E14.66917
G1 X154.495 Y135.01 E14.69978
G1 X154.363 Y135.921 E14.7304
G1 X154.152 Y136.817 E14.76102
G1 X153.865 Y137.692 E14.79164
G1 X153.502 Y138.538 E14.82226
G1 X153.068 Y139.35 E14.85289
G1 X152.564 Y140.121 E14.88352
G1 X151.996 Y140.845 E14.91413
G1 X151.367 Y141.517 E14.94474
G1 X150.682 Y142.132 E14.97536
G1 X149.946 Y142.685 E15.00598
G1 X149.165 Y143.173 E15.03661
G1 X148.345 Y143.591 E15.06722
G1 X147.491 Y143.936 E15.09786
G1 X146.611 Y144.205 E15.12846
G1 X145.71 Y144.398 E15.15911
G1 X144.797 Y144.511 E15.18971
G1 X144.247 Y144.541 E15.20803
G1 X143.629 Y144.554 E15.22859
G1 X124.495 Y144.553 E15.86499
G1 X123.351 Y144.537 E15.90304
G1 X120.696 Y144.537 E15.99135
G1 X119.918 Y144.552 E16.01723
G1 X97.799 Y144.554 E16.75291
G1 X95.727 Y144.6 E16.82184
G1 X76.62 Y144.599 E17.45734
G1 X75.922 Y144.59 E17.48056
G1 X75.003 Y144.538 E17.51117
G1 X74.092 Y144.407 E17.54179
G1 X73.196 Y144.197 E17.57239
G1 X72.321 Y143.91 E17.60302
G1 X71.474 Y143.548 E17.63366
G1 X70.662 Y143.114 E17.66428
G1 X69.891 Y142.612 E17.69488
G1 X69.166 Y142.044 E17.72552
G1 X68.493 Y141.415 E17.75615
G1 X67.878 Y140.731 E17.78675
G1 X67.324 Y139.996 E17.81736
G1 X66.836 Y139.215 E17.84799
G1 X66.417 Y138.395 E17.87862
G1 X66.071 Y137.542 E17.90923
G1 X65.801 Y136.662 E17.93985
G1 X65.608 Y135.761 E17.9705
G1 X65.494 Y134.848 E18.0011
G1 X65.463 Y134.277 E18.02012
G1 X65.45 Y133.658 E18.04071
G1 X65.451 Y114.509 E18.67761
G1 X65.48 Y112.691 E18.73808
G1 X65.489 Y110.111 E18.8239
G1 X65.424 Y107.524 E18.90997
G1 X65.383 Y106.63 E18.93973
G1 X65.359 Y105.67 E18.97167
G1 X65.36 Y86.515 E19.60877
G1 X65.37 Y85.85 E19.63089
G1 X65.424 Y84.931 E19.66151
G1 X65.557 Y84.02 E19.69213
G1 X65.769 Y83.124 E19.72275
G1 X66.058 Y82.249 E19.7534
G1 X66.422 Y81.404 E19.784
G1 X66.857 Y80.593 E19.81461
G1 X67.362 Y79.822 E19.84527
G1 X67.931 Y79.099 E19.87587
G1 X68.561 Y78.427 E19.90651
G1 X69.247 Y77.813 E19.93713
M204 S2000
G0 F7500 X69.634 Y78.014
M204 S500
G1 F1500 X70.366 Y77.485 E19.96717
G1 X71.142 Y77.023 E19.9972
G1 X71.956 Y76.632 E20.02724
G1 X72.801 Y76.313 E20.05728
G1 X73.671 Y76.071 E20.08731
G1 X74.559 Y75.907 E20.11735
G1 X75.682 Y75.813 E20.15483
G1 X76.289 Y75.8 E20.17502
G1 X95.235 Y75.8 E20.80517
G1 X96.503 Y75.817 E20.84735
G1 X99.129 Y75.817 E20.93469
G1 X99.731 Y75.804 E20.95472
G1 X119.167 Y75.8 E21.60116
G1 X120.568 Y75.819 E21.64776
G1 X123.196 Y75.819 E21.73517
G1 X123.897 Y75.804 E21.75849
G1 X143.333 Y75.8 E22.40493
G1 X144.178 Y75.811 E22.43304
G1 X145.08 Y75.864 E22.46309
G1 X145.973 Y75.996 E22.49312
G1 X146.851 Y76.207 E22.52315
G1 X147.707 Y76.495 E22.55319
G1 X148.534 Y76.857 E22.58322
G1 X149.326 Y77.292 E22.61327
G1 X150.077 Y77.794 E22.64332
G1 X150.78 Y78.361 E22.67336
G1 X151.43 Y78.988 E22.70339
G1 X152.022 Y79.67 E22.73343
G1 X152.552 Y80.401 E22.76346
G1 X153.014 Y81.177 E22.7935
G1 X153.407 Y81.99 E22.82353
G1 X153.725 Y82.835 E22.85356
G1 X153.968 Y83.705 E22.88361
G1 X154.133 Y84.593 E22.91365
G1 X154.228 Y85.723 E22.95136
G1 X154.241 Y86.33 E22.97156
G1 X154.24 Y105.415 E23.60633
G1 X154.222 Y106.43 E23.64009
G1 X154.191 Y107.163 E23.66449
G1 X154.117 Y109.775 E23.7514
G1 X154.117 Y112.352 E23.83711
G1 X154.159 Y114.283 E23.90135
G1 X154.158 Y133.358 E24.53579
G1 X154.148 Y134.085 E24.55997
G1 X154.096 Y134.987 E24.59002
G1 X153.964 Y135.88 E24.62005
G1 X153.753 Y136.759 E24.65011
G1 X153.466 Y137.615 E24.68014
G1 X153.104 Y138.442 E24.71017
G1 X152.67 Y139.234 E24.74021
G1 X152.168 Y139.985 E24.77025
G1 X151.602 Y140.688 E24.80027
G1 X150.975 Y141.339 E24.83033
G1 X150.294 Y141.931 E24.86034
G1 X149.563 Y142.461 E24.89037
G1 X148.787 Y142.924 E24.92043
G1 X147.974 Y143.317 E24.95046
G1 X147.129 Y143.637 E24.98052
G1 X146.26 Y143.88 E25.01053
G1 X145.372 Y144.045 E25.04057
G1 X144.236 Y144.141 E25.07849
G1 X143.629 Y144.154 E25.09868
G1 X124.5 Y144.153 E25.73491
G1 X123.356 Y144.137 E25.77297
G1 X120.732 Y144.137 E25.86024
G1 X120.141 Y144.15 E25.8799
G1 X97.79 Y144.154 E26.6233
G1 X95.727 Y144.2 E26.69193
G1 X76.625 Y144.199 E27.32727
G1 X75.927 Y144.19 E27.35049
G1 X75.026 Y144.139 E27.3805
G1 X74.132 Y144.007 E27.41056
G1 X73.254 Y143.798 E27.44058
G1 X72.397 Y143.511 E27.47064
G1 X71.57 Y143.15 E27.50065
G1 X70.777 Y142.717 E27.5307
G1 X70.026 Y142.216 E27.56073
G1 X69.322 Y141.65 E27.59077
G1 X68.671 Y141.024 E27.62081
G1 X68.078 Y140.343 E27.65084
G1 X67.548 Y139.612 E27.68087
G1 X67.084 Y138.837 E27.71092
G1 X66.69 Y138.024 E27.74097
G1 X66.37 Y137.18 E27.77099
G1 X66.126 Y136.31 E27.80104
G1 X65.96 Y135.422 E27.83109
G1 X65.863 Y134.267 E27.86964
G1 X65.85 Y133.658 E27.8899
G1 X65.851 Y114.516 E28.52656
G1 X65.88 Y112.699 E28.587
G1 X65.889 Y110.102 E28.67338
G1 X65.825 Y107.535 E28.75879
G1 X65.782 Y106.619 E28.78929
G1 X65.759 Y105.67 E28.82086
G1 X65.76 Y86.521 E29.45776
G1 X65.77 Y85.856 E29.47988
G1 X65.824 Y84.954 E29.50993
G1 X65.957 Y84.061 E29.53996
G1 X66.168 Y83.183 E29.57
G1 X66.457 Y82.327 E29.60005
G1 X66.82 Y81.5 E29.63008
G1 X67.254 Y80.709 E29.66009
G1 X67.757 Y79.958 E29.69016
G1 X68.325 Y79.256 E29.72019
G1 X68.952 Y78.606 E29.75023
G1 X69.634 Y78.014 E29.78027
M204 S2000
G1 F2400 E28.98027
;MESH:box-transparency-tests.stl
G0 F7500 X76.373 Y85.335
G0 X95.359 Y105.4
M204 S500
;TYPE:WALL-INNER
G1 F2400 E29.78027
G1 F1500 X95.359 Y86.6 E30.40556
G1 X76.559 Y86.6 E31.03085
G1 X76.559 Y105.4 E31.65614
G1 X95.359 Y105.4 E32.28143
M204 S2000
G0 F7500 X95.759 Y105.8
M204 S500
;TYPE:WALL-OUTER
G1 F1500 X95.759 Y86.2 E32.93333
G1 X76.159 Y86.2 E33.58523
G1 X76.159 Y105.8 E34.23712
G1 X95.759 Y105.8 E34.88902
M204 S2000
G0 F7500 X95.489 Y105.53
G0 X95.259 Y105.04
G0 X94.999 Y105.04
M204 S500
;TYPE:SKIN
G1 F1500 X94.999 Y86.96 E35.49037
G1 X76.919 Y86.96 E36.09171
G1 X76.919 Y105.04 E36.69305
G1 X94.999 Y105.04 E37.2944
M204 S2000
G0 F7500 X95.259 Y105.04
G0 X95.187 Y86.772
G0 X94.514 Y86.7
G0 X94.514 Y87.16
M204 S500
G1 F1500 X94.798 Y87.445 E37.30778
M204 S2000
G0 F7500 X94.798 Y88.01
M204 S500
G1 F1500 X93.948 Y87.16 E37.34776
M204 S2000
G0 F7500 X93.382 Y87.16
M204 S500
G1 F1500 X94.798 Y88.576 E37.41436
M204 S2000
G0 F7500 X94.798 Y89.142
M204 S500
G1 F1500 X92.816 Y87.16 E37.50759
M204 S2000
G0 F7500 X92.251 Y87.16
M204 S500
G1 F1500 X94.798 Y89.707 E37.62739
M204 S2000
G0 F7500 X94.798 Y90.273
M204 S500
G1 F1500 X91.685 Y87.16 E37.77382
M204 S2000
G0 F7500 X91.119 Y87.16
M204 S500
G1 F1500 X94.798 Y90.839 E37.94687
M204 S2000
G0 F7500 X94.798 Y91.404
M204 S500
G1 F1500 X90.554 Y87.16 E38.14649
M204 S2000
G0 F7500 X89.988 Y87.16
M204 S500
G1 F1500 X94.798 Y91.97 E38.37274
M204 S2000
G0 F7500 X94.798 Y92.536
M204 S500
G1 F1500 X89.422 Y87.16 E38.62561
M204 S2000
G0 F7500 X88.857 Y87.16
M204 S500
G1 F1500 X94.798 Y93.101 E38.90506
M204 S2000
G0 F7500 X94.798 Y93.667
M204 S500
G1 F1500 X88.291 Y87.16 E39.21113
M204 S2000
G0 F7500 X87.725 Y87.16
M204 S500
G1 F1500 X94.798 Y94.233 E39.54382
M204 S2000
G0 F7500 X94.798 Y94.798
M204 S500
G1 F1500 X87.16 Y87.16 E39.90309
M204 S2000
G0 F7500 X86.594 Y87.16
M204 S500
G1 F1500 X94.798 Y95.364 E40.28898
M204 S2000
G0 F7500 X94.798 Y95.93
M204 S500
G1 F1500 X86.028 Y87.16 E40.70149
M204 S2000
G0 F7500 X85.463 Y87.16
M204 S500
G1 F1500 X94.798 Y96.496 E41.14061
M204 S2000
G0 F7500 X94.798 Y97.061
M204 S500
G1 F1500 X84.897 Y87.16 E41.60632
M204 S2000
G0 F7500 X84.331 Y87.16
M204 S500
G1 F1500 X94.798 Y97.627 E42.09865
M204 S2000
G0 F7500 X94.798 Y98.193
M204 S500
G1 F1500 X83.765 Y87.16 E42.61761
M204 S2000
G0 F7500 X83.2 Y87.16
M204 S500
G1 F1500 X94.798 Y98.758 E43.16315
M204 S2000
G0 F7500 X94.798 Y99.324
M204 S500
G1 F1500 X82.634 Y87.16 E43.7353
M204 S2000
G0 F7500 X82.068 Y87.16
M204 S500
G1 F1500 X94.798 Y99.89 E44.33408
M204 S2000
G0 F7500 X94.798 Y100.455
M204 S500
G1 F1500 X81.503 Y87.16 E44.95944
M204 S2000
G0 F7500 X80.937 Y87.16
M204 S500
G1 F1500 X94.798 Y101.021 E45.61142
M204 S2000
G0 F7500 X94.798 Y101.587
M204 S500
G1 F1500 X80.371 Y87.16 E46.29002
M204 S2000
G0 F7500 X79.806 Y87.16
M204 S500
G1 F1500 X94.798 Y102.152 E46.9952
M204 S2000
G0 F7500 X94.798 Y102.718
M204 S500
G1 F1500 X79.24 Y87.16 E47.727
M204 S2000
G0 F7500 X78.674 Y87.16
M204 S500
G1 F1500 X94.798 Y103.284 E48.48542
M204 S2000
G0 F7500 X94.798 Y103.849
M204 S500
G1 F1500 X78.109 Y87.16 E49.27042
M204 S2000
G0 F7500 X77.543 Y87.16
M204 S500
G1 F1500 X94.798 Y104.415 E50.08204
M204 S2000
G0 F7500 X94.656 Y104.839
M204 S500
G1 F1500 X77.118 Y87.3 E50.907
M204 S2000
G0 F7500 X77.118 Y87.866
M204 S500
G1 F1500 X94.091 Y104.839 E51.70536
M204 S2000
G0 F7500 X93.525 Y104.839
M204 S500
G1 F1500 X77.118 Y88.432 E52.4771
M204 S2000
G0 F7500 X77.118 Y88.997
M204 S500
G1 F1500 X92.959 Y104.839 E53.22223
M204 S2000
G0 F7500 X92.394 Y104.839
M204 S500
G1 F1500 X77.118 Y89.563 E53.94077
M204 S2000
G0 F7500 X77.118 Y90.129
M204 S500
G1 F1500 X91.828 Y104.839 E54.63268
M204 S2000
G0 F7500 X91.262 Y104.839
M204 S500
G1 F1500 X77.118 Y90.694 E55.29799
M204 S2000
G0 F7500 X77.118 Y91.26
M204 S500
G1 F1500 X90.697 Y104.839 E55.93671
M204 S2000
G0 F7500 X90.131 Y104.839
M204 S500
G1 F1500 X77.118 Y91.826 E56.5488
M204 S2000
G0 F7500 X77.118 Y92.391
M204 S500
G1 F1500 X89.565 Y104.839 E57.13429
M204 S2000
G0 F7500 X88.999 Y104.839
M204 S500
G1 F1500 X77.118 Y92.957 E57.69316
M204 S2000
G0 F7500 X77.118 Y93.523
M204 S500
G1 F1500 X88.434 Y104.839 E58.22543
M204 S2000
G0 F7500 X87.868 Y104.839
M204 S500
G1 F1500 X77.118 Y94.089 E58.73108
M204 S2000
G0 F7500 X77.118 Y94.654
M204 S500
G1 F1500 X87.302 Y104.839 E59.21013
M204 S2000
G0 F7500 X86.737 Y104.839
M204 S500
G1 F1500 X77.118 Y95.22 E59.66257
M204 S2000
G0 F7500 X77.118 Y95.786
M204 S500
G1 F1500 X86.171 Y104.839 E60.0884
M204 S2000
G0 F7500 X85.605 Y104.839
M204 S500
G1 F1500 X77.118 Y96.351 E60.48763
M204 S2000
G0 F7500 X77.118 Y96.917
M204 S500
G1 F1500 X85.04 Y104.839 E60.86025
M204 S2000
G0 F7500 X84.474 Y104.839
M204 S500
G1 F1500 X77.118 Y97.483 E61.20626
M204 S2000
G0 F7500 X77.118 Y98.048
M204 S500
G1 F1500 X83.908 Y104.839 E61.52566
M204 S2000
G0 F7500 X83.343 Y104.839
M204 S500
G1 F1500 X77.118 Y98.614 E61.81847
M204 S2000
G0 F7500 X77.118 Y99.18
M204 S500
G1 F1500 X82.777 Y104.839 E62.08465
M204 S2000
G0 F7500 X82.211 Y104.839
M204 S500
G1 F1500 X77.118 Y99.745 E62.32423
M204 S2000
G0 F7500 X77.118 Y100.311
M204 S500
G1 F1500 X81.646 Y104.839 E62.53721
M204 S2000
G0 F7500 X81.08 Y104.839
M204 S500
G1 F1500 X77.118 Y100.877 E62.72357
M204 S2000
G0 F7500 X77.118 Y101.442
M204 S500
G1 F1500 X80.514 Y104.839 E62.88333
M204 S2000
G0 F7500 X79.949 Y104.839
M204 S500
G1 F1500 X77.118 Y102.008 E63.0165
M204 S2000
G0 F7500 X77.118 Y102.574
M204 S500
G1 F1500 X79.383 Y104.839 E63.12303
