;FLAVOR:Marlin
;TIME:1577
;Filament used: 1.28224m
;Layer height: 0.2
;MINX:89
;MINY:89
;MINZ:0.2
;MAXX:131
;MAXY:131
;MAXZ:20
;Generated with Cura_SteamEngine 5.2.0
M82 ;absolute extrusion mode
; Ender 3 S1 Start G-code
G92 E0 ; Reset Extruder
G28 ; Home all axes
G1 Z10.0 F3000 ; Move Z Axis up little to prevent scratching of Heat Bed
G1 X0 Y0

M104 S200
M190 S60
M109 S200

G1 X0.1 Y20 Z0.3 F5000.0 ; Move to start position
G1 X0.1 Y200.0 Z0.3 F1500.0 E15 ; Draw the first line
G1 X0.4 Y200.0 Z0.3 F5000.0 ; Move to side a little
G1 X0.4 Y20 Z0.3 F1500.0 E30 ; Draw the second line
G92 E0 ; Reset Extruder
G1 Z2.0 F3000 ; Move Z Axis up little to prevent scratching of Heat Bed
G1 X5 Y20 Z0.3 F5000.0 ; Move over to prevent blob squish

G92 E0
G92 E0
G1 F2400 E-0.8
;LAYER_COUNT:100
;LAYER:0
M107
M204 S2000
G0 F7500 X92.198 Y92.264 Z0.2
M204 S500
;TYPE:SKIRT
G1 F2400 E0
G1 F1500 X92.886 Y91.627 E0.03119
G1 X93.626 Y91.051 E0.06237
G1 X94.412 Y90.539 E0.09357
G1 X95.239 Y90.097 E0.12476
G1 X96.101 Y89.727 E0.15596
G1 X96.991 Y89.431 E0.18716
G1 X97.903 Y89.213 E0.21835
G1 X98.83 Y89.072 E0.24953
G1 X99.701 Y89.013 E0.27857
G1 X100.33 Y89 E0.29949
G1 X119.451 Y89.001 E0.93546
G1 X120.149 Y89.011 E0.95868
G1 X121.085 Y89.065 E0.98986
G1 X122.013 Y89.197 E1.02104
G1 X122.927 Y89.409 E1.05224
G1 X123.819 Y89.698 E1.08343
G1 X124.684 Y90.061 E1.11463
G1 X125.514 Y90.497 E1.14581
G1 X126.305 Y91.002 E1.17703
G1 X127.049 Y91.573 E1.20822
G1 X127.742 Y92.205 E1.23942
G1 X128.379 Y92.893 E1.2706
G1 X128.954 Y93.634 E1.3018
G1 X129.465 Y94.42 E1.33298
G1 X129.907 Y95.248 E1.3642
G1 X130.276 Y96.11 E1.39538
G1 X130.571 Y97 E1.42657
G1 X130.789 Y97.912 E1.45776
G1 X130.929 Y98.84 E1.48897
G1 X130.987 Y99.701 E1.51767
G1 X131 Y100.33 E1.5386
G1 X130.999 Y119.4 E2.17287
G1 X130.99 Y120.127 E2.19705
G1 X130.939 Y121.064 E2.22826
G1 X130.807 Y121.992 E2.25944
G1 X130.598 Y122.906 E2.29062
G1 X130.311 Y123.799 E2.32182
G1 X129.949 Y124.665 E2.35304
G1 X129.515 Y125.496 E2.38422
G1 X129.011 Y126.287 E2.41541
G1 X128.442 Y127.032 E2.44659
G1 X127.811 Y127.727 E2.47782
G1 X127.124 Y128.365 E2.509
G1 X126.385 Y128.942 E2.54018
G1 X125.599 Y129.454 E2.57138
G1 X124.773 Y129.897 E2.60256
G1 X123.911 Y130.269 E2.63378
G1 X123.022 Y130.565 E2.66495
G1 X122.11 Y130.785 E2.69615
G1 X121.183 Y130.926 E2.72734
G1 X120.299 Y130.987 E2.75681
G1 X119.67 Y131 E2.77773
G1 X100.565 Y130.999 E3.41317
G1 X99.867 Y130.99 E3.43639
G1 X98.931 Y130.938 E3.46757
G1 X98.002 Y130.806 E3.49878
G1 X97.088 Y130.596 E3.52997
G1 X96.195 Y130.309 E3.56116
G1 X95.33 Y129.946 E3.59237
G1 X94.499 Y129.512 E3.62355
G1 X93.708 Y129.008 E3.65474
G1 X92.963 Y128.438 E3.68594
G1 X92.269 Y127.807 E3.71714
G1 X91.632 Y127.12 E3.7483
G1 X91.055 Y126.38 E3.77951
G1 X90.543 Y125.594 E3.81071
G1 X90.1 Y124.767 E3.84191
G1 X89.729 Y123.906 E3.8731
G1 X89.433 Y123.016 E3.90429
G1 X89.214 Y122.104 E3.93549
G1 X89.073 Y121.177 E3.96667
G1 X89.013 Y120.288 E3.99631
G1 X89 Y119.658 E4.01727
G1 X89.001 Y100.525 E4.65363
G1 X89.01 Y99.86 E4.67575
G1 X89.063 Y98.924 E4.70694
G1 X89.195 Y97.995 E4.73814
G1 X89.406 Y97.081 E4.76934
G1 X89.694 Y96.189 E4.80052
G1 X90.057 Y95.324 E4.83172
G1 X90.492 Y94.493 E4.86292
G1 X90.996 Y93.703 E4.89408
G1 X91.566 Y92.958 E4.92528
G1 X92.198 Y92.264 E4.9565
M204 S2000
G0 F7500 X92.589 Y92.439
M204 S500
G1 F1500 X93.274 Y91.823 E4.98714
G1 X94.01 Y91.27 E5.01776
G1 X94.791 Y90.782 E5.04839
G1 X95.611 Y90.364 E5.07901
G1 X96.465 Y90.019 E5.10964
G1 X97.345 Y89.749 E5.14026
G1 X98.245 Y89.557 E5.17086
G1 X99.159 Y89.443 E5.2015
G1 X99.712 Y89.413 E5.21992
G1 X100.33 Y89.4 E5.24048
G1 X119.293 Y89.4 E5.87119
G1 X120.143 Y89.411 E5.89946
G1 X121.062 Y89.464 E5.93008
G1 X121.973 Y89.597 E5.9607
G1 X122.869 Y89.808 E5.99132
G1 X123.743 Y90.096 E6.02192
G1 X124.59 Y90.459 E6.05257
G1 X125.401 Y90.894 E6.08318
G1 X126.171 Y91.398 E6.11379
G1 X126.895 Y91.967 E6.14442
G1 X127.567 Y92.597 E6.17506
G1 X128.182 Y93.282 E6.20567
G1 X128.735 Y94.018 E6.23629
G1 X129.222 Y94.799 E6.26691
G1 X129.639 Y95.62 E6.29753
G1 X129.984 Y96.474 E6.32817
G1 X130.253 Y97.354 E6.35877
G1 X130.445 Y98.255 E6.38941
G1 X130.558 Y99.168 E6.42001
G1 X130.587 Y99.712 E6.43813
G1 X130.6 Y100.33 E6.45869
G1 X130.599 Y119.395 E7.0928
G1 X130.59 Y120.122 E7.11698
G1 X130.539 Y121.041 E7.14759
G1 X130.408 Y121.953 E7.17823
G1 X130.198 Y122.849 E7.20884
G1 X129.912 Y123.724 E7.23946
G1 X129.551 Y124.571 E7.27008
G1 X129.117 Y125.383 E7.30071
G1 X128.615 Y126.155 E7.33134
G1 X128.047 Y126.88 E7.36197
G1 X127.419 Y127.553 E7.39258
G1 X126.735 Y128.169 E7.4232
G1 X126 Y128.723 E7.45381
G1 X125.22 Y129.212 E7.48443
G1 X124.4 Y129.631 E7.51506
G1 X123.547 Y129.977 E7.54568
G1 X122.667 Y130.248 E7.5763
G1 X121.767 Y130.441 E7.60692
G1 X120.853 Y130.556 E7.63756
G1 X120.288 Y130.587 E7.65638
G1 X119.67 Y130.6 E7.67693
G1 X100.57 Y130.599 E8.3122
G1 X99.872 Y130.59 E8.33542
G1 X98.953 Y130.538 E8.36604
G1 X98.042 Y130.407 E8.39665
G1 X97.146 Y130.197 E8.42726
G1 X96.271 Y129.91 E8.45788
G1 X95.424 Y129.548 E8.48852
G1 X94.612 Y129.114 E8.51914
G1 X93.841 Y128.612 E8.54974
G1 X93.116 Y128.044 E8.58038
G1 X92.443 Y127.415 E8.61101
G1 X91.828 Y126.731 E8.64161
G1 X91.274 Y125.996 E8.67222
G1 X90.786 Y125.215 E8.70285
G1 X90.367 Y124.395 E8.73348
G1 X90.021 Y123.542 E8.76409
G1 X89.751 Y122.662 E8.79471
G1 X89.558 Y121.761 E8.82536
G1 X89.444 Y120.848 E8.85596
G1 X89.413 Y120.277 E8.87498
G1 X89.4 Y119.658 E8.89557
G1 X89.401 Y100.531 E9.53174
G1 X89.41 Y99.866 E9.55386
G1 X89.462 Y98.946 E9.58451
G1 X89.594 Y98.035 E9.61512
G1 X89.805 Y97.139 E9.64574
G1 X90.092 Y96.264 E9.67637
G1 X90.455 Y95.418 E9.70699
G1 X90.889 Y94.606 E9.73761
G1 X91.392 Y93.835 E9.76823
G1 X91.961 Y93.111 E9.79885
G1 X92.589 Y92.439 E9.82945
M204 S2000
G0 F7500 X92.981 Y92.617
M204 S500
G1 F1500 X93.662 Y92.024 E9.85948
G1 X94.394 Y91.494 E9.88954
G1 X95.169 Y91.031 E9.91956
G1 X95.982 Y90.638 E9.9496
G1 X96.827 Y90.318 E9.97965
G1 X97.696 Y90.075 E10.00966
G1 X98.584 Y89.909 E10.03971
G1 X99.723 Y89.813 E10.07773
G1 X100.33 Y89.8 E10.09792
G1 X119.293 Y89.8 E10.72863
G1 X120.137 Y89.811 E10.75671
G1 X121.039 Y89.864 E10.78676
G1 X121.932 Y89.996 E10.81678
G1 X122.81 Y90.207 E10.84682
G1 X123.666 Y90.495 E10.87686
G1 X124.493 Y90.857 E10.90688
G1 X125.285 Y91.292 E10.93694
G1 X126.036 Y91.794 E10.96698
G1 X126.739 Y92.361 E10.99702
G1 X127.389 Y92.988 E11.02706
G1 X127.981 Y93.67 E11.05709
G1 X128.511 Y94.401 E11.08713
G1 X128.973 Y95.177 E11.11716
G1 X129.366 Y95.99 E11.1472
G1 X129.684 Y96.835 E11.17723
G1 X129.927 Y97.705 E11.20727
G1 X130.092 Y98.593 E11.23731
G1 X130.187 Y99.723 E11.27503
G1 X130.2 Y100.33 E11.29522
G1 X130.199 Y119.39 E11.92916
G1 X130.19 Y120.117 E11.95334
G1 X130.139 Y121.019 E11.98339
G1 X130.008 Y121.913 E12.01344
G1 X129.799 Y122.791 E12.04346
G1 X129.513 Y123.648 E12.07351
G1 X129.152 Y124.476 E12.10355
G1 X128.72 Y125.268 E12.13356
G1 X128.219 Y126.02 E12.16361
G1 X127.653 Y126.724 E12.19366
G1 X127.028 Y127.375 E12.22367
G1 X126.347 Y127.969 E12.25373
G1 X125.616 Y128.5 E12.28378
G1 X124.842 Y128.964 E12.31379
G1 X124.029 Y129.358 E12.34384
G1 X123.185 Y129.678 E12.37386
G1 X122.315 Y129.923 E12.40393
G1 X121.428 Y130.089 E12.43394
G1 X120.277 Y130.187 E12.47236
G1 X119.67 Y130.2 E12.49255
G1 X100.575 Y130.199 E13.12766
G1 X99.877 Y130.19 E13.15087
G1 X98.976 Y130.139 E13.18089
G1 X98.082 Y130.007 E13.21095
G1 X97.204 Y129.798 E13.24096
G1 X96.347 Y129.511 E13.27102
G1 X95.52 Y129.15 E13.30104
G1 X94.727 Y128.717 E13.33109
G1 X93.976 Y128.216 E13.36111
G1 X93.272 Y127.65 E13.39116
G1 X92.621 Y127.024 E13.4212
G1 X92.028 Y126.343 E13.45123
G1 X91.498 Y125.612 E13.48126
G1 X91.034 Y124.837 E13.51131
G1 X90.64 Y124.024 E13.54135
G1 X90.32 Y123.18 E13.57138
G1 X90.076 Y122.31 E13.60143
G1 X89.91 Y121.422 E13.63148
G1 X89.813 Y120.267 E13.67003
G1 X89.8 Y119.658 E13.69029
G1 X89.801 Y100.536 E14.32629
G1 X89.81 Y99.871 E14.34841
G1 X89.862 Y98.969 E14.37846
G1 X89.994 Y98.076 E14.40848
G1 X90.204 Y97.198 E14.43851
G1 X90.491 Y96.341 E14.46857
G1 X90.853 Y95.514 E14.49859
G1 X91.286 Y94.722 E14.52861
G1 X91.788 Y93.971 E14.55866
G1 X92.355 Y93.267 E14.58872
G1 X92.981 Y92.617 E14.61874
M204 S2000
G1 F2400 E13.81874
;MESH:test-cube.stl
G0 F7500 X100.414 Y99.335
G0 X100.6 Y119.4
M204 S500
;TYPE:WALL-INNER
G1 F2400 E14.61874
G1 F1500 X119.4 Y119.4 E15.24403
G1 X119.4 Y100.6 E15.86932
G1 X100.6 Y100.6 E16.49461
G1 X100.6 Y119.4 E17.1199
M204 S2000
G0 F7500 X100.2 Y119.8
M204 S500
;TYPE:WALL-OUTER
G1 F1500 X119.8 Y119.8 E17.7718
G1 X119.8 Y100.2 E18.4237
G1 X100.2 Y100.2 E19.0756
G1 X100.2 Y119.8 E19.7275
M204 S2000
G0 F7500 X100.47 Y119.53
G0 X100.7 Y119
G0 X101 Y119
M204 S500
;TYPE:SKIN
G1 F1500 X119 Y119 E20.32618
G1 X119 Y101 E20.92486
G1 X101 Y101 E21.52354
G1 X101 Y119 E22.12223
M204 S2000
G0 F7500 X101.4 Y118.6
M204 S500
G1 F1500 X118.6 Y118.6 E22.6943
G1 X118.6 Y101.4 E23.26637
G1 X101.4 Y101.4 E23.83845
G1 X101.4 Y110 E24.12449
G1 X101.4 Y118.6 E24.41052
M204 S2000
G0 F7500 X101.8 Y118.2
M204 S500
G1 F1500 X118.2 Y118.2 E24.95599
G1 X118.2 Y101.8 E25.50146
G1 X101.8 Y101.8 E26.04692
G1 X101.8 Y110 E26.31965
G1 X101.8 Y118.2 E26.59239
M204 S2000
G0 F7500 X102.2 Y117.8
M204 S500
G1 F1500 X117.8 Y117.8 E27.11125
G1 X117.8 Y102.2 E27.6301
G1 X102.2 Y102.2 E28.14896
G1 X102.2 Y110 E28.40839
G1 X102.2 Y117.8 E28.66782
M204 S2000
G0 F7500 X102.6 Y117.4
M204 S500
G1 F1500 X117.4 Y117.4 E29.16007
G1 X117.4 Y102.6 E29.65232
G1 X102.6 Y102.6 E30.14457
G1 X102.6 Y110 E30.3907
G1 X102.6 Y117.4 E30.63682
M204 S2000
G0 F7500 X103 Y117
M204 S500
G1 F1500 X117 Y117 E31.10246
G1 X117 Y103 E31.5681
G1 X103 Y103 E32.03375
G1 X103 Y110 E32.26657
G1 X103 Y117 E32.49939
M204 S2000
G0 F7500 X103.4 Y116.6
M204 S500
G1 F1500 X116.6 Y116.6 E32.93842
G1 X116.6 Y103.4 E33.37746
G1 X103.4 Y103.4 E33.81649
G1 X103.4 Y110 E34.03601
G1 X103.4 Y116.6 E34.25552
M204 S2000
G0 F7500 X103.8 Y116.2
M204 S500
G1 F1500 X116.2 Y116.2 E34.66795
G1 X116.2 Y103.8 E35.08037
G1 X103.8 Y103.8 E35.4928
G1 X103.8 Y110 E35.69901
G1 X103.8 Y116.2 E35.90523
M204 S2000
G0 F7500 X104.2 Y115.8
M204 S500
G1 F1500 X115.8 Y115.8 E36.29104
G1 X115.8 Y104.2 E36.67686
G1 X104.2 Y104.2 E37.06268
G1 X104.2 Y110 E37.25559
G1 X104.2 Y115.8 E37.4485
M204 S2000
G0 F7500 X104.6 Y115.4
M204 S500
G1 F1500 X115.4 Y115.4 E37.80771
G1 X115.4 Y104.6 E38.16691
G1 X104.6 Y104.6 E38.52612
G1 X104.6 Y110 E38.70573
G1 X104.6 Y115.4 E38.88533
M204 S2000
G0 F7500 X105 Y115
M204 S500
G1 F1500 X115 Y115 E39.21794
G1 X115 Y105 E39.55054
G1 X105 Y105 E39.88314
G1 X105 Y110 E40.04944
G1 X105 Y115 E40.21574
M204 S2000
G0 F7500 X105.4 Y114.6
M204 S500
G1 F1500 X114.6 Y114.6 E40.52173
G1 X114.6 Y105.4 E40.82773
G1 X105.4 Y105.4 E41.13372
G1 X105.4 Y114.6 E41.43971
M204 S2000
G0 F7500 X105.8 Y114.2
M204 S500
G1 F1500 X114.2 Y114.2 E41.7191
G1 X114.2 Y105.8 E41.99848
G1 X105.8 Y105.8 E42.27787
G1 X105.8 Y114.2 E42.55725
M204 S2000
G0 F7500 X106.2 Y113.8
M204 S500
G1 F1500 X113.8 Y113.8 E42.81003
G1 X113.8 Y106.2 E43.06281
G1 X106.2 Y106.2 E43.31558
G1 X106.2 Y113.8 E43.56836
M204 S2000
G0 F7500 X106.6 Y113.4
M204 S500
G1 F1500 X113.4 Y113.4 E43.79453
G1 X113.4 Y106.6 E44.0207
G1 X106.6 Y106.6 E44.24687
G1 X106.6 Y113.4 E44.47304
M204 S2000
G0 F7500 X107 Y113
M204 S500
G1 F1500 X113 Y113 E44.6726
G1 X113 Y107 E44.87216
G1 X107 Y107 E45.07172
G1 X107 Y113 E45.27128
M204 S2000
G0 F7500 X107.4 Y112.6
M204 S500
G1 F1500 X112.6 Y112.6 E45.44423
G1 X112.6 Y107.4 E45.61719
G1 X107.4 Y107.4 E45.79014
G1 X107.4 Y112.6 E45.96309
M204 S2000
G0 F7500 X107.8 Y112.2
M204 S500
G1 F1500 X112.2 Y112.2 E46.10944
G1 X112.2 Y107.8 E46.25578
G1 X107.8 Y107.8 E46.40212
G1 X107.8 Y112.2 E46.54847
M204 S2000
G0 F7500 X108.2 Y111.8
M204 S500
G1 F1500 X111.8 Y111.8 E46.66821
G1 X111.8 Y108.2 E46.78794
G1 X108.2 Y108.2 E46.90768
G1 X108.2 Y111.8 E47.02741
M204 S2000
G0 F7500 X108.6 Y111.4
M204 S500
G1 F1500 X111.4 Y111.4 E47.12054
G1 X111.4 Y108.6 E47.21367
G1 X108.6 Y108.6 E47.3068
G1 X108.6 Y111.4 E47.39993
M204 S2000
G0 F7500 X109 Y111
M204 S500
G1 F1500 X111 Y111 E47.46645
G1 X111 Y109 E47.53297
G1 X109 Y109 E47.59949
G1 X109 Y111 E47.66601
M204 S2000
G0 F7500 X109.4 Y110.6
M204 S500
G1 F1500 X110.6 Y110.6 E47.70592
G1 X110.6 Y109.4 E47.74583
G1 X109.4 Y109.4 E47.78575
G1 X109.4 Y110.6 E47.82566
M204 S2000
G0 F7500 X110.2 Y110.2
M104 S200
M204 S500
G1 F1500 X110.2 Y109.8 E47.83896
G1 X109.8 Y109.8 E47.85227
G1 X109.8 Y110.2 E47.86557
G1 X110.2 Y110.2 E47.87887
M204 S2000
G1 F2400 E47.07887
;MESH:NONMESH
G0 F300 X110.2 Y110.2 Z0.4
G0 F7500 X110.2 Y119.2
G0 X100.6 Y119.4
;TIME_ELAPSED:67.279409
;LAYER:1
M106 S85
M204 S500
;TYPE:WALL-INNER
;MESH:test-cube.stl
G1 F2400 E47.87887
G1 F1500 X119.4 Y119.4 E48.50416
G1 X119.4 Y100.6 E49.12946
G1 X100.6 Y100.6 E49.75475
G1 X100.6 Y119.4 E50.38004
M204 S2000
G0 F8250 X100.2 Y119.8
M204 S500
;TYPE:WALL-OUTER
G1 F1500 X119.8 Y119.8 E51.03194
G1 X119.8 Y100.2 E51.68383
G1 X100.2 Y100.2 E52.33573
G1 X100.2 Y119.8 E52.98763
M204 S2000
G0 F8250 X100.47 Y119.53
G0 X100.7 Y119
G0 X101 Y119
M204 S500
;TYPE:SKIN
G1 F1500 X119 Y119 E53.58631
G1 X119 Y101 E54.185
G1 X101 Y101 E54.78368
G1 X101 Y119 E55.38236
M204 S2000
G0 F8250 X101.4 Y118.6
M204 S500
G1 F1500 X118.6 Y118.6 E55.95444
G1 X118.6 Y101.4 E56.52651
G1 X101.4 Y101.4 E57.09858
G1 X101.4 Y118.6 E57.67066
M204 S2000
G0 F8250 X101.8 Y118.2
M204 S500
G1 F1500 X118.2 Y118.2 E58.21612
G1 X118.2 Y101.8 E58.76159
G1 X101.8 Y101.8 E59.30706
G1 X101.8 Y118.2 E59.85252
M204 S2000
G0 F8250 X102.2 Y117.8
M204 S500
G1 F1500 X117.8 Y117.8 E60.37138
G1 X117.8 Y102.2 E60.89024
G1 X102.2 Y102.2 E61.4091
G1 X102.2 Y117.8 E61.92796
M204 S2000
G0 F8250 X102.6 Y117.4
M204 S500
G1 F1500 X117.4 Y117.4 E62.42021
G1 X117.4 Y102.6 E62.91246
G1 X102.6 Y102.6 E63.40471
G1 X102.6 Y117.4 E63.89696
M204 S2000
G0 F8250 X103 Y117
M204 S500
G1 F1500 X117 Y117 E64.3626
G1 X117 Y103 E64.82824
G1 X103 Y103 E65.29388
G1 X103 Y117 E65.75952
M204 S2000
G0 F8250 X103.4 Y116.6
M204 S500
G1 F1500 X116.6 Y116.6 E66.19856
G1 X116.6 Y103.4 E66.63759
G1 X103.4 Y103.4 E67.07662
G1 X103.4 Y116.6 E67.51566
M204 S2000
G0 F8250 X103.8 Y116.2
M204 S500
G1 F1500 X116.2 Y116.2 E67.92808
G1 X116.2 Y103.8 E68.34051
G1 X103.8 Y103.8 E68.75294
G1 X103.8 Y116.2 E69.16536
M204 S2000
G0 F8250 X104.2 Y115.8
M204 S500
G1 F1500 X115.8 Y115.8 E69.55118
G1 X115.8 Y104.2 E69.937
G1 X104.2 Y104.2 E70.32281
G1 X104.2 Y115.8 E70.70863
M204 S2000
G0 F8250 X104.6 Y115.4
M204 S500
G1 F1500 X115.4 Y115.4 E71.06784
G1 X115.4 Y104.6 E71.42705
G1 X104.6 Y104.6 E71.78626
G1 X104.6 Y115.4 E72.14547
M204 S2000
G0 F8250 X105 Y115
M204 S500
G1 F1500 X115 Y115 E72.47807
G1 X115 Y105 E72.81067
G1 X105 Y105 E73.14327
G1 X105 Y115 E73.47587
M204 S2000
G0 F8250 X105.4 Y114.6
M204 S500
G1 F1500 X114.6 Y114.6 E73.78187
G1 X114.6 Y105.4 E74.08786
G1 X105.4 Y105.4 E74.39385
G1 X105.4 Y114.6 E74.69985
M204 S2000
G0 F8250 X105.8 Y114.2
M204 S500
G1 F1500 X114.2 Y114.2 E74.97923
G1 X114.2 Y105.8 E75.25862
G1 X105.8 Y105.8 E75.538
G1 X105.8 Y114.2 E75.81739
M204 S2000
G0 F8250 X106.2 Y113.8
M204 S500
G1 F1500 X113.8 Y113.8 E76.07016
G1 X113.8 Y106.2 E76.32294
G1 X106.2 Y106.2 E76.57572
G1 X106.2 Y113.8 E76.8285
M204 S2000
G0 F8250 X106.6 Y113.4
M204 S500
G1 F1500 X113.4 Y113.4 E77.05466
G1 X113.4 Y106.6 E77.28083
G1 X106.6 Y106.6 E77.507
G1 X106.6 Y113.4 E77.73317
M204 S2000
G0 F8250 X107 Y113
M204 S500
G1 F1500 X113 Y113 E77.93273
G1 X113 Y107 E78.13229
G1 X107 Y107 E78.33185
G1 X107 Y113 E78.53141
M204 S2000
G0 F8250 X107.4 Y112.6
M204 S500
G1 F1500 X112.6 Y112.6 E78.70437
G1 X112.6 Y107.4 E78.87732
G1 X107.4 Y107.4 E79.05027
G1 X107.4 Y112.6 E79.22323
M204 S2000
G0 F8250 X107.8 Y112.2
M204 S500
G1 F1500 X112.2 Y112.2 E79.36957
G1 X112.2 Y107.8 E79.51591
G1 X107.8 Y107.8 E79.66226
G1 X107.8 Y112.2 E79.8086
M204 S2000
G0 F8250 X108.2 Y111.8
M204 S500
G1 F1500 X111.8 Y111.8 E79.92834
G1 X111.8 Y108.2 E80.04808
G1 X108.2 Y108.2 E80.16781
G1 X108.2 Y111.8 E80.28755
M204 S2000
G0 F8250 X108.6 Y111.4
M204 S500
G1 F1500 X111.4 Y111.4 E80.38068
G1 X111.4 Y108.6 E80.47381
G1 X108.6 Y108.6 E80.56694
