;FLAVOR:Marlin
;TIME:1217
;Filament used: 1.35594m
;Layer height: 0.28
;MINX:89
;MINY:89
;MINZ:0.28
;MAXX:131
;MAXY:131
;MAXZ:19.88
;Generated with Cura_SteamEngine 5.2.0
M82 ;absolute extrusion mode
; Ender 3 S1 Start G-code
G92 E0 ; Reset Extruder
G28 ; Home all axes
G1 Z10.0 F3000 ; Move Z Axis up little to prevent scratching of Heat Bed
G1 X0 Y0

M104 S200
M190 S60
M109 S200

G1 X0.1 Y20 Z0.3 F5000.0 ; Move to start position
G1 X0.1 Y200.0 Z0.3 F1500.0 E15 ; Draw the first line
G1 X0.4 Y200.0 Z0.3 F5000.0 ; Move to side a little
G1 X0.4 Y20 Z0.3 F1500.0 E30 ; Draw the second line
G92 E0 ; Reset Extruder
G1 Z2.0 F3000 ; Move Z Axis up little to prevent scratching of Heat Bed
G1 X5 Y20 Z0.3 F5000.0 ; Move over to prevent blob squish

G92 E0
G92 E0
G1 F2400 E-0.8
;LAYER_COUNT:71
;LAYER:0
M107
M204 S2000
G0 F7500 X92.198 Y92.264 Z0.28
M204 S500
;TYPE:SKIRT
G1 F2400 E0
G1 F1500 X92.886 Y91.627 E0.04366
G1 X93.626 Y91.051 E0.08732
G1 X94.412 Y90.539 E0.131
G1 X95.239 Y90.097 E0.17467
G1 X96.101 Y89.727 E0.21835
G1 X96.991 Y89.431 E0.26202
G1 X97.903 Y89.213 E0.30568
G1 X98.83 Y89.072 E0.34935
G1 X99.701 Y89.013 E0.39
G1 X100.33 Y89 E0.41929
G1 X119.451 Y89.001 E1.30965
G1 X120.149 Y89.011 E1.34215
G1 X121.085 Y89.065 E1.38581
G1 X122.013 Y89.197 E1.42945
G1 X122.927 Y89.409 E1.47314
G1 X123.819 Y89.698 E1.5168
G1 X124.684 Y90.061 E1.56048
G1 X125.514 Y90.497 E1.60414
G1 X126.305 Y91.002 E1.64784
G1 X127.049 Y91.573 E1.69151
G1 X127.742 Y92.205 E1.73518
G1 X128.379 Y92.893 E1.77884
G1 X128.954 Y93.634 E1.82252
G1 X129.465 Y94.42 E1.86617
G1 X129.907 Y95.248 E1.90987
G1 X130.276 Y96.11 E1.95354
G1 X130.571 Y97 E1.9972
G1 X130.789 Y97.912 E2.04086
G1 X130.929 Y98.84 E2.08456
G1 X130.987 Y99.701 E2.12474
G1 X131 Y100.33 E2.15404
G1 X130.999 Y119.4 E3.04202
G1 X130.99 Y120.127 E3.07587
G1 X130.939 Y121.064 E3.11957
G1 X130.807 Y121.992 E3.16321
G1 X130.598 Y122.906 E3.20687
G1 X130.311 Y123.799 E3.25055
G1 X129.949 Y124.665 E3.29425
G1 X129.515 Y125.496 E3.33791
G1 X129.011 Y126.287 E3.38158
G1 X128.442 Y127.032 E3.42523
G1 X127.811 Y127.727 E3.46894
G1 X127.124 Y128.365 E3.5126
G1 X126.385 Y128.942 E3.55626
G1 X125.599 Y129.454 E3.59994
G1 X124.773 Y129.897 E3.64358
G1 X123.911 Y130.269 E3.6873
G1 X123.022 Y130.565 E3.73093
G1 X122.11 Y130.785 E3.77461
G1 X121.183 Y130.926 E3.81827
G1 X120.299 Y130.987 E3.85953
G1 X119.67 Y131 E3.88883
G1 X100.565 Y130.999 E4.77844
G1 X99.867 Y130.99 E4.81094
G1 X98.931 Y130.938 E4.85459
G1 X98.002 Y130.806 E4.89829
G1 X97.088 Y130.596 E4.94195
G1 X96.195 Y130.309 E4.98563
G1 X95.33 Y129.946 E5.02931
G1 X94.499 Y129.512 E5.07297
G1 X93.708 Y129.008 E5.11664
G1 X92.963 Y128.438 E5.16032
G1 X92.269 Y127.807 E5.20399
G1 X91.632 Y127.12 E5.24762
G1 X91.055 Y126.38 E5.29131
G1 X90.543 Y125.594 E5.33499
G1 X90.1 Y124.767 E5.37868
G1 X89.729 Y123.906 E5.42233
G1 X89.433 Y123.016 E5.46601
G1 X89.214 Y122.104 E5.50968
G1 X89.073 Y121.177 E5.55334
G1 X89.013 Y120.288 E5.59483
G1 X89 Y119.658 E5.62417
G1 X89.001 Y100.525 E6.51509
G1 X89.01 Y99.86 E6.54606
G1 X89.063 Y98.924 E6.58971
G1 X89.195 Y97.995 E6.6334
G1 X89.406 Y97.081 E6.67708
G1 X89.694 Y96.189 E6.72073
G1 X90.057 Y95.324 E6.76441
G1 X90.492 Y94.493 E6.80808
G1 X90.996 Y93.703 E6.85172
G1 X91.566 Y92.958 E6.8954
G1 X92.198 Y92.264 E6.93911
M204 S2000
G0 F7500 X92.589 Y92.439
M204 S500
G1 F1500 X93.274 Y91.823 E6.982
G1 X94.01 Y91.27 E7.02487
G1 X94.791 Y90.782 E7.06775
G1 X95.611 Y90.364 E7.11061
G1 X96.465 Y90.019 E7.1535
G1 X97.345 Y89.749 E7.19636
G1 X98.245 Y89.557 E7.23921
G1 X99.159 Y89.443 E7.2821
G1 X99.712 Y89.413 E7.30789
G1 X100.33 Y89.4 E7.33667
G1 X119.293 Y89.4 E8.21967
G1 X120.143 Y89.411 E8.25925
G1 X121.062 Y89.464 E8.30211
G1 X121.973 Y89.597 E8.34498
G1 X122.869 Y89.808 E8.38785
G1 X123.743 Y90.096 E8.43069
G1 X124.59 Y90.459 E8.4736
G1 X125.401 Y90.894 E8.51646
G1 X126.171 Y91.398 E8.55931
G1 X126.895 Y91.967 E8.60219
G1 X127.567 Y92.597 E8.64508
G1 X128.182 Y93.282 E8.68794
G1 X128.735 Y94.018 E8.73081
G1 X129.222 Y94.799 E8.77367
G1 X129.639 Y95.62 E8.81655
G1 X129.984 Y96.474 E8.85943
G1 X130.253 Y97.354 E8.90228
G1 X130.445 Y98.255 E8.94518
G1 X130.558 Y99.168 E8.98802
G1 X130.587 Y99.712 E9.01338
G1 X130.6 Y100.33 E9.04217
G1 X130.599 Y119.395 E9.92991
G1 X130.59 Y120.122 E9.96377
G1 X130.539 Y121.041 E10.00663
G1 X130.408 Y121.953 E10.04953
G1 X130.198 Y122.849 E10.09238
G1 X129.912 Y123.724 E10.13525
G1 X129.551 Y124.571 E10.17812
G1 X129.117 Y125.383 E10.22099
G1 X128.615 Y126.155 E10.26387
G1 X128.047 Y126.88 E10.30676
G1 X127.419 Y127.553 E10.34962
G1 X126.735 Y128.169 E10.39248
G1 X126 Y128.723 E10.43534
G1 X125.22 Y129.212 E10.4782
G1 X124.4 Y129.631 E10.52108
G1 X123.547 Y129.977 E10.56395
G1 X122.667 Y130.248 E10.60682
G1 X121.767 Y130.441 E10.64968
G1 X120.853 Y130.556 E10.69258
G1 X120.288 Y130.587 E10.71893
G1 X119.67 Y130.6 E10.74771
G1 X100.57 Y130.599 E11.63708
G1 X99.872 Y130.59 E11.66959
G1 X98.953 Y130.538 E11.71245
G1 X98.042 Y130.407 E11.75531
G1 X97.146 Y130.197 E11.79816
G1 X96.271 Y129.91 E11.84104
G1 X95.424 Y129.548 E11.88393
G1 X94.612 Y129.114 E11.9268
G1 X93.841 Y128.612 E11.96964
G1 X93.116 Y128.044 E12.01253
G1 X92.443 Y127.415 E12.05542
G1 X91.828 Y126.731 E12.09825
G1 X91.274 Y125.996 E12.14111
G1 X90.786 Y125.215 E12.18399
G1 X90.367 Y124.395 E12.22687
G1 X90.021 Y123.542 E12.26973
G1 X89.751 Y122.662 E12.31259
G1 X89.558 Y121.761 E12.3555
G1 X89.444 Y120.848 E12.39834
G1 X89.413 Y120.277 E12.42497
G1 X89.4 Y119.658 E12.4538
G1 X89.401 Y100.531 E13.34443
G1 X89.41 Y99.866 E13.3754
G1 X89.462 Y98.946 E13.41831
G1 X89.594 Y98.035 E13.46117
G1 X89.805 Y97.139 E13.50403
G1 X90.092 Y96.264 E13.54691
G1 X90.455 Y95.418 E13.58978
G1 X90.889 Y94.606 E13.63265
G1 X91.392 Y93.835 E13.67552
G1 X91.961 Y93.111 E13.7184
G1 X92.589 Y92.439 E13.76122
M204 S2000
G0 F7500 X92.981 Y92.617
M204 S500
G1 F1500 X93.662 Y92.024 E13.80327
G1 X94.394 Y91.494 E13.84535
G1 X95.169 Y91.031 E13.88739
G1 X95.982 Y90.638 E13.92944
G1 X96.827 Y90.318 E13.97151
G1 X97.696 Y90.075 E14.01353
G1 X98.584 Y89.909 E14.05559
G1 X99.723 Y89.813 E14.10882
G1 X100.33 Y89.8 E14.13709
G1 X119.293 Y89.8 E15.02009
G1 X120.137 Y89.811 E15.05939
G1 X121.039 Y89.864 E15.10146
G1 X121.932 Y89.996 E15.1435
G1 X122.81 Y90.207 E15.18554
G1 X123.666 Y90.495 E15.2276
G1 X124.493 Y90.857 E15.26963
G1 X125.285 Y91.292 E15.31171
G1 X126.036 Y91.794 E15.35377
G1 X126.739 Y92.361 E15.39583
G1 X127.389 Y92.988 E15.43788
G1 X127.981 Y93.67 E15.47993
G1 X128.511 Y94.401 E15.52198
G1 X128.973 Y95.177 E15.56403
G1 X129.366 Y95.99 E15.60608
G1 X129.684 Y96.835 E15.64812
G1 X129.927 Y97.705 E15.69018
G1 X130.092 Y98.593 E15.73224
G1 X130.187 Y99.723 E15.78504
G1 X130.2 Y100.33 E15.81331
G1 X130.199 Y119.39 E16.70082
G1 X130.19 Y120.117 E16.73468
G1 X130.139 Y121.019 E16.77675
G1 X130.008 Y121.913 E16.81882
G1 X129.799 Y122.791 E16.86084
G1 X129.513 Y123.648 E16.90291
G1 X129.152 Y124.476 E16.94497
G1 X128.72 Y125.268 E16.98698
G1 X128.219 Y126.02 E17.02906
G1 X127.653 Y126.724 E17.07112
G1 X127.028 Y127.375 E17.11314
G1 X126.347 Y127.969 E17.15522
G1 X125.616 Y128.5 E17.19729
G1 X124.842 Y128.964 E17.23931
G1 X124.029 Y129.358 E17.28138
G1 X123.185 Y129.678 E17.32341
G1 X122.315 Y129.923 E17.3655
G1 X121.428 Y130.089 E17.40752
G1 X120.277 Y130.187 E17.4613
G1 X119.67 Y130.2 E17.48958
G1 X100.575 Y130.199 E18.37872
G1 X99.877 Y130.19 E18.41122
G1 X98.976 Y130.139 E18.45324
G1 X98.082 Y130.007 E18.49532
G1 X97.204 Y129.798 E18.53735
G1 X96.347 Y129.511 E18.57943
G1 X95.52 Y129.15 E18.62145
G1 X94.727 Y128.717 E18.66352
G1 X93.976 Y128.216 E18.70556
G1 X93.272 Y127.65 E18.74762
G1 X92.621 Y127.024 E18.78968
G1 X92.028 Y126.343 E18.83172
G1 X91.498 Y125.612 E18.87377
G1 X91.034 Y124.837 E18.91583
G1 X90.64 Y124.024 E18.9579
G1 X90.32 Y123.18 E18.99993
G1 X90.076 Y122.31 E19.042
G1 X89.91 Y121.422 E19.08407
G1 X89.813 Y120.267 E19.13804
G1 X89.8 Y119.658 E19.1664
G1 X89.801 Y100.536 E20.0568
G1 X89.81 Y99.871 E20.08777
G1 X89.862 Y98.969 E20.12984
G1 X89.994 Y98.076 E20.17187
G1 X90.204 Y97.198 E20.21391
G1 X90.491 Y96.341 E20.25599
G1 X90.853 Y95.514 E20.29803
G1 X91.286 Y94.722 E20.34006
G1 X91.788 Y93.971 E20.38212
G1 X92.355 Y93.267 E20.42421
G1 X92.981 Y92.617 E20.46624
M204 S2000
G1 F2400 E19.66624
;MESH:test-cube.stl
G0 F7500 X100.414 Y99.335
G0 X100.6 Y119.4
M204 S500
;TYPE:WALL-INNER
G1 F2400 E20.46624
G1 F1500 X119.4 Y119.4 E21.34164
G1 X119.4 Y100.6 E22.21705
G1 X100.6 Y100.6 E23.09246
G1 X100.6 Y119.4 E23.96786
M204 S2000
G0 F7500 X100.2 Y119.8
M204 S500
;TYPE:WALL-OUTER
G1 F1500 X119.8 Y119.8 E24.88052
G1 X119.8 Y100.2 E25.79318
G1 X100.2 Y100.2 E26.70584
G1 X100.2 Y119.8 E27.61849
M204 S2000
G0 F7500 X100.47 Y119.53
G0 X100.7 Y119.04
G0 X100.96 Y119.04
M204 S500
;TYPE:SKIN
G1 F1500 X119.04 Y119.04 E28.46038
G1 X119.04 Y100.96 E29.30226
G1 X100.96 Y100.96 E30.14414
G1 X100.96 Y119.04 E30.98602
M204 S2000
G0 F7500 X101.302 Y118.839
M204 S500
G1 F1500 X101.159 Y118.695 E30.99547
M204 S2000
G0 F7500 X101.159 Y118.129
M204 S500
G1 F1500 X101.868 Y118.839 E31.04219
M204 S2000
G0 F7500 X102.434 Y118.839
M204 S500
G1 F1500 X101.159 Y117.564 E31.12615
M204 S2000
G0 F7500 X101.159 Y116.998
M204 S500
G1 F1500 X103 Y118.839 E31.24738
M204 S2000
G0 F7500 X103.565 Y118.839
M204 S500
G1 F1500 X101.159 Y116.432 E31.40585
M204 S2000
G0 F7500 X101.159 Y115.867
M204 S500
G1 F1500 X104.131 Y118.839 E31.60157
M204 S2000
G0 F7500 X104.697 Y118.839
M204 S500
G1 F1500 X101.159 Y115.301 E31.83455
M204 S2000
G0 F7500 X101.159 Y114.735
M204 S500
G1 F1500 X105.262 Y118.839 E32.10477
M204 S2000
G0 F7500 X105.828 Y118.839
M204 S500
G1 F1500 X101.159 Y114.17 E32.41223
M204 S2000
G0 F7500 X101.159 Y113.604
M204 S500
G1 F1500 X106.394 Y118.839 E32.75697
M204 S2000
G0 F7500 X106.959 Y118.839
M204 S500
G1 F1500 X101.159 Y113.038 E33.13894
M204 S2000
G0 F7500 X101.159 Y112.473
M204 S500
G1 F1500 X107.525 Y118.839 E33.55815
M204 S2000
G0 F7500 X108.091 Y118.839
M204 S500
G1 F1500 X101.159 Y111.907 E34.01464
M204 S2000
G0 F7500 X101.159 Y111.341
M204 S500
G1 F1500 X108.656 Y118.839 E34.50836
M204 S2000
G0 F7500 X109.222 Y118.839
M204 S500
G1 F1500 X101.159 Y110.776 E35.03932
M204 S2000
G0 F7500 X101.159 Y110.21
M204 S500
G1 F1500 X109.788 Y118.839 E35.60756
M204 S2000
G0 F7500 X110.353 Y118.839
M204 S500
G1 F1500 X101.159 Y109.644 E36.21303
M204 S2000
G0 F7500 X101.159 Y109.078
M204 S500
G1 F1500 X110.919 Y118.839 E36.85577
M204 S2000
G0 F7500 X111.485 Y118.839
M204 S500
G1 F1500 X101.159 Y108.513 E37.53576
M204 S2000
G0 F7500 X101.159 Y107.947
M204 S500
G1 F1500 X112.05 Y118.839 E38.25298
M204 S2000
G0 F7500 X112.616 Y118.839
M204 S500
G1 F1500 X101.159 Y107.381 E39.00748
M204 S2000
G0 F7500 X101.159 Y106.816
M204 S500
G1 F1500 X113.182 Y118.839 E39.79921
M204 S2000
G0 F7500 X113.748 Y118.839
M204 S500
G1 F1500 X101.159 Y106.25 E40.62822
M204 S2000
G0 F7500 X101.159 Y105.684
M204 S500
G1 F1500 X114.313 Y118.839 E41.49447
M204 S2000
G0 F7500 X114.879 Y118.839
M204 S500
G1 F1500 X101.159 Y105.119 E42.39795
M204 S2000
G0 F7500 X101.159 Y104.553
M204 S500
G1 F1500 X115.445 Y118.839 E43.33871
M204 S2000
G0 F7500 X116.01 Y118.839
M204 S500
G1 F1500 X101.159 Y103.987 E44.31671
M204 S2000
G0 F7500 X101.159 Y103.422
M204 S500
G1 F1500 X116.576 Y118.839 E45.33194
M204 S2000
G0 F7500 X117.142 Y118.839
M204 S500
G1 F1500 X101.159 Y102.856 E46.38445
M204 S2000
G0 F7500 X101.159 Y102.29
M204 S500
G1 F1500 X117.707 Y118.839 E47.4742
M204 S2000
G0 F7500 X118.273 Y118.839
M204 S500
G1 F1500 X101.159 Y101.725 E48.60118
M204 S2000
G0 F7500 X101.159 Y101.159
M204 S500
G1 F1500 X118.839 Y118.839 E49.76544
M204 S2000
G0 F7500 X118.839 Y118.274
M204 S500
G1 F1500 X101.725 Y101.16 E50.89243
M204 S2000
G0 F7500 X102.291 Y101.16
M204 S500
G1 F1500 X118.839 Y117.708 E51.98214
M204 S2000
G0 F7500 X118.839 Y117.142
M204 S500
G1 F1500 X102.857 Y101.16 E53.03458
M204 S2000
G0 F7500 X103.422 Y101.16
M204 S500
G1 F1500 X118.839 Y116.577 E54.04982
M204 S2000
G0 F7500 X118.839 Y116.011
M204 S500
G1 F1500 X103.988 Y101.16 E55.02778
M204 S2000
G0 F7500 X104.554 Y101.16
M204 S500
G1 F1500 X118.839 Y115.445 E55.96848
M204 S2000
G0 F7500 X118.839 Y114.88
M204 S500
G1 F1500 X105.119 Y101.16 E56.87196
M204 S2000
G0 F7500 X105.685 Y101.16
M204 S500
G1 F1500 X118.839 Y114.314 E57.73817
M204 S2000
G0 F7500 X118.839 Y113.748
M204 S500
G1 F1500 X106.251 Y101.16 E58.56712
M204 S2000
G0 F7500 X106.816 Y101.16
M204 S500
G1 F1500 X118.839 Y113.183 E59.35885
M204 S2000
G0 F7500 X118.839 Y112.617
M204 S500
G1 F1500 X107.382 Y101.16 E60.11331
M204 S2000
G0 F7500 X107.948 Y101.16
M204 S500
G1 F1500 X118.839 Y112.051 E60.8305
M204 S2000
G0 F7500 X118.839 Y111.485
M204 S500
G1 F1500 X108.514 Y101.16 E61.51042
M204 S2000
G0 F7500 X109.079 Y101.16
M204 S500
G1 F1500 X118.839 Y110.92 E62.15314
M204 S2000
G0 F7500 X118.839 Y110.354
M204 S500
G1 F1500 X109.645 Y101.16 E62.75858
M204 S2000
G0 F7500 X110.211 Y101.16
M204 S500
G1 F1500 X118.839 Y109.788 E63.32675
M204 S2000
G0 F7500 X118.839 Y109.223
M204 S500
G1 F1500 X110.776 Y101.16 E63.85771
M204 S2000
G0 F7500 X111.342 Y101.16
M204 S500
G1 F1500 X118.839 Y108.657 E64.3514
M204 S2000
G0 F7500 X118.839 Y108.091
M204 S500
G1 F1500 X111.908 Y101.16 E64.80782
M204 S2000
G0 F7500 X112.473 Y101.16
M204 S500
G1 F1500 X118.839 Y107.526 E65.22703
M204 S2000
G0 F7500 X118.839 Y106.96
M204 S500
G1 F1500 X113.039 Y101.16 E65.60897
M204 S2000
G0 F7500 X113.605 Y101.16
M204 S500
G1 F1500 X118.839 Y106.394 E65.95364
M204 S2000
G0 F7500 X118.839 Y105.829
M204 S500
G1 F1500 X114.17 Y101.16 E66.2611
M204 S2000
G0 F7500 X114.736 Y101.16
M204 S500
G1 F1500 X118.839 Y105.263 E66.53129
M204 S2000
G0 F7500 X118.839 Y104.697
M204 S500
G1 F1500 X115.302 Y101.16 E66.7642
M204 S2000
G0 F7500 X115.867 Y101.16
M204 S500
G1 F1500 X118.839 Y104.132 E66.95992
M204 S2000
G0 F7500 X118.839 Y103.566
M204 S500
G1 F1500 X116.433 Y101.16 E67.11835
M204 S2000
G0 F7500 X116.999 Y101.16
M204 S500
G1 F1500 X118.839 Y103 E67.23952
M204 S2000
G0 F7500 X118.839 Y102.435
M204 S500
G1 F1500 X117.564 Y101.16 E67.32348
M204 S2000
G0 F7500 X118.13 Y101.16
M204 S500
G1 F1500 X118.839 Y101.869 E67.37017
M204 S2000
G0 F7500 X118.839 Y101.303
M104 S200
M204 S500
G1 F1500 X118.696 Y101.16 E67.37959
M204 S2000
G1 F2400 E66.57959
;MESH:NONMESH
G0 F300 X118.696 Y101.16 Z0.56
G0 F7500 X118.696 Y100.7
G0 X100.772 Y100.772
G0 X100.6 Y119.4
;TIME_ELAPSED:69.327263
;LAYER:1
M106 S85
M204 S500
;TYPE:WALL-INNER
;MESH:test-cube.stl
G1 F2400 E67.37959
G1 F1500 X119.4 Y119.4 E68.255
G1 X119.4 Y100.6 E69.1304
G1 X100.6 Y100.6 E70.00581
G1 X100.6 Y119.4 E70.88122
M204 S2000
G0 F8250 X100.2 Y119.8
M204 S500
;TYPE:WALL-OUTER
G1 F1500 X119.8 Y119.8 E71.79387
G1 X119.8 Y100.2 E72.70653
G1 X100.2 Y100.2 E73.61919
G1 X100.2 Y119.8 E74.53185
M204 S2000
G0 F8250 X100.47 Y119.53
G0 X100.7 Y119.04
G0 X100.96 Y119.04
M204 S500
;TYPE:SKIN
G1 F1500 X119.04 Y119.04 E75.37373
G1 X119.04 Y100.96 E76.21561
G1 X100.96 Y100.96 E77.05749
G1 X100.96 Y110 E77.47843
G1 X100.96 Y119.04 E77.89937
M204 S2000
G0 F8250 X100.7 Y119.04
G0 X100.772 Y100.772
G0 X101.355 Y100.7
G0 X101.355 Y101.159
M204 S500
G1 F1500 X101.16 Y101.355 E77.91224
M204 S2000
G0 F8250 X101.16 Y101.92
M204 S500
G1 F1500 X101.921 Y101.159 E77.96236
M204 S2000
G0 F8250 X102.487 Y101.159
M204 S500
G1 F1500 X101.16 Y102.486 E78.04974
M204 S2000
G0 F8250 X101.16 Y103.052
M204 S500
G1 F1500 X103.053 Y101.159 E78.1744
M204 S2000
G0 F8250 X103.618 Y101.159
M204 S500
G1 F1500 X101.16 Y103.618 E78.3363
M204 S2000
G0 F8250 X101.16 Y104.183
M204 S500
G1 F1500 X104.184 Y101.159 E78.53543
M204 S2000
G0 F8250 X104.75 Y101.159
M204 S500
G1 F1500 X101.16 Y104.749 E78.77184
M204 S2000
G0 F8250 X101.16 Y105.315
M204 S500
G1 F1500 X105.315 Y101.159 E79.04549
M204 S2000
G0 F8250 X105.881 Y101.159
M204 S500
G1 F1500 X101.16 Y105.88 E79.35637
M204 S2000
G0 F8250 X101.16 Y106.446
M204 S500
G1 F1500 X106.447 Y101.159 E79.70453
M204 S2000
G0 F8250 X107.012 Y101.159
M204 S500
G1 F1500 X101.16 Y107.012 E80.08993
M204 S2000
G0 F8250 X101.16 Y107.577
M204 S500
G1 F1500 X107.578 Y101.159 E80.51256
M204 S2000
