;FLAVOR:Marlin
;TIME:13209
;Filament used: 9.48782m
;Layer height: 0.2
;MINX:79
;MINY:79
;MINZ:0.2
;MAXX:141
;MAXY:141
;MAXZ:90
;Generated with Cura_SteamEngine 5.2.0
M82 ;absolute extrusion mode
; Ender 3 S1 Start G-code
G92 E0 ; Reset Extruder
G28 ; Home all axes
G1 Z10.0 F3000 ; Move Z Axis up little to prevent scratching of Heat Bed
G1 X0 Y0

M104 S200
M190 S60
M109 S200

G1 X0.1 Y20 Z0.3 F5000.0 ; Move to start position
G1 X0.1 Y200.0 Z0.3 F1500.0 E15 ; Draw the first line
G1 X0.4 Y200.0 Z0.3 F5000.0 ; Move to side a little
G1 X0.4 Y20 Z0.3 F1500.0 E30 ; Draw the second line
G92 E0 ; Reset Extruder
G1 Z2.0 F3000 ; Move Z Axis up little to prevent scratching of Heat Bed
G1 X5 Y20 Z0.3 F5000.0 ; Move over to prevent blob squish

G92 E0
G92 E0
G1 F2400 E-0.8
;LAYER_COUNT:450
;LAYER:0
M107
M204 S2000
G0 F7500 X82.198 Y82.264 Z0.2
M204 S500
;TYPE:SKIRT
G1 F2400 E0
G1 F1500 X82.886 Y81.627 E0.03119
G1 X83.626 Y81.051 E0.06237
G1 X84.412 Y80.539 E0.09357
G1 X85.239 Y80.097 E0.12476
G1 X86.101 Y79.727 E0.15596
G1 X86.991 Y79.431 E0.18716
G1 X87.903 Y79.213 E0.21835
G1 X88.83 Y79.072 E0.24953
G1 X89.701 Y79.013 E0.27857
G1 X90.33 Y79 E0.29949
G1 X129.451 Y79.001 E1.60066
G1 X130.149 Y79.011 E1.62388
G1 X131.085 Y79.065 E1.65506
G1 X132.013 Y79.197 E1.68624
G1 X132.927 Y79.409 E1.71745
G1 X133.819 Y79.698 E1.74863
G1 X134.684 Y80.061 E1.77983
G1 X135.514 Y80.497 E1.81102
G1 X136.305 Y81.002 E1.84223
G1 X137.049 Y81.573 E1.87342
G1 X137.742 Y82.205 E1.90462
G1 X138.379 Y82.893 E1.9358
G1 X138.954 Y83.634 E1.967
G1 X139.465 Y84.42 E1.99818
G1 X139.907 Y85.248 E2.0294
G1 X140.276 Y86.11 E2.06059
G1 X140.571 Y87 E2.09177
G1 X140.789 Y87.912 E2.12296
G1 X140.929 Y88.84 E2.15417
G1 X140.987 Y89.701 E2.18288
G1 X141 Y90.33 E2.2038
G1 X140.999 Y129.4 E3.50327
G1 X140.99 Y130.127 E3.52746
G1 X140.939 Y131.064 E3.55867
G1 X140.807 Y131.992 E3.58984
G1 X140.598 Y132.906 E3.62103
G1 X140.311 Y133.799 E3.65222
G1 X139.949 Y134.665 E3.68344
G1 X139.515 Y135.496 E3.71462
G1 X139.011 Y136.287 E3.74582
G1 X138.442 Y137.032 E3.777
G1 X137.811 Y137.727 E3.80822
G1 X137.124 Y138.365 E3.8394
G1 X136.385 Y138.942 E3.87059
G1 X135.599 Y139.454 E3.90179
G1 X134.773 Y139.897 E3.93296
G1 X133.911 Y140.269 E3.96419
G1 X133.022 Y140.565 E3.99535
G1 X132.11 Y140.785 E4.02656
G1 X131.183 Y140.926 E4.05774
G1 X130.299 Y140.987 E4.08721
G1 X129.67 Y141 E4.10814
G1 X90.565 Y140.999 E5.40878
G1 X89.867 Y140.99 E5.432
G1 X88.931 Y140.938 E5.46317
G1 X88.002 Y140.806 E5.49438
G1 X87.088 Y140.596 E5.52558
G1 X86.195 Y140.309 E5.55677
G1 X85.33 Y139.946 E5.58797
G1 X84.499 Y139.512 E5.61916
G1 X83.708 Y139.008 E5.65035
G1 X82.963 Y138.438 E5.68155
G1 X82.269 Y137.807 E5.71275
G1 X81.632 Y137.12 E5.74391
G1 X81.055 Y136.38 E5.77512
G1 X80.543 Y135.594 E5.80632
G1 X80.1 Y134.767 E5.83752
G1 X79.729 Y133.906 E5.8687
G1 X79.433 Y133.016 E5.8999
G1 X79.214 Y132.104 E5.9311
G1 X79.073 Y131.177 E5.96228
G1 X79.013 Y130.288 E5.99192
G1 X79 Y129.658 E6.01288
G1 X79.001 Y90.525 E7.31444
G1 X79.01 Y89.86 E7.33656
G1 X79.063 Y88.924 E7.36775
G1 X79.195 Y87.995 E7.39896
G1 X79.406 Y87.081 E7.43015
G1 X79.694 Y86.189 E7.46133
G1 X80.057 Y85.324 E7.49253
G1 X80.492 Y84.493 E7.52373
G1 X80.996 Y83.703 E7.5549
G1 X81.566 Y82.958 E7.58609
G1 X82.198 Y82.264 E7.61731
M204 S2000
G0 F7500 X82.589 Y82.439
M204 S500
G1 F1500 X83.274 Y81.823 E7.64796
G1 X84.01 Y81.27 E7.67857
G1 X84.791 Y80.782 E7.7092
G1 X85.611 Y80.364 E7.73982
G1 X86.465 Y80.019 E7.77045
G1 X87.345 Y79.749 E7.80107
G1 X88.245 Y79.557 E7.83167
G1 X89.159 Y79.443 E7.86231
G1 X89.712 Y79.413 E7.88073
G1 X90.33 Y79.4 E7.90129
G1 X129.293 Y79.4 E9.1972
G1 X130.143 Y79.411 E9.22548
G1 X131.062 Y79.464 E9.25609
G1 X131.973 Y79.597 E9.28672
G1 X132.869 Y79.808 E9.31733
G1 X133.743 Y80.096 E9.34794
G1 X134.59 Y80.459 E9.37859
G1 X135.401 Y80.894 E9.4092
G1 X136.171 Y81.398 E9.43981
G1 X136.895 Y81.967 E9.47043
G1 X137.567 Y82.597 E9.50107
G1 X138.182 Y83.282 E9.53169
G1 X138.735 Y84.018 E9.56231
G1 X139.222 Y84.799 E9.59292
G1 X139.639 Y85.62 E9.62355
G1 X139.984 Y86.474 E9.65418
G1 X140.253 Y87.354 E9.68479
G1 X140.445 Y88.255 E9.71543
G1 X140.558 Y89.168 E9.74603
G1 X140.587 Y89.712 E9.76414
G1 X140.6 Y90.33 E9.7847
G1 X140.599 Y129.395 E11.08401
G1 X140.59 Y130.122 E11.10819
G1 X140.539 Y131.041 E11.13881
G1 X140.408 Y131.953 E11.16945
G1 X140.198 Y132.849 E11.20006
G1 X139.912 Y133.724 E11.23068
G1 X139.551 Y134.571 E11.2613
G1 X139.117 Y135.383 E11.29192
G1 X138.615 Y136.155 E11.32255
G1 X138.047 Y136.88 E11.35318
G1 X137.419 Y137.553 E11.3838
G1 X136.735 Y138.169 E11.41442
G1 X136 Y138.723 E11.44503
G1 X135.22 Y139.212 E11.47565
G1 X134.4 Y139.631 E11.50628
G1 X133.547 Y139.977 E11.53689
G1 X132.667 Y140.248 E11.56752
G1 X131.767 Y140.441 E11.59813
G1 X130.853 Y140.556 E11.62877
G1 X130.288 Y140.587 E11.64759
G1 X129.67 Y140.6 E11.66815
G1 X90.57 Y140.599 E12.96862
G1 X89.872 Y140.59 E12.99184
G1 X88.953 Y140.538 E13.02245
G1 X88.042 Y140.407 E13.05307
G1 X87.146 Y140.197 E13.08367
G1 X86.271 Y139.91 E13.1143
G1 X85.424 Y139.548 E13.14494
G1 X84.612 Y139.114 E13.17556
G1 X83.841 Y138.612 E13.20616
G1 X83.116 Y138.044 E13.2368
G1 X82.443 Y137.415 E13.26743
G1 X81.828 Y136.731 E13.29803
G1 X81.274 Y135.996 E13.32864
G1 X80.786 Y135.215 E13.35927
G1 X80.367 Y134.395 E13.3899
G1 X80.021 Y133.542 E13.42051
G1 X79.751 Y132.662 E13.45113
G1 X79.558 Y131.761 E13.48178
G1 X79.444 Y130.848 E13.51238
G1 X79.413 Y130.277 E13.5314
G1 X79.4 Y129.658 E13.55199
G1 X79.401 Y90.531 E14.85336
G1 X79.41 Y89.866 E14.87548
G1 X79.462 Y88.946 E14.90613
G1 X79.594 Y88.035 E14.93674
G1 X79.805 Y87.139 E14.96736
G1 X80.092 Y86.264 E14.99799
G1 X80.455 Y85.418 E15.02861
G1 X80.889 Y84.606 E15.05923
G1 X81.392 Y83.835 E15.08985
G1 X81.961 Y83.111 E15.12048
G1 X82.589 Y82.439 E15.15107
M204 S2000
G0 F7500 X82.981 Y82.617
M204 S500
G1 F1500 X83.662 Y82.024 E15.1811
G1 X84.394 Y81.494 E15.21116
G1 X85.169 Y81.031 E15.24119
G1 X85.982 Y80.638 E15.27122
G1 X86.827 Y80.318 E15.30127
G1 X87.696 Y80.075 E15.33128
G1 X88.584 Y79.909 E15.36133
G1 X89.723 Y79.813 E15.39935
G1 X90.33 Y79.8 E15.41954
G1 X129.293 Y79.8 E16.71546
G1 X130.137 Y79.811 E16.74353
G1 X131.039 Y79.864 E16.77358
G1 X131.932 Y79.996 E16.80361
G1 X132.81 Y80.207 E16.83364
G1 X133.666 Y80.495 E16.86368
G1 X134.493 Y80.857 E16.89371
G1 X135.285 Y81.292 E16.92376
G1 X136.036 Y81.794 E16.9538
G1 X136.739 Y82.361 E16.98384
G1 X137.389 Y82.988 E17.01388
G1 X137.981 Y83.67 E17.04392
G1 X138.511 Y84.401 E17.07395
G1 X138.973 Y85.177 E17.10399
G1 X139.366 Y85.99 E17.13402
G1 X139.684 Y86.835 E17.16405
G1 X139.927 Y87.705 E17.19409
G1 X140.092 Y88.593 E17.22414
G1 X140.187 Y89.723 E17.26185
G1 X140.2 Y90.33 E17.28205
G1 X140.199 Y129.39 E18.58119
G1 X140.19 Y130.117 E18.60537
G1 X140.139 Y131.019 E18.63542
G1 X140.008 Y131.913 E18.66547
G1 X139.799 Y132.791 E18.69549
G1 X139.513 Y133.648 E18.72554
G1 X139.152 Y134.476 E18.75558
G1 X138.72 Y135.268 E18.78559
G1 X138.219 Y136.02 E18.81564
G1 X137.653 Y136.724 E18.84568
G1 X137.028 Y137.375 E18.8757
G1 X136.347 Y137.969 E18.90576
G1 X135.616 Y138.5 E18.93581
G1 X134.842 Y138.964 E18.96582
G1 X134.029 Y139.358 E18.99587
G1 X133.185 Y139.678 E19.02589
G1 X132.315 Y139.923 E19.05595
G1 X131.428 Y140.089 E19.08597
G1 X130.277 Y140.187 E19.12439
G1 X129.67 Y140.2 E19.14458
G1 X90.575 Y140.199 E20.44489
G1 X89.877 Y140.19 E20.4681
G1 X88.976 Y140.139 E20.49812
G1 X88.082 Y140.007 E20.52818
G1 X87.204 Y139.798 E20.55819
G1 X86.347 Y139.511 E20.58825
G1 X85.52 Y139.15 E20.61827
G1 X84.727 Y138.717 E20.64832
G1 X83.976 Y138.216 E20.67834
G1 X83.272 Y137.65 E20.70839
G1 X82.621 Y137.024 E20.73843
G1 X82.028 Y136.343 E20.76846
G1 X81.498 Y135.612 E20.79849
G1 X81.034 Y134.837 E20.82854
G1 X80.64 Y134.024 E20.85858
G1 X80.32 Y133.18 E20.88861
G1 X80.076 Y132.31 E20.91866
G1 X79.91 Y131.422 E20.94871
G1 X79.813 Y130.267 E20.98726
G1 X79.8 Y129.658 E21.00752
G1 X79.801 Y90.536 E22.30872
G1 X79.81 Y89.871 E22.33084
G1 X79.862 Y88.969 E22.36089
G1 X79.994 Y88.076 E22.39091
G1 X80.204 Y87.198 E22.42094
G1 X80.491 Y86.341 E22.451
G1 X80.853 Y85.514 E22.48103
G1 X81.286 Y84.722 E22.51105
G1 X81.788 Y83.971 E22.54109
G1 X82.355 Y83.267 E22.57116
G1 X82.981 Y82.617 E22.60117
M204 S2000
G1 F2400 E21.80117
;MESH:nested-cubes_tall.stl
G0 F7500 X90.414 Y89.335
G0 X90.6 Y129.4
M204 S500
;TYPE:WALL-INNER
G1 F2400 E22.60117
G1 F1500 X129.4 Y129.4 E23.89167
G1 X129.4 Y90.6 E25.18216
G1 X90.6 Y90.6 E26.47265
G1 X90.6 Y129.4 E27.76314
M204 S2000
G0 F7500 X90.2 Y129.8
M204 S500
;TYPE:WALL-OUTER
G1 F1500 X129.8 Y129.8 E29.08025
G1 X129.8 Y90.2 E30.39735
G1 X90.2 Y90.2 E31.71445
G1 X90.2 Y129.8 E33.03155
M204 S2000
G0 F7500 X90.47 Y129.53
G0 X90.7 Y129.04
G0 X90.96 Y129.04
M204 S500
;TYPE:SKIN
G1 F1500 X129.04 Y129.04 E34.2981
G1 X129.04 Y90.96 E35.56464
G1 X90.96 Y90.96 E36.83119
G1 X90.96 Y129.04 E38.09773
M204 S2000
G0 F7500 X91.503 Y128.839
M204 S500
G1 F1500 X91.159 Y128.494 E38.11394
M204 S2000
G0 F7500 X91.159 Y127.929
M204 S500
G1 F1500 X92.069 Y128.839 E38.15674
M204 S2000
G0 F7500 X92.635 Y128.839
M204 S500
G1 F1500 X91.159 Y127.363 E38.22617
M204 S2000
G0 F7500 X91.159 Y126.797
M204 S500
G1 F1500 X93.2 Y128.839 E38.32219
M204 S2000
G0 F7500 X93.766 Y128.839
M204 S500
G1 F1500 X91.159 Y126.231 E38.44484
M204 S2000
G0 F7500 X91.159 Y125.666
M204 S500
G1 F1500 X94.332 Y128.839 E38.59409
M204 S2000
G0 F7500 X94.897 Y128.839
M204 S500
G1 F1500 X91.159 Y125.1 E38.76994
M204 S2000
G0 F7500 X91.159 Y124.534
M204 S500
G1 F1500 X95.463 Y128.839 E38.97241
M204 S2000
G0 F7500 X96.029 Y128.839
M204 S500
G1 F1500 X91.159 Y123.969 E39.20148
M204 S2000
G0 F7500 X91.159 Y123.403
M204 S500
G1 F1500 X96.595 Y128.839 E39.45717
M204 S2000
G0 F7500 X97.16 Y128.839
M204 S500
G1 F1500 X91.159 Y122.837 E39.73946
M204 S2000
G0 F7500 X91.159 Y122.272
M204 S500
G1 F1500 X97.726 Y128.839 E40.04836
M204 S2000
G0 F7500 X98.292 Y128.839
M204 S500
G1 F1500 X91.159 Y121.706 E40.38387
M204 S2000
G0 F7500 X91.159 Y121.14
M204 S500
G1 F1500 X98.857 Y128.839 E40.74598
M204 S2000
G0 F7500 X99.423 Y128.839
M204 S500
G1 F1500 X91.159 Y120.575 E41.1347
M204 S2000
G0 F7500 X91.159 Y120.009
M204 S500
G1 F1500 X99.989 Y128.839 E41.55003
M204 S2000
G0 F7500 X100.554 Y128.839
M204 S500
G1 F1500 X91.159 Y119.443 E41.99197
M204 S2000
G0 F7500 X91.159 Y118.878
M204 S500
G1 F1500 X101.12 Y128.839 E42.4605
M204 S2000
G0 F7500 X101.686 Y128.839
M204 S500
G1 F1500 X91.159 Y118.312 E42.95566
M204 S2000
G0 F7500 X91.159 Y117.746
M204 S500
G1 F1500 X102.251 Y128.839 E43.47742
M204 S2000
G0 F7500 X102.817 Y128.839
M204 S500
G1 F1500 X91.159 Y117.181 E44.02578
M204 S2000
G0 F7500 X91.159 Y116.615
M204 S500
G1 F1500 X103.383 Y128.839 E44.60075
M204 S2000
G0 F7500 X103.948 Y128.839
M204 S500
G1 F1500 X91.159 Y116.049 E45.20233
M204 S2000
G0 F7500 X91.159 Y115.483
M204 S500
G1 F1500 X104.514 Y128.839 E45.83054
M204 S2000
G0 F7500 X105.08 Y128.839
M204 S500
G1 F1500 X91.159 Y114.918 E46.48534
M204 S2000
G0 F7500 X91.159 Y114.352
M204 S500
G1 F1500 X105.645 Y128.839 E47.16674
M204 S2000
G0 F7500 X106.211 Y128.839
M204 S500
G1 F1500 X91.159 Y113.786 E47.87476
M204 S2000
G0 F7500 X91.159 Y113.221
M204 S500
G1 F1500 X106.777 Y128.839 E48.60938
M204 S2000
G0 F7500 X107.343 Y128.839
M204 S500
G1 F1500 X91.159 Y112.655 E49.37063
M204 S2000
G0 F7500 X91.159 Y112.089
M204 S500
G1 F1500 X107.908 Y128.839 E50.15847
M204 S2000
G0 F7500 X108.474 Y128.839
M204 S500
G1 F1500 X91.159 Y111.524 E50.97292
M204 S2000
G0 F7500 X91.159 Y110.958
M204 S500
G1 F1500 X109.04 Y128.839 E51.81399
M204 S2000
G0 F7500 X109.605 Y128.839
M204 S500
G1 F1500 X91.159 Y110.392 E52.68165
M204 S2000
G0 F7500 X91.159 Y109.827
M204 S500
G1 F1500 X110.171 Y128.839 E53.57592
M204 S2000
G0 F7500 X110.737 Y128.839
M204 S500
G1 F1500 X91.159 Y109.261 E54.49681
M204 S2000
G0 F7500 X91.159 Y108.695
M204 S500
G1 F1500 X111.302 Y128.839 E55.4443
M204 S2000
G0 F7500 X111.868 Y128.839
M204 S500
G1 F1500 X91.159 Y108.13 E56.41838
M204 S2000
G0 F7500 X91.159 Y107.564
M204 S500
G1 F1500 X112.434 Y128.839 E57.4191
M204 S2000
G0 F7500 X112.999 Y128.839
M204 S500
G1 F1500 X91.159 Y106.998 E58.44641
M204 S2000
G0 F7500 X91.159 Y106.433
M204 S500
G1 F1500 X113.565 Y128.839 E59.50032
M204 S2000
G0 F7500 X114.131 Y128.839
M204 S500
G1 F1500 X91.159 Y105.867 E60.58085
M204 S2000
G0 F7500 X91.159 Y105.301
M204 S500
G1 F1500 X114.696 Y128.839 E61.68798
M204 S2000
G0 F7500 X115.262 Y128.839
M204 S500
G1 F1500 X91.159 Y104.735 E62.82173
M204 S2000
G0 F7500 X91.159 Y104.17
M204 S500
G1 F1500 X115.828 Y128.839 E63.98209
M204 S2000
G0 F7500 X116.394 Y128.839
M204 S500
G1 F1500 X91.159 Y103.604 E65.16907
M204 S2000
G0 F7500 X91.159 Y103.038
M204 S500
G1 F1500 X116.959 Y128.839 E66.38264
M204 S2000
G0 F7500 X117.525 Y128.839
M204 S500
G1 F1500 X91.159 Y102.473 E67.62282
M204 S2000
G0 F7500 X91.159 Y101.907
M204 S500
G1 F1500 X118.091 Y128.839 E68.88962
M204 S2000
G0 F7500 X118.656 Y128.839
M204 S500
G1 F1500 X91.159 Y101.341 E70.18301
M204 S2000
G0 F7500 X91.159 Y100.776
M204 S500
G1 F1500 X119.222 Y128.839 E71.50301
M204 S2000
G0 F7500 X119.788 Y128.839
M204 S500
G1 F1500 X91.159 Y100.21 E72.84963
M204 S2000
G0 F7500 X91.159 Y99.644
M204 S500
G1 F1500 X120.353 Y128.839 E74.22285
M204 S2000
G0 F7500 X120.919 Y128.839
M204 S500
G1 F1500 X91.159 Y99.079 E75.62267
M204 S2000
G0 F7500 X91.159 Y98.513
M204 S500
G1 F1500 X121.485 Y128.839 E77.04911
M204 S2000
G0 F7500 X122.05 Y128.839
M204 S500
G1 F1500 X91.159 Y97.947 E78.50215
M204 S2000
G0 F7500 X91.159 Y97.382
M204 S500
G1 F1500 X122.616 Y128.839 E79.9818
M204 S2000
G0 F7500 X123.182 Y128.839
M204 S500
G1 F1500 X91.159 Y96.816 E81.48806
M204 S2000
G0 F7500 X91.159 Y96.25
M204 S500
G1 F1500 X123.747 Y128.839 E83.02092
M204 S2000
G0 F7500 X124.313 Y128.839
M204 S500
G1 F1500 X91.159 Y95.684 E84.58041
M204 S2000
G0 F7500 X91.159 Y95.119
M204 S500
G1 F1500 X124.879 Y128.839 E86.16649
M204 S2000
G0 F7500 X125.444 Y128.839
M204 S500
G1 F1500 X91.159 Y94.553 E87.77918
M204 S2000
G0 F7500 X91.159 Y93.987
M204 S500
G1 F1500 X126.01 Y128.839 E89.41849
M204 S2000
G0 F7500 X126.576 Y128.839
M204 S500
G1 F1500 X91.159 Y93.422 E91.08439
M204 S2000
G0 F7500 X91.159 Y92.856
M204 S500
G1 F1500 X127.142 Y128.839 E92.77692
M204 S2000
G0 F7500 X127.707 Y128.839
M204 S500
G1 F1500 X91.159 Y92.29 E94.49605
M204 S2000
G0 F7500 X91.159 Y91.725
M204 S500
G1 F1500 X128.273 Y128.839 E96.24178
M204 S2000
G0 F7500 X128.839 Y128.839
M204 S500
G1 F1500 X91.159 Y91.159 E98.01413
M204 S2000
G0 F7500 X91.725 Y91.16
M204 S500
G1 F1500 X128.839 Y128.274 E99.75986
M204 S2000
G0 F7500 X128.839 Y127.708
M204 S500
G1 F1500 X92.291 Y91.16 E101.47897
M204 S2000
G0 F7500 X92.857 Y91.16
M204 S500
G1 F1500 X128.839 Y127.142 E103.17145
M204 S2000
G0 F7500 X128.839 Y126.577
M204 S500
G1 F1500 X93.422 Y91.16 E104.83736
M204 S2000
G0 F7500 X93.988 Y91.16
M204 S500
G1 F1500 X128.839 Y126.011 E106.47664
M204 S2000
G0 F7500 X128.839 Y125.445
M204 S500
G1 F1500 X94.554 Y91.16 E108.0893
M204 S2000
G0 F7500 X95.12 Y91.16
M204 S500
G1 F1500 X128.839 Y124.88 E109.67537
M204 S2000
G0 F7500 X128.839 Y124.314
M204 S500
G1 F1500 X95.685 Y91.16 E111.23483
M204 S2000
G0 F7500 X96.251 Y91.16
M204 S500
G1 F1500 X128.839 Y123.748 E112.76767
M204 S2000
G0 F7500 X128.839 Y123.182
M204 S500
G1 F1500 X96.817 Y91.16 E114.27388
M204 S2000
G0 F7500 X97.382 Y91.16
M204 S500
G1 F1500 X128.839 Y122.617 E115.75352
M204 S2000
G0 F7500 X128.839 Y122.051
M204 S500
G1 F1500 X97.948 Y91.16 E117.20654
M204 S2000
G0 F7500 X98.514 Y91.16
M204 S500
G1 F1500 X128.839 Y121.485 E118.63294
M204 S2000
G0 F7500 X128.839 Y120.92
M204 S500
G1 F1500 X99.079 Y91.16 E120.03276
M204 S2000
G0 F7500 X99.645 Y91.16
M204 S500
G1 F1500 X128.839 Y120.354 E121.40595
M204 S2000
G0 F7500 X128.839 Y119.788
M204 S500
G1 F1500 X100.211 Y91.16 E122.75253
M204 S2000
G0 F7500 X100.776 Y91.16
M204 S500
G1 F1500 X128.839 Y119.223 E124.07252
M204 S2000
G0 F7500 X128.839 Y118.657
M204 S500
G1 F1500 X101.342 Y91.16 E125.3659
M204 S2000
G0 F7500 X101.908 Y91.16
M204 S500
G1 F1500 X128.839 Y118.091 E126.63265
M204 S2000
