;FLAVOR:Marlin
;TIME:5890
;Filament used: 3.75253m
;Layer height: 0.2
;MINX:84.825
;MINY:85.382
;MINZ:0.2
;MAXX:136.825
;MAXY:128.598
;MAXZ:30
;Generated with Cura_SteamEngine 5.2.0
M82 ;absolute extrusion mode
; Ender 3 S1 Start G-code
G92 E0 ; Reset Extruder
G28 ; Home all axes
G1 Z10.0 F3000 ; Move Z Axis up little to prevent scratching of Heat Bed
G1 X0 Y0

M104 S200
M190 S60
M109 S200

G1 X0.1 Y20 Z0.3 F5000.0 ; Move to start position
G1 X0.1 Y200.0 Z0.3 F1500.0 E15 ; Draw the first line
G1 X0.4 Y200.0 Z0.3 F5000.0 ; Move to side a little
G1 X0.4 Y20 Z0.3 F1500.0 E30 ; Draw the second line
G92 E0 ; Reset Extruder
G1 Z2.0 F3000 ; Move Z Axis up little to prevent scratching of Heat Bed
G1 X5 Y20 Z0.3 F5000.0 ; Move over to prevent blob squish

G92 E0
G92 E0
G1 F2400 E-0.8
;LAYER_COUNT:150
;LAYER:0
M107
M204 S2000
G0 F7500 X88.023 Y88.646 Z0.2
M204 S500
;TYPE:SKIRT
G1 F2400 E0
G1 F1500 X88.711 Y88.009 E0.03119
G1 X89.451 Y87.433 E0.06237
G1 X90.237 Y86.921 E0.09357
G1 X91.064 Y86.479 E0.12476
G1 X91.926 Y86.109 E0.15596
G1 X92.816 Y85.813 E0.18716
G1 X93.728 Y85.595 E0.21835
G1 X94.655 Y85.454 E0.24953
G1 X95.526 Y85.395 E0.27857
G1 X96.155 Y85.382 E0.29949
G1 X125.276 Y85.383 E1.26806
G1 X125.974 Y85.393 E1.29128
G1 X126.91 Y85.447 E1.32246
G1 X127.838 Y85.579 E1.35364
G1 X128.752 Y85.791 E1.38485
G1 X129.644 Y86.08 E1.41603
G1 X130.509 Y86.443 E1.44723
G1 X131.339 Y86.879 E1.47842
G1 X132.13 Y87.384 E1.50963
G1 X132.874 Y87.955 E1.54082
G1 X133.567 Y88.587 E1.57202
G1 X134.204 Y89.275 E1.6032
G1 X134.779 Y90.016 E1.6344
G1 X135.29 Y90.802 E1.66558
G1 X135.732 Y91.63 E1.6968
G1 X136.101 Y92.492 E1.72798
G1 X136.396 Y93.382 E1.75917
G1 X136.614 Y94.294 E1.79036
G1 X136.754 Y95.222 E1.82157
G1 X136.812 Y96.083 E1.85027
G1 X136.825 Y96.719 E1.87143
G1 X136.819 Y105.47 E2.16249
G1 X136.825 Y106.396 E2.19329
G1 X136.819 Y109.756 E2.30504
G1 X136.825 Y110.403 E2.32657
G1 X136.824 Y116.998 E2.54592
G1 X136.815 Y117.725 E2.5701
G1 X136.764 Y118.662 E2.60131
G1 X136.632 Y119.59 E2.63248
G1 X136.423 Y120.504 E2.66367
G1 X136.136 Y121.397 E2.69487
G1 X135.774 Y122.263 E2.72609
G1 X135.34 Y123.094 E2.75727
G1 X134.836 Y123.885 E2.78846
G1 X134.267 Y124.63 E2.81964
G1 X133.636 Y125.325 E2.85086
G1 X132.949 Y125.963 E2.88205
G1 X132.21 Y126.54 E2.91323
G1 X131.424 Y127.052 E2.94443
G1 X130.598 Y127.495 E2.9756
G1 X129.736 Y127.867 E3.00683
G1 X128.847 Y128.163 E3.03799
G1 X127.935 Y128.383 E3.0692
G1 X127.008 Y128.524 E3.10039
G1 X126.124 Y128.585 E3.12986
G1 X125.495 Y128.598 E3.15078
G1 X96.375 Y128.598 E4.11932
G1 X95.677 Y128.588 E4.14254
G1 X94.741 Y128.534 E4.17372
G1 X93.813 Y128.402 E4.20489
G1 X92.899 Y128.19 E4.2361
G1 X92.007 Y127.901 E4.26729
G1 X91.142 Y127.538 E4.29849
G1 X90.312 Y127.102 E4.32967
G1 X89.521 Y126.597 E4.36088
G1 X88.777 Y126.026 E4.39208
G1 X88.084 Y125.394 E4.42327
G1 X87.447 Y124.706 E4.45446
G1 X86.872 Y123.965 E4.48565
G1 X86.361 Y123.179 E4.51683
G1 X85.919 Y122.351 E4.54805
G1 X85.55 Y121.489 E4.57924
G1 X85.255 Y120.599 E4.61042
G1 X85.037 Y119.687 E4.64161
G1 X84.897 Y118.759 E4.67283
G1 X84.84 Y117.905 E4.70129
G1 X84.826 Y117.27 E4.72242
G1 X84.831 Y108.654 E5.00899
G1 X84.825 Y107.782 E5.03799
G1 X84.832 Y104.657 E5.14193
G1 X84.825 Y103.805 E5.17027
G1 X84.826 Y96.907 E5.3997
G1 X84.835 Y96.242 E5.42182
G1 X84.888 Y95.306 E5.453
G1 X85.02 Y94.377 E5.48421
G1 X85.231 Y93.463 E5.51541
G1 X85.519 Y92.571 E5.54658
G1 X85.882 Y91.706 E5.57778
G1 X86.317 Y90.875 E5.60898
G1 X86.821 Y90.085 E5.64015
G1 X87.391 Y89.34 E5.67135
G1 X88.023 Y88.646 E5.70257
M204 S2000
G0 F7500 X88.414 Y88.821
M204 S500
G1 F1500 X89.099 Y88.205 E5.73321
G1 X89.835 Y87.652 E5.76383
G1 X90.616 Y87.164 E5.79446
G1 X91.436 Y86.746 E5.82507
G1 X92.29 Y86.401 E5.8557
G1 X93.17 Y86.131 E5.88632
G1 X94.07 Y85.939 E5.91693
G1 X94.984 Y85.825 E5.94756
G1 X95.537 Y85.795 E5.96598
G1 X96.155 Y85.782 E5.98654
G1 X125.118 Y85.782 E6.94986
G1 X125.968 Y85.793 E6.97813
G1 X126.887 Y85.846 E7.00875
G1 X127.798 Y85.979 E7.03937
G1 X128.694 Y86.19 E7.06998
G1 X129.568 Y86.478 E7.10059
G1 X130.415 Y86.841 E7.13124
G1 X131.226 Y87.276 E7.16185
G1 X131.996 Y87.78 E7.19246
G1 X132.72 Y88.349 E7.22308
G1 X133.392 Y88.979 E7.25372
G1 X134.007 Y89.664 E7.28434
G1 X134.56 Y90.4 E7.31496
G1 X135.047 Y91.181 E7.34557
G1 X135.464 Y92.002 E7.3762
G1 X135.809 Y92.856 E7.40683
G1 X136.078 Y93.736 E7.43744
G1 X136.27 Y94.637 E7.46808
G1 X136.383 Y95.55 E7.49868
G1 X136.412 Y96.094 E7.5168
G1 X136.425 Y96.719 E7.53759
G1 X136.419 Y105.473 E7.82875
G1 X136.425 Y106.395 E7.85941
G1 X136.419 Y109.76 E7.97133
G1 X136.425 Y110.407 E7.99285
G1 X136.424 Y116.993 E8.21191
G1 X136.415 Y117.72 E8.23609
G1 X136.364 Y118.639 E8.2667
G1 X136.233 Y119.551 E8.29735
G1 X136.023 Y120.447 E8.32795
G1 X135.737 Y121.322 E8.35857
G1 X135.376 Y122.169 E8.3892
G1 X134.942 Y122.981 E8.41982
G1 X134.44 Y123.753 E8.45045
G1 X133.872 Y124.478 E8.48108
G1 X133.244 Y125.151 E8.51169
G1 X132.56 Y125.767 E8.54231
G1 X131.825 Y126.321 E8.57292
G1 X131.045 Y126.81 E8.60354
G1 X130.225 Y127.229 E8.63417
G1 X129.372 Y127.575 E8.66479
G1 X128.492 Y127.846 E8.69541
G1 X127.592 Y128.039 E8.72603
G1 X126.678 Y128.154 E8.75667
G1 X126.113 Y128.185 E8.77549
G1 X125.495 Y128.198 E8.79605
G1 X96.381 Y128.198 E9.76438
G1 X95.683 Y128.188 E9.7876
G1 X94.764 Y128.135 E9.81822
G1 X93.853 Y128.002 E9.84884
G1 X92.957 Y127.791 E9.87945
G1 X92.083 Y127.503 E9.91006
G1 X91.236 Y127.14 E9.94071
G1 X90.425 Y126.705 E9.97132
G1 X89.655 Y126.201 E10.00193
G1 X88.931 Y125.632 E10.03255
G1 X88.259 Y125.002 E10.06319
G1 X87.644 Y124.317 E10.09381
G1 X87.091 Y123.581 E10.12443
G1 X86.604 Y122.8 E10.15504
G1 X86.187 Y121.979 E10.18567
G1 X85.842 Y121.125 E10.2163
G1 X85.573 Y120.245 E10.24691
G1 X85.381 Y119.344 E10.27755
G1 X85.268 Y118.431 E10.30815
G1 X85.239 Y117.894 E10.32603
G1 X85.226 Y117.27 E10.34679
G1 X85.231 Y108.651 E10.63346
G1 X85.225 Y107.783 E10.66233
G1 X85.232 Y104.654 E10.7664
G1 X85.225 Y103.802 E10.79474
G1 X85.226 Y96.913 E11.02387
G1 X85.235 Y96.248 E11.04599
G1 X85.287 Y95.328 E11.07664
G1 X85.419 Y94.417 E11.10726
G1 X85.63 Y93.521 E11.13787
G1 X85.917 Y92.646 E11.1685
G1 X86.28 Y91.8 E11.19912
G1 X86.714 Y90.988 E11.22974
G1 X87.217 Y90.217 E11.26036
G1 X87.786 Y89.493 E11.29099
G1 X88.414 Y88.821 E11.32158
M204 S2000
G0 F7500 X88.806 Y88.999
M204 S500
G1 F1500 X89.487 Y88.406 E11.35161
G1 X90.219 Y87.876 E11.38167
G1 X90.994 Y87.413 E11.4117
G1 X91.807 Y87.02 E11.44173
G1 X92.652 Y86.7 E11.47178
G1 X93.521 Y86.457 E11.5018
G1 X94.409 Y86.291 E11.53184
G1 X95.548 Y86.195 E11.56986
G1 X96.155 Y86.182 E11.59005
G1 X125.118 Y86.182 E12.55337
G1 X125.962 Y86.193 E12.58144
G1 X126.864 Y86.246 E12.61149
G1 X127.757 Y86.378 E12.64152
G1 X128.635 Y86.589 E12.67155
G1 X129.491 Y86.877 E12.70159
G1 X130.318 Y87.239 E12.73162
G1 X131.11 Y87.674 E12.76167
G1 X131.861 Y88.176 E12.79171
G1 X132.564 Y88.743 E12.82175
G1 X133.214 Y89.37 E12.85179
G1 X133.806 Y90.052 E12.88183
G1 X134.336 Y90.783 E12.91186
G1 X134.798 Y91.559 E12.9419
G1 X135.191 Y92.372 E12.97193
G1 X135.509 Y93.217 E13.00196
G1 X135.752 Y94.087 E13.03201
G1 X135.917 Y94.975 E13.06205
G1 X136.012 Y96.105 E13.09976
G1 X136.025 Y96.719 E13.12019
G1 X136.019 Y105.476 E13.41145
G1 X136.025 Y106.395 E13.44201
G1 X136.019 Y109.763 E13.55403
G1 X136.025 Y110.41 E13.57555
G1 X136.024 Y116.988 E13.79434
G1 X136.015 Y117.715 E13.81852
G1 X135.964 Y118.617 E13.84857
G1 X135.833 Y119.511 E13.87862
G1 X135.624 Y120.389 E13.90864
G1 X135.338 Y121.246 E13.93869
G1 X134.977 Y122.074 E13.96873
G1 X134.545 Y122.866 E13.99874
G1 X134.044 Y123.618 E14.02879
G1 X133.478 Y124.322 E14.05884
G1 X132.853 Y124.973 E14.08885
G1 X132.172 Y125.567 E14.11891
G1 X131.441 Y126.098 E14.14896
G1 X130.667 Y126.562 E14.17897
G1 X129.854 Y126.956 E14.20902
G1 X129.01 Y127.276 E14.23904
G1 X128.14 Y127.521 E14.26911
G1 X127.253 Y127.687 E14.29912
G1 X126.102 Y127.785 E14.33754
G1 X125.495 Y127.798 E14.35773
G1 X96.387 Y127.798 E15.32587
G1 X95.689 Y127.788 E15.34909
G1 X94.787 Y127.735 E15.37914
G1 X93.894 Y127.603 E15.40917
G1 X93.016 Y127.392 E15.4392
G1 X92.16 Y127.104 E15.46924
G1 X91.333 Y126.742 E15.49926
G1 X90.541 Y126.307 E15.52932
G1 X89.79 Y125.805 E15.55936
G1 X89.087 Y125.238 E15.5894
G1 X88.437 Y124.611 E15.61944
G1 X87.845 Y123.929 E15.64948
G1 X87.315 Y123.198 E15.67951
G1 X86.853 Y122.422 E15.70955
G1 X86.46 Y121.609 E15.73958
G1 X86.142 Y120.764 E15.76961
G1 X85.899 Y119.894 E15.79965
G1 X85.734 Y119.006 E15.82969
G1 X85.639 Y117.882 E15.86721
G1 X85.626 Y117.27 E15.88757
G1 X85.631 Y108.647 E16.17437
G1 X85.625 Y107.784 E16.20308
G1 X85.632 Y104.651 E16.30728
G1 X85.625 Y103.799 E16.33562
G1 X85.626 Y96.918 E16.56448
G1 X85.635 Y96.253 E16.5866
G1 X85.687 Y95.351 E16.61665
G1 X85.819 Y94.458 E16.64668
G1 X86.029 Y93.58 E16.6767
G1 X86.316 Y92.723 E16.70676
G1 X86.678 Y91.896 E16.73679
G1 X87.111 Y91.104 E16.76681
G1 X87.613 Y90.353 E16.79686
G1 X88.18 Y89.649 E16.82692
G1 X88.806 Y88.999 E16.85694
M204 S2000
G1 F2400 E16.05694
G0 F7500 X98.025 Y98.582
M204 S500
G1 F2400 E16.85694
G1 F1500 X123.625 Y98.582 E17.7084
G1 X123.625 Y98.854 E17.71744
G1 X98.025 Y98.855 E18.5689
G1 X98.025 Y98.582 E18.57798
M204 S2000
G0 F7500 X97.625 Y98.182
M204 S500
G1 F1500 X124.025 Y98.182 E19.45605
G1 X124.025 Y99.254 E19.4917
G1 X97.625 Y99.255 E20.36977
G1 X97.625 Y98.182 E20.40546
M204 S2000
G0 F7500 X97.225 Y97.782
M204 S500
G1 F1500 X124.425 Y97.782 E21.31014
G1 X124.425 Y99.654 E21.3724
G1 X97.225 Y99.655 E22.27707
G1 X97.225 Y97.782 E22.33937
M204 S2000
G0 F7500 X96.825 Y97.382
M204 S500
G1 F1500 X124.825 Y97.382 E23.27065
G1 X124.825 Y100.054 E23.35953
G1 X96.825 Y100.055 E24.29081
G1 X96.825 Y97.382 E24.37971
M204 S2000
G0 F7500 X96.425 Y96.982
M204 S500
G1 F1500 X125.225 Y96.982 E25.33761
G1 X125.225 Y100.454 E25.45308
G1 X96.425 Y100.455 E26.41098
G1 X96.425 Y96.982 E26.52649
M204 S2000
G0 F7500 X96.025 Y96.582
M204 S500
G1 F1500 X125.625 Y96.582 E27.51099
G1 X125.625 Y100.854 E27.65308
G1 X96.025 Y100.855 E28.63758
G1 X96.025 Y96.582 E28.7797
M204 S2000
G1 F2400 E27.9797
G0 F7500 X95.172 Y100.402
G0 X95.172 Y113.742
G0 X96.015 Y113.775
G0 X96.025 Y113.31
M204 S500
G1 F2400 E28.7797
G1 F1500 X96.317 Y113.317 E28.78941
G1 X125.337 Y113.316 E29.75462
G1 X125.625 Y113.31 E29.7642
G1 X125.625 Y117.398 E29.90017
G1 X96.025 Y117.399 E30.88467
G1 X96.025 Y113.31 E31.02067
M204 S2000
G0 F7500 X96.425 Y113.717
M204 S500
G1 F1500 X125.225 Y113.716 E31.97856
G1 X125.225 Y116.998 E32.08772
G1 X96.425 Y116.999 E33.04561
G1 X96.425 Y113.717 E33.15477
M204 S2000
G0 F7500 X96.825 Y114.117
M204 S500
G1 F1500 X124.825 Y114.116 E34.08606
G1 X124.825 Y116.598 E34.16861
G1 X96.825 Y116.599 E35.09989
G1 X96.825 Y114.117 E35.18244
M204 S2000
G0 F7500 X97.225 Y114.517
M204 S500
G1 F1500 X124.425 Y114.516 E36.08712
G1 X124.425 Y116.198 E36.14306
G1 X97.225 Y116.199 E37.04774
G1 X97.225 Y114.517 E37.10368
M204 S2000
G0 F7500 X97.625 Y114.917
M204 S500
G1 F1500 X124.025 Y114.916 E37.98175
G1 X124.025 Y115.798 E38.01109
G1 X97.625 Y115.799 E38.88915
G1 X97.625 Y114.917 E38.91849
M204 S2000
G0 F7500 X98.025 Y115.317
M204 S500
G1 F1500 X123.625 Y115.316 E39.76995
G1 X123.625 Y115.398 E39.77268
G1 X98.025 Y115.399 E40.62413
G1 X98.025 Y115.317 E40.62686
M204 S2000
G1 F2400 E39.82686
G0 F7500 X95.172 Y113.742
G0 X95.16 Y110.215
G0 X96.025 Y110.215
M204 S500
;TYPE:SUPPORT-INTERFACE
G1 F2400 E40.62686
G1 F1500 X96.783 Y110.24 E40.65209
G1 X124.868 Y110.239 E41.5862
G1 X125.625 Y110.215 E41.61139
G1 X125.625 Y112.909 E41.70099
G1 X125.329 Y112.916 E41.71084
G1 X96.322 Y112.917 E42.67562
G1 X96.025 Y112.91 E42.6855
G1 X96.025 Y110.215 E42.77513
M204 S2000
G1 F2400 E41.97513
G0 F7500 X96.053 Y109.35
G0 X95.171 Y108.817
G0 X95.171 Y105.473
G0 X96.026 Y104.836
G0 X96.025 Y103.972
M204 S500
G1 F2400 E42.77513
G1 F1500 X96.025 Y101.255 E42.8655
G1 X125.625 Y101.254 E43.85
G1 X125.625 Y103.965 E43.94017
G1 X124.918 Y103.939 E43.9637
G1 X103.317 Y103.94 E44.68215
G1 X102.946 Y103.971 E44.69453
G1 X96.025 Y103.972 E44.92473
M204 S2000
G0 F7500 X96.481 Y103.771
M204 S500
G1 F1500 X98.799 Y101.453 E45.03376
M204 S2000
G0 F7500 X98.06 Y101.454
M204 S500
G1 F1500 X100.375 Y103.77 E45.14267
M204 S2000
G0 F7500 X99.876 Y103.77
M204 S500
G1 F1500 X102.193 Y101.453 E45.25166
M204 S2000
G0 F7500 X101.454 Y101.454
M204 S500
G1 F1500 X103.738 Y103.738 E45.35909
M204 S2000
G0 F7500 X103.301 Y103.739
M204 S500
G1 F1500 X105.587 Y101.453 E45.46662
M204 S2000
G0 F7500 X104.848 Y101.454
M204 S500
G1 F1500 X107.133 Y103.738 E45.57407
M204 S2000
G0 F7500 X106.696 Y103.738
M204 S500
G1 F1500 X108.981 Y101.453 E45.68155
M204 S2000
G0 F7500 X108.242 Y101.454
M204 S500
G1 F1500 X110.527 Y103.738 E45.78901
M204 S2000
G0 F7500 X110.09 Y103.738
M204 S500
G1 F1500 X112.375 Y101.453 E45.89649
M204 S2000
G0 F7500 X111.636 Y101.454
M204 S500
G1 F1500 X113.921 Y103.738 E46.00394
M204 S2000
G0 F7500 X113.484 Y103.738
M204 S500
G1 F1500 X115.769 Y101.453 E46.11142
M204 S2000
G0 F7500 X115.03 Y101.454
M204 S500
G1 F1500 X117.315 Y103.738 E46.21888
M204 S2000
G0 F7500 X116.878 Y103.738
M204 S500
G1 F1500 X119.163 Y101.453 E46.32636
M204 S2000
G0 F7500 X118.424 Y101.454
M204 S500
G1 F1500 X120.709 Y103.738 E46.43381
M204 S2000
G0 F7500 X120.272 Y103.738
M204 S500
G1 F1500 X122.557 Y101.453 E46.54129
M204 S2000
G0 F7500 X121.818 Y101.454
M204 S500
G1 F1500 X124.103 Y103.738 E46.64875
M204 S2000
G0 F7500 X123.666 Y103.738
M204 S500
G1 F1500 X125.424 Y101.981 E46.73142
M204 S2000
G0 F7500 X125.424 Y101.665
M204 S500
G1 F1500 X125.213 Y101.454 E46.74134
M204 S2000
G1 F2400 E45.94134
G0 F7500 X126.49 Y101.454
G0 X126.479 Y108.815
G0 X124.014 Y109.375
G0 X124.015 Y110.439
M204 S500
G1 F2400 E46.74134
G1 F1500 X125.424 Y111.848 E46.80762
M204 S2000
G0 F7500 X125.424 Y112.163
M204 S500
G1 F1500 X124.873 Y112.714 E46.83353
M204 S2000
G0 F7500 X122.895 Y112.713
M204 S500
G1 F1500 X120.621 Y110.439 E46.9405
M204 S2000
G0 F7500 X120.36 Y110.439
M204 S500
G1 F1500 X118.085 Y112.714 E47.0475
M204 S2000
G0 F7500 X119.501 Y112.713
M204 S500
G1 F1500 X117.227 Y110.439 E47.15447
M204 S2000
G0 F7500 X116.966 Y110.439
M204 S500
G1 F1500 X114.691 Y112.714 E47.26148
M204 S2000
G0 F7500 X116.107 Y112.713
M204 S500
G1 F1500 X113.833 Y110.439 E47.36844
M204 S2000
G0 F7500 X113.571 Y110.439
M204 S500
G1 F1500 X111.297 Y112.714 E47.47542
M204 S2000
G0 F7500 X112.713 Y112.713
M204 S500
G1 F1500 X110.439 Y110.439 E47.58238
M204 S2000
G0 F7500 X110.177 Y110.439
M204 S500
G1 F1500 X107.903 Y112.714 E47.68937
M204 S2000
G0 F7500 X109.319 Y112.713
M204 S500
G1 F1500 X107.045 Y110.439 E47.79633
M204 S2000
G0 F7500 X106.783 Y110.439
M204 S500
G1 F1500 X104.508 Y112.714 E47.90334
M204 S2000
G0 F7500 X105.925 Y112.713
M204 S500
G1 F1500 X103.651 Y110.439 E48.0103
M204 S2000
G0 F7500 X103.389 Y110.439
M204 S500
G1 F1500 X101.114 Y112.714 E48.11731
M204 S2000
G0 F7500 X102.531 Y112.713
M204 S500
G1 F1500 X100.257 Y110.439 E48.22427
M204 S2000
G0 F7500 X99.995 Y110.439
M204 S500
G1 F1500 X97.72 Y112.714 E48.33128
M204 S2000
G0 F7500 X99.137 Y112.713
M204 S500
G1 F1500 X96.863 Y110.439 E48.43825
M204 S2000
G0 F7500 X96.607 Y110.433
M204 S500
G1 F1500 X96.225 Y110.815 E48.45621
M204 S2000
G1 F2400 E47.65621
G0 F7500 X95.16 Y110.815
G0 X95.171 Y105.473
G0 X96.983 Y104.836
G0 X96.982 Y103.77
M204 S500
G1 F2400 E48.45621
G1 F1500 X96.224 Y103.012 E48.49187
M204 S2000
G1 F2400 E47.69187
G0 F7500 X95.16 Y103.012
G0 X95.171 Y108.817
G0 X102.135 Y109.412
G0 X124.845 Y109.375
G0 X126.477 Y109.334
G0 X126.478 Y113.743
G0 X121.48 Y113.781
G0 X121.479 Y112.714
M204 S500
G1 F2400 E48.49187
G1 F1500 X123.754 Y110.439 E48.59888
M204 S2000
G1 F2400 E47.79888
;MESH:test-tube-0-tol.stl
G0 F7500 X123.753 Y109.375
G0 X119.558 Y109.409
G0 X102.189 Y108.148
M204 S500
;TYPE:WALL-INNER
G1 F2400 E48.59888
G1 F1500 X119.462 Y108.149 E49.17338
G1 X125.225 Y107.662 E49.36574
G1 X125.225 Y106.664 E49.39893
G1 X122.839 Y106.659 E49.47829
G1 X118.284 Y106.058 E49.63111
G1 X101.811 Y106.058 E50.179
G1 X96.426 Y106.607 E50.35903
G1 X96.426 Y107.662 E50.39412
