;FLAVOR:Marlin
;TIME:2429
;Filament used: 1.95121m
;Layer height: 0.2
;MINX:84.019
;MINY:84.02
;MINZ:0.2
;MAXX:135.985
;MAXY:135.981
;MAXZ:30
;Generated with Cura_SteamEngine 5.2.0
M82 ;absolute extrusion mode
; Ender 3 S1 Start G-code
G92 E0 ; Reset Extruder
G28 ; Home all axes
G1 Z10.0 F3000 ; Move Z Axis up little to prevent scratching of Heat Bed
G1 X0 Y0

M104 S200
M190 S60
M109 S200

G1 X0.1 Y20 Z0.3 F5000.0 ; Move to start position
G1 X0.1 Y200.0 Z0.3 F1500.0 E15 ; Draw the first line
G1 X0.4 Y200.0 Z0.3 F5000.0 ; Move to side a little
G1 X0.4 Y20 Z0.3 F1500.0 E30 ; Draw the second line
G92 E0 ; Reset Extruder
G1 Z2.0 F3000 ; Move Z Axis up little to prevent scratching of Heat Bed
G1 X5 Y20 Z0.3 F5000.0 ; Move over to prevent blob squish

G92 E0
G92 E0
G1 F2400 E-0.8
;LAYER_COUNT:150
;LAYER:0
M107
M204 S2000
G0 F7500 X91.511 Y91.735 Z0.2
M204 S500
;TYPE:SKIRT
G1 F2400 E0
G1 F1500 X91.866 Y91.383 E0.01663
G1 X92.402 Y90.875 E0.04119
G1 X92.93 Y90.4 E0.06481
G1 X93.378 Y90.025 E0.08424
G1 X94.314 Y89.284 E0.12395
G1 X94.884 Y88.863 E0.14752
G1 X95.851 Y88.202 E0.18648
G1 X96.461 Y87.818 E0.21045
G1 X97.011 Y87.492 E0.23172
G1 X97.807 Y87.049 E0.26201
G1 X98.286 Y86.801 E0.27996
G1 X98.829 Y86.537 E0.30004
G1 X99.309 Y86.318 E0.31758
G1 X100.215 Y85.93 E0.35037
G1 X100.93 Y85.647 E0.37594
G1 X101.685 Y85.379 E0.40259
G1 X102.566 Y85.097 E0.43335
G1 X103.147 Y84.931 E0.45345
G1 X103.567 Y84.825 E0.46786
G1 X104.687 Y84.565 E0.5061
G1 X105.369 Y84.429 E0.52923
G1 X106.353 Y84.273 E0.56237
G1 X107.385 Y84.146 E0.59695
G1 X107.922 Y84.096 E0.61489
G1 X108.558 Y84.053 E0.63609
G1 X109.622 Y84.02 E0.6715
G1 X110.651 Y84.024 E0.70572
G1 X111.09 Y84.037 E0.72033
G1 X111.715 Y84.069 E0.74114
G1 X112.291 Y84.114 E0.76036
G1 X112.993 Y84.187 E0.78384
G1 X113.52 Y84.255 E0.80151
G1 X114.408 Y84.391 E0.83139
G1 X115.121 Y84.517 E0.85547
G1 X115.613 Y84.62 E0.87219
G1 X116.179 Y84.752 E0.89152
G1 X116.641 Y84.871 E0.90739
G1 X117.16 Y85.016 E0.92531
G1 X117.693 Y85.179 E0.94385
G1 X118.78 Y85.543 E0.98197
G1 X119.409 Y85.775 E1.00427
G1 X120.082 Y86.047 E1.02842
G1 X120.724 Y86.326 E1.0517
G1 X121.173 Y86.539 E1.06823
G1 X122.03 Y86.969 E1.10012
G1 X122.408 Y87.168 E1.11433
G1 X123.139 Y87.579 E1.14222
G1 X123.641 Y87.879 E1.16167
G1 X124.242 Y88.258 E1.1853
G1 X124.654 Y88.534 E1.2018
G1 X125.507 Y89.143 E1.23666
G1 X125.991 Y89.512 E1.2569
G1 X126.467 Y89.89 E1.27711
G1 X126.871 Y90.227 E1.29461
G1 X127.304 Y90.606 E1.31375
G1 X127.736 Y91.005 E1.33331
G1 X128.324 Y91.578 E1.36062
G1 X128.618 Y91.876 E1.37454
G1 X129.18 Y92.467 E1.40167
G1 X129.58 Y92.908 E1.42147
G1 X129.975 Y93.378 E1.44189
G1 X130.716 Y94.314 E1.4816
G1 X131.14 Y94.888 E1.50533
G1 X131.565 Y95.503 E1.53019
G1 X131.97 Y96.121 E1.55477
G1 X132.531 Y97.052 E1.59092
G1 X132.773 Y97.481 E1.6073
G1 X133.117 Y98.125 E1.63159
G1 X133.359 Y98.606 E1.6495
G1 X133.637 Y99.194 E1.67113
G1 X133.96 Y99.923 E1.69765
G1 X134.165 Y100.43 E1.71584
G1 X134.42 Y101.106 E1.73987
G1 X134.619 Y101.68 E1.76008
G1 X134.911 Y102.606 E1.79237
G1 X135.081 Y103.196 E1.81279
G1 X135.378 Y104.418 E1.85462
G1 X135.495 Y104.958 E1.873
G1 X135.573 Y105.375 E1.88711
G1 X135.718 Y106.289 E1.91789
G1 X135.819 Y107.069 E1.94405
G1 X135.896 Y107.812 E1.96889
G1 X135.947 Y108.556 E1.99369
G1 X135.982 Y109.671 E2.0308
G1 X135.985 Y110.078 E2.04433
G1 X135.968 Y111.011 E2.07537
G1 X135.931 Y111.688 E2.09792
G1 X135.874 Y112.409 E2.12198
G1 X135.8 Y113.112 E2.14549
G1 X135.745 Y113.52 E2.15918
G1 X135.609 Y114.408 E2.18906
G1 X135.483 Y115.121 E2.21314
G1 X135.379 Y115.617 E2.23
G1 X135.237 Y116.225 E2.25076
G1 X135.112 Y116.709 E2.26739
G1 X134.934 Y117.34 E2.2892
G1 X134.767 Y117.88 E2.308
G1 X134.372 Y119.026 E2.34831
G1 X134.169 Y119.553 E2.3671
G1 X133.935 Y120.125 E2.38765
G1 X133.681 Y120.708 E2.4088
G1 X133.464 Y121.167 E2.42569
G1 X133.031 Y122.03 E2.4578
G1 X132.836 Y122.4 E2.47171
G1 X132.422 Y123.138 E2.49986
G1 X131.905 Y123.989 E2.53298
G1 X131.64 Y124.397 E2.54916
G1 X131.381 Y124.777 E2.56445
G1 X131.01 Y125.299 E2.58575
G1 X130.664 Y125.761 E2.60495
G1 X130.243 Y126.292 E2.62749
G1 X129.561 Y127.1 E2.66266
G1 X129.267 Y127.429 E2.67733
G1 X128.623 Y128.122 E2.7088
G1 X128.131 Y128.618 E2.73203
G1 X127.596 Y129.125 E2.75655
G1 X127.079 Y129.591 E2.7797
G1 X126.627 Y129.969 E2.7993
G1 X125.663 Y130.732 E2.84019
G1 X125.086 Y131.159 E2.86406
G1 X124.469 Y131.585 E2.889
G1 X123.902 Y131.957 E2.91155
G1 X123.544 Y132.179 E2.92557
G1 X122.987 Y132.509 E2.9471
G1 X122.193 Y132.951 E2.97732
G1 X121.685 Y133.215 E2.99636
G1 X120.798 Y133.64 E3.02908
G1 X120.086 Y133.956 E3.05499
G1 X119.608 Y134.151 E3.07216
G1 X119.005 Y134.381 E3.09362
G1 X118.408 Y134.589 E3.11465
G1 X117.376 Y134.916 E3.15066
G1 X116.634 Y135.123 E3.17628
G1 X115.59 Y135.375 E3.212
G1 X115.065 Y135.49 E3.22987
G1 X114.621 Y135.573 E3.2449
G1 X113.711 Y135.718 E3.27555
G1 X112.544 Y135.862 E3.31465
G1 X111.825 Y135.924 E3.33866
G1 X111.053 Y135.964 E3.36437
G1 X110.372 Y135.981 E3.38703
G1 X109.349 Y135.976 E3.42105
G1 X108.91 Y135.963 E3.43566
G1 X108.285 Y135.931 E3.45647
G1 X107.585 Y135.878 E3.47982
G1 X106.735 Y135.786 E3.50826
G1 X106.273 Y135.723 E3.52377
G1 X105.65 Y135.625 E3.54474
G1 X105.202 Y135.545 E3.55988
G1 X104.279 Y135.355 E3.59122
G1 X103.767 Y135.235 E3.60871
G1 X103.291 Y135.112 E3.62506
G1 X102.66 Y134.934 E3.64687
G1 X102.114 Y134.765 E3.66588
G1 X101.294 Y134.487 E3.69468
G1 X100.741 Y134.282 E3.71429
G1 X100.136 Y134.04 E3.73597
G1 X99.675 Y133.844 E3.75263
G1 X99.014 Y133.544 E3.77677
G1 X98.614 Y133.352 E3.79153
G1 X97.508 Y132.787 E3.83284
G1 X96.878 Y132.432 E3.85689
G1 X96.064 Y131.937 E3.88857
G1 X95.576 Y131.621 E3.90791
G1 X95.167 Y131.343 E3.92436
G1 X94.492 Y130.856 E3.95204
G1 X93.975 Y130.461 E3.97368
G1 X93.588 Y130.152 E3.99016
G1 X93.106 Y129.744 E4.01116
G1 X92.172 Y128.906 E4.05289
G1 X91.545 Y128.296 E4.08199
G1 X90.969 Y127.69 E4.1098
G1 X90.685 Y127.38 E4.12378
G1 X90.2 Y126.829 E4.1482
G1 X89.738 Y126.268 E4.17237
G1 X89.068 Y125.397 E4.20892
G1 X88.678 Y124.864 E4.23088
G1 X88.358 Y124.393 E4.24982
G1 X87.832 Y123.56 E4.28259
G1 X87.303 Y122.656 E4.31743
G1 X87.04 Y122.178 E4.33557
G1 X86.792 Y121.699 E4.35351
G1 X86.467 Y121.033 E4.37816
G1 X86.182 Y120.398 E4.40131
G1 X85.799 Y119.468 E4.43476
G1 X85.562 Y118.85 E4.45678
G1 X85.382 Y118.323 E4.4753
G1 X85.053 Y117.277 E4.51177
G1 X84.828 Y116.45 E4.54027
G1 X84.559 Y115.284 E4.58007
G1 X84.427 Y114.623 E4.60249
G1 X84.278 Y113.683 E4.63415
G1 X84.18 Y112.922 E4.65967
G1 X84.105 Y112.199 E4.68384
G1 X84.053 Y111.444 E4.70902
G1 X84.019 Y110.373 E4.74466
G1 X84.024 Y109.35 E4.77868
G1 X84.037 Y108.912 E4.79326
G1 X84.069 Y108.285 E4.81414
G1 X84.122 Y107.583 E4.83755
G1 X84.214 Y106.736 E4.86589
G1 X84.278 Y106.265 E4.8817
G1 X84.38 Y105.619 E4.90345
G1 X84.461 Y105.166 E4.91876
G1 X84.632 Y104.34 E4.94681
G1 X84.759 Y103.792 E4.96552
G1 X84.889 Y103.284 E4.98296
G1 X85.067 Y102.654 E5.00474
G1 X85.236 Y102.112 E5.02362
G1 X85.508 Y101.31 E5.05179
G1 X85.711 Y100.76 E5.07129
G1 X86.032 Y99.957 E5.10005
G1 X86.326 Y99.276 E5.12472
G1 X86.539 Y98.827 E5.14125
G1 X86.969 Y97.97 E5.17314
G1 X87.394 Y97.18 E5.20297
G1 X87.605 Y96.813 E5.21706
G1 X88.049 Y96.084 E5.24544
G1 X88.363 Y95.599 E5.26466
G1 X88.637 Y95.195 E5.2809
G1 X89.043 Y94.625 E5.30417
G1 X89.354 Y94.21 E5.32142
G1 X89.721 Y93.743 E5.34118
G1 X90.107 Y93.279 E5.36125
G1 X90.802 Y92.488 E5.39627
G1 X91.143 Y92.117 E5.41303
G1 X91.511 Y91.735 E5.43067
M204 S2000
G0 F7500 X91.799 Y92.013
M204 S500
G1 F1500 X92.141 Y91.673 E5.44671
G1 X92.677 Y91.165 E5.47128
G1 X93.195 Y90.7 E5.49443
G1 X93.627 Y90.339 E5.51315
G1 X94.563 Y89.598 E5.55286
G1 X95.111 Y89.192 E5.57554
G1 X96.067 Y88.538 E5.61407
G1 X96.665 Y88.162 E5.63756
G1 X97.215 Y87.836 E5.65883
G1 X98 Y87.4 E5.68869
G1 X98.461 Y87.161 E5.70597
G1 X99.004 Y86.897 E5.72605
G1 X99.466 Y86.686 E5.74294
G1 X100.372 Y86.298 E5.77572
G1 X100.752 Y86.144 E5.78936
G1 X101.377 Y85.909 E5.81157
G1 X101.816 Y85.756 E5.82703
G1 X102.685 Y85.479 E5.85736
G1 X103.252 Y85.317 E5.87698
G1 X103.657 Y85.215 E5.89087
G1 X104.777 Y84.955 E5.92911
G1 X105.434 Y84.824 E5.95139
G1 X106.404 Y84.669 E5.98406
G1 X107.046 Y84.586 E6.0056
G1 X107.959 Y84.495 E6.03611
G1 X108.324 Y84.467 E6.04829
G1 X108.928 Y84.437 E6.0684
G1 X109.632 Y84.419 E6.09182
G1 X110.647 Y84.424 E6.12558
G1 X111.07 Y84.437 E6.13966
G1 X111.695 Y84.469 E6.16047
G1 X112.249 Y84.512 E6.17896
G1 X112.951 Y84.585 E6.20243
G1 X113.46 Y84.65 E6.2195
G1 X114.348 Y84.786 E6.24938
G1 X115.048 Y84.911 E6.27303
G1 X115.522 Y85.01 E6.28913
G1 X116.088 Y85.142 E6.30846
G1 X116.533 Y85.256 E6.32374
G1 X117.052 Y85.401 E6.34166
G1 X117.566 Y85.559 E6.35955
G1 X118.653 Y85.923 E6.39768
G1 X119.259 Y86.146 E6.41915
G1 X119.932 Y86.418 E6.4433
G1 X120.561 Y86.692 E6.46612
G1 X120.994 Y86.897 E6.48205
G1 X121.851 Y87.327 E6.51394
G1 X122.215 Y87.519 E6.52763
G1 X122.934 Y87.922 E6.55504
G1 X123.436 Y88.222 E6.57449
G1 X124.027 Y88.594 E6.59772
G1 X124.423 Y88.861 E6.61361
G1 X124.997 Y89.266 E6.63697
G1 X125.531 Y89.661 E6.65906
G1 X126.218 Y90.203 E6.68817
G1 X126.607 Y90.528 E6.70503
G1 X127.04 Y90.907 E6.72417
G1 X127.457 Y91.291 E6.74302
G1 X128.045 Y91.864 E6.77033
G1 X128.89 Y92.742 E6.81086
G1 X129.281 Y93.173 E6.83021
G1 X129.661 Y93.627 E6.8499
G1 X130.402 Y94.563 E6.88961
G1 X130.811 Y95.116 E6.91249
G1 X131.236 Y95.731 E6.93735
G1 X131.634 Y96.338 E6.96149
G1 X132.187 Y97.256 E6.99714
G1 X132.42 Y97.67 E7.01294
G1 X132.764 Y98.314 E7.03722
G1 X132.997 Y98.777 E7.05446
G1 X133.275 Y99.365 E7.07609
G1 X133.593 Y100.083 E7.10221
G1 X133.791 Y100.571 E7.11973
G1 X134.046 Y101.247 E7.14376
G1 X134.237 Y101.8 E7.16322
G1 X134.529 Y102.726 E7.19551
G1 X134.695 Y103.302 E7.21545
G1 X134.792 Y103.679 E7.2284
G1 X134.989 Y104.51 E7.2568
G1 X135.103 Y105.039 E7.2748
G1 X135.178 Y105.441 E7.2884
G1 X135.321 Y106.341 E7.31871
G1 X135.463 Y107.488 E7.35715
G1 X135.525 Y108.201 E7.38096
G1 X135.563 Y108.948 E7.40583
G1 X135.585 Y110.073 E7.44326
G1 X135.569 Y110.992 E7.47383
G1 X135.532 Y111.656 E7.49595
G1 X135.475 Y112.377 E7.52
G1 X135.403 Y113.066 E7.54304
G1 X135.35 Y113.46 E7.55627
G1 X135.214 Y114.348 E7.58615
G1 X135.089 Y115.048 E7.6098
G1 X134.989 Y115.526 E7.62604
G1 X134.847 Y116.134 E7.64681
G1 X134.727 Y116.601 E7.66284
G1 X134.549 Y117.232 E7.68465
G1 X134.388 Y117.751 E7.70272
G1 X133.998 Y118.885 E7.74261
G1 X133.799 Y119.402 E7.76103
G1 X133.565 Y119.974 E7.78159
G1 X133.315 Y120.546 E7.80235
G1 X133.106 Y120.988 E7.81861
G1 X132.673 Y121.851 E7.85073
G1 X132.486 Y122.207 E7.8641
G1 X132.079 Y122.933 E7.89178
G1 X131.779 Y123.435 E7.91123
G1 X131.304 Y124.179 E7.94059
G1 X131.055 Y124.546 E7.95534
G1 X130.684 Y125.068 E7.97664
G1 X130.35 Y125.512 E7.99512
G1 X129.929 Y126.043 E8.01766
G1 X129.257 Y126.839 E8.05231
G1 X128.974 Y127.157 E8.06647
G1 X128.33 Y127.85 E8.09793
G1 X127.856 Y128.328 E8.12032
G1 X127.321 Y128.835 E8.14484
G1 X126.814 Y129.291 E8.16752
G1 X126.379 Y129.656 E8.18641
G1 X125.415 Y130.419 E8.2273
G1 X124.859 Y130.83 E8.25029
G1 X124.242 Y131.256 E8.27523
G1 X123.685 Y131.621 E8.29738
G1 X123.34 Y131.835 E8.31088
G1 X122.476 Y132.339 E8.34415
G1 X121.716 Y132.751 E8.3729
G1 X121.216 Y133 E8.39148
G1 X120.627 Y133.278 E8.41314
G1 X119.926 Y133.589 E8.43865
G1 X119.466 Y133.777 E8.45518
G1 X118.863 Y134.007 E8.47664
G1 X118.287 Y134.208 E8.49694
G1 X117.255 Y134.535 E8.53294
G1 X116.54 Y134.734 E8.55763
G1 X115.496 Y134.986 E8.59335
G1 X114.983 Y135.098 E8.61081
G1 X114.556 Y135.179 E8.62527
G1 X113.66 Y135.321 E8.65544
G1 X112.881 Y135.422 E8.68157
G1 X112.144 Y135.498 E8.70621
G1 X111.423 Y135.547 E8.73025
G1 X110.362 Y135.581 E8.76555
G1 X109.353 Y135.576 E8.79911
G1 X108.93 Y135.563 E8.81319
G1 X107.967 Y135.508 E8.84527
G1 X107.297 Y135.448 E8.86764
G1 X106.78 Y135.389 E8.88495
G1 X106.335 Y135.328 E8.89989
G1 X105.712 Y135.23 E8.92087
G1 X105.28 Y135.153 E8.93546
G1 X104.71 Y135.039 E8.95479
G1 X103.858 Y134.845 E8.98386
G1 X103.399 Y134.727 E8.99962
G1 X102.768 Y134.549 E9.02143
G1 X102.243 Y134.386 E9.03971
G1 X101.423 Y134.108 E9.06851
G1 X100.889 Y133.911 E9.08744
G1 X100.284 Y133.669 E9.10911
G1 X99.84 Y133.479 E9.12517
G1 X99.179 Y133.179 E9.14932
G1 X98.794 Y132.995 E9.16351
G1 X97.701 Y132.437 E9.20433
G1 X97.083 Y132.089 E9.22792
G1 X96.603 Y131.802 E9.24652
G1 X95.794 Y131.285 E9.27845
G1 X95.4 Y131.018 E9.29428
G1 X94.971 Y130.712 E9.31181
G1 X94.446 Y130.32 E9.3336
G1 X93.838 Y129.839 E9.35938
G1 X93.373 Y129.446 E9.37963
G1 X92.439 Y128.608 E9.42137
G1 X91.835 Y128.021 E9.44938
G1 X90.985 Y127.116 E9.49068
G1 X90.5 Y126.565 E9.51509
G1 X90.055 Y126.024 E9.53839
G1 X89.385 Y125.153 E9.57494
G1 X89.003 Y124.63 E9.59648
G1 X88.695 Y124.176 E9.61473
G1 X88.176 Y123.356 E9.64701
G1 X87.817 Y122.749 E9.67046
G1 X87.391 Y121.985 E9.69955
G1 X87.152 Y121.524 E9.71683
G1 X86.827 Y120.858 E9.74147
G1 X86.552 Y120.245 E9.76382
G1 X86.169 Y119.315 E9.79727
G1 X85.937 Y118.711 E9.81879
G1 X85.763 Y118.203 E9.83665
G1 X85.434 Y117.157 E9.87312
G1 X85.217 Y116.36 E9.9006
G1 X84.948 Y115.194 E9.9404
G1 X84.822 Y114.557 E9.96199
G1 X84.675 Y113.632 E9.99314
G1 X84.537 Y112.519 E10.03045
G1 X84.475 Y111.799 E10.05448
G1 X84.436 Y111.044 E10.07963
G1 X84.419 Y110.363 E10.10228
G1 X84.424 Y109.354 E10.13584
G1 X84.437 Y108.933 E10.14985
G1 X84.492 Y107.963 E10.18217
G1 X84.552 Y107.299 E10.20434
G1 X84.611 Y106.781 E10.22168
G1 X84.673 Y106.328 E10.23689
G1 X84.775 Y105.682 E10.25864
G1 X84.853 Y105.244 E10.27344
G1 X84.956 Y104.732 E10.29081
G1 X85.149 Y103.882 E10.3198
G1 X85.274 Y103.393 E10.33659
G1 X85.452 Y102.763 E10.35836
G1 X85.615 Y102.24 E10.37658
G1 X85.887 Y101.438 E10.40475
G1 X86.082 Y100.908 E10.42353
G1 X86.403 Y100.105 E10.4523
G1 X86.692 Y99.439 E10.47644
G1 X86.897 Y99.006 E10.49238
G1 X87.327 Y98.149 E10.52427
G1 X87.745 Y97.372 E10.55361
G1 X87.948 Y97.019 E10.56716
G1 X88.385 Y96.301 E10.59511
G1 X88.699 Y95.816 E10.61433
G1 X88.963 Y95.427 E10.62997
G1 X89.369 Y94.857 E10.65324
G1 X89.669 Y94.457 E10.66987
G1 X90.036 Y93.99 E10.68963
G1 X90.407 Y93.543 E10.70895
G1 X91.102 Y92.752 E10.74397
G1 X91.431 Y92.395 E10.76012
G1 X91.799 Y92.013 E10.77776
M204 S2000
G0 F7500 X92.087 Y92.29
M204 S500
G1 F1500 X92.416 Y91.964 E10.79316
G1 X92.952 Y91.456 E10.81772
G1 X93.46 Y91 E10.84043
G1 X93.875 Y90.653 E10.85842
G1 X94.811 Y89.912 E10.89813
G1 X95.339 Y89.521 E10.91998
G1 X95.988 Y89.072 E10.94623
G1 X96.562 Y88.696 E10.96905
G1 X96.869 Y88.507 E10.98104
G1 X97.716 Y88.011 E11.01369
G1 X98.192 Y87.75 E11.03174
G1 X98.636 Y87.521 E11.04836
G1 X99.179 Y87.257 E11.06844
G1 X99.624 Y87.054 E11.08471
G1 X100.895 Y86.517 E11.1306
G1 X101.509 Y86.287 E11.15241
G1 X101.948 Y86.134 E11.16787
G1 X102.805 Y85.861 E11.19779
G1 X103.358 Y85.703 E11.21692
G1 X103.747 Y85.604 E11.23027
G1 X104.867 Y85.344 E11.26851
G1 X105.5 Y85.218 E11.28997
G1 X106.455 Y85.066 E11.32214
G1 X107.459 Y84.943 E11.35578
G1 X108.348 Y84.866 E11.38546
G1 X108.938 Y84.837 E11.40511
G1 X109.642 Y84.819 E11.42853
G1 X110.642 Y84.824 E11.46179
G1 X111.05 Y84.836 E11.47537
G1 X111.675 Y84.868 E11.49618
G1 X112.208 Y84.91 E11.51396
G1 X112.91 Y84.983 E11.53744
G1 X113.399 Y85.046 E11.55384
G1 X114.287 Y85.182 E11.58372
G1 X114.975 Y85.304 E11.60696
G1 X115.432 Y85.4 E11.62249
G1 X115.998 Y85.532 E11.64182
G1 X116.426 Y85.641 E11.65651
G1 X116.945 Y85.786 E11.67443
G1 X117.439 Y85.938 E11.69162
G1 X118.526 Y86.302 E11.72975
G1 X119.109 Y86.517 E11.75042
G1 X119.782 Y86.789 E11.77456
G1 X120.398 Y87.057 E11.7969
G1 X120.814 Y87.254 E11.81221
G1 X121.671 Y87.684 E11.8441
G1 X122.022 Y87.869 E11.8573
G1 X122.728 Y88.265 E11.88422
G1 X123.23 Y88.565 E11.90367
G1 X123.811 Y88.931 E11.92651
G1 X124.192 Y89.188 E11.9418
G1 X125.026 Y89.782 E11.97585
G1 X125.493 Y90.138 E11.99538
G1 X125.969 Y90.516 E12.0156
G1 X126.344 Y90.829 E12.03185
G1 X126.777 Y91.208 E12.05099
G1 X127.178 Y91.578 E12.06913
G1 X128.039 Y92.427 E12.10935
G1 X128.601 Y93.018 E12.13648
G1 X128.982 Y93.438 E12.15534
G1 X129.347 Y93.875 E12.17427
G1 X130.088 Y94.811 E12.21398
