;FLAVOR:Marlin
;TIME:2410
;Filament used: 1.94741m
;Layer height: 0.2
;MINX:84.01
;MINY:84.01
;MINZ:0.2
;MAXX:135.99
;MAXY:135.99
;MAXZ:30
;Generated with Cura_SteamEngine 5.2.0
M82 ;absolute extrusion mode
; Ender 3 S1 Start G-code
G92 E0 ; Reset Extruder
G28 ; Home all axes
G1 Z10.0 F3000 ; Move Z Axis up little to prevent scratching of Heat Bed
G1 X0 Y0

M104 S200
M190 S60
M109 S200

G1 X0.1 Y20 Z0.3 F5000.0 ; Move to start position
G1 X0.1 Y200.0 Z0.3 F1500.0 E15 ; Draw the first line
G1 X0.4 Y200.0 Z0.3 F5000.0 ; Move to side a little
G1 X0.4 Y20 Z0.3 F1500.0 E30 ; Draw the second line
G92 E0 ; Reset Extruder
G1 Z2.0 F3000 ; Move Z Axis up little to prevent scratching of Heat Bed
G1 X5 Y20 Z0.3 F5000.0 ; Move over to prevent blob squish

G92 E0
G92 E0
G1 F2400 E-0.8
;LAYER_COUNT:150
;LAYER:0
M107
M204 S2000
G0 F7500 X91.784 Y91.466 Z0.2
M204 S500
;TYPE:SKIRT
G1 F2400 E0
G1 F1500 X92.481 Y90.837 E0.03123
G1 X93.306 Y90.156 E0.06681
G1 X94.51 Y89.196 E0.11802
G1 X95.152 Y88.699 E0.14503
G1 X95.917 Y88.158 E0.17619
G1 X96.718 Y87.688 E0.20708
G1 X97.584 Y87.229 E0.23968
G1 X98.915 Y86.55 E0.28938
G1 X99.7 Y86.163 E0.31849
G1 X100.559 Y85.786 E0.34969
G1 X101.392 Y85.499 E0.37899
G1 X102.203 Y85.257 E0.40714
G1 X103.594 Y84.862 E0.45523
G1 X104.47 Y84.627 E0.4854
G1 X105.386 Y84.423 E0.51661
G1 X106.014 Y84.33 E0.53773
G1 X106.576 Y84.267 E0.55654
G1 X108.274 Y84.111 E0.61325
G1 X109.16 Y84.042 E0.64281
G1 X110.097 Y84.01 E0.67399
G1 X110.714 Y84.033 E0.69453
G1 X111.349 Y84.08 E0.7157
G1 X113.308 Y84.267 E0.78116
G1 X114.015 Y84.343 E0.80481
G1 X114.942 Y84.483 E0.83599
G1 X115.838 Y84.697 E0.86663
G1 X116.648 Y84.927 E0.89463
G1 X118.154 Y85.377 E0.94691
G1 X118.984 Y85.637 E0.97584
G1 X119.866 Y85.956 E1.00704
G1 X120.722 Y86.352 E1.03841
G1 X121.536 Y86.772 E1.06887
G1 X122.906 Y87.504 E1.12053
G1 X123.667 Y87.924 E1.14944
G1 X124.467 Y88.412 E1.18061
G1 X125.228 Y88.971 E1.21202
G1 X126.047 Y89.63 E1.24698
G1 X127.208 Y90.596 E1.29721
G1 X127.849 Y91.144 E1.32526
G1 X128.534 Y91.784 E1.35644
G1 X129.163 Y92.481 E1.38767
G1 X129.844 Y93.306 E1.42325
G1 X130.804 Y94.51 E1.47447
G1 X131.301 Y95.152 E1.50147
G1 X131.842 Y95.917 E1.53263
G1 X132.312 Y96.718 E1.56352
G1 X132.771 Y97.584 E1.59612
G1 X133.45 Y98.915 E1.64582
G1 X133.844 Y99.716 E1.67551
G1 X134.221 Y100.575 E1.70671
G1 X134.513 Y101.428 E1.7367
G1 X134.743 Y102.203 E1.76358
G1 X135.138 Y103.594 E1.81168
G1 X135.373 Y104.47 E1.84184
G1 X135.577 Y105.386 E1.87306
G1 X135.67 Y106.014 E1.89417
G1 X135.733 Y106.576 E1.91298
G1 X135.889 Y108.274 E1.9697
G1 X135.958 Y109.162 E1.99932
G1 X135.99 Y110.1 E2.03054
G1 X135.967 Y110.717 E2.05107
G1 X135.92 Y111.349 E2.07215
G1 X135.733 Y113.308 E2.1376
G1 X135.657 Y114.015 E2.16125
G1 X135.517 Y114.942 E2.19243
G1 X135.302 Y115.842 E2.22321
G1 X135.073 Y116.647 E2.25105
G1 X134.623 Y118.153 E2.30333
G1 X134.366 Y118.976 E2.332
G1 X134.048 Y119.858 E2.36319
G1 X133.648 Y120.723 E2.39488
G1 X133.225 Y121.542 E2.42554
G1 X132.419 Y123.047 E2.48233
G1 X132.076 Y123.667 E2.50589
G1 X131.588 Y124.467 E2.53706
G1 X131.027 Y125.231 E2.56859
G1 X130.36 Y126.059 E2.60395
G1 X129.404 Y127.208 E2.65366
G1 X128.856 Y127.849 E2.68171
G1 X128.216 Y128.534 E2.71289
G1 X127.519 Y129.163 E2.74412
G1 X126.694 Y129.844 E2.7797
G1 X125.49 Y130.804 E2.83091
G1 X124.848 Y131.301 E2.85792
G1 X124.083 Y131.842 E2.88908
G1 X123.282 Y132.312 E2.91997
G1 X122.416 Y132.771 E2.95257
G1 X121.085 Y133.45 E3.00227
G1 X120.3 Y133.837 E3.03138
G1 X119.441 Y134.214 E3.06258
G1 X118.608 Y134.501 E3.09188
G1 X117.797 Y134.743 E3.12003
G1 X116.406 Y135.138 E3.16813
G1 X115.53 Y135.373 E3.19829
G1 X114.614 Y135.577 E3.2295
G1 X113.986 Y135.67 E3.25062
G1 X113.424 Y135.733 E3.26943
G1 X111.726 Y135.889 E3.32614
G1 X110.838 Y135.958 E3.35577
G1 X109.9 Y135.99 E3.38698
G1 X109.283 Y135.967 E3.40752
G1 X108.651 Y135.92 E3.4286
G1 X106.692 Y135.733 E3.49405
G1 X105.985 Y135.657 E3.5177
G1 X105.058 Y135.517 E3.54888
G1 X104.162 Y135.303 E3.57952
G1 X103.352 Y135.073 E3.60753
G1 X101.846 Y134.623 E3.6598
G1 X101.016 Y134.363 E3.68873
G1 X100.134 Y134.044 E3.71993
G1 X99.284 Y133.652 E3.75106
G1 X98.615 Y133.308 E3.77608
G1 X97.091 Y132.494 E3.83355
G1 X96.333 Y132.076 E3.86234
G1 X95.533 Y131.588 E3.89351
G1 X94.769 Y131.027 E3.92503
G1 X93.941 Y130.36 E3.96039
G1 X92.792 Y129.404 E4.01011
G1 X92.151 Y128.856 E4.03816
G1 X91.466 Y128.216 E4.06934
G1 X90.837 Y127.519 E4.10056
G1 X90.156 Y126.694 E4.13614
G1 X89.196 Y125.49 E4.18736
G1 X88.699 Y124.848 E4.21436
G1 X88.158 Y124.083 E4.24553
G1 X87.688 Y123.282 E4.27642
G1 X87.229 Y122.416 E4.30902
G1 X86.55 Y121.085 E4.35871
G1 X86.163 Y120.298 E4.38788
G1 X85.785 Y119.44 E4.41907
G1 X85.497 Y118.6 E4.4486
G1 X85.257 Y117.794 E4.47657
G1 X84.809 Y116.213 E4.53123
G1 X84.625 Y115.524 E4.55495
G1 X84.422 Y114.609 E4.58612
G1 X84.331 Y113.99 E4.60693
G1 X84.267 Y113.424 E4.62587
G1 X84.097 Y111.56 E4.68813
G1 X84.042 Y110.842 E4.71208
G1 X84.01 Y109.905 E4.74326
G1 X84.033 Y109.289 E4.76376
G1 X84.08 Y108.651 E4.78504
G1 X84.269 Y106.677 E4.851
G1 X84.347 Y105.961 E4.87495
G1 X84.488 Y105.034 E4.90614
G1 X84.701 Y104.145 E4.93654
G1 X84.927 Y103.352 E4.96397
G1 X85.377 Y101.846 E5.01625
G1 X85.637 Y101.016 E5.04518
G1 X85.956 Y100.134 E5.07637
G1 X86.348 Y99.284 E5.1075
G1 X86.692 Y98.615 E5.13252
G1 X87.506 Y97.091 E5.18999
G1 X87.924 Y96.333 E5.21878
G1 X88.412 Y95.533 E5.24995
G1 X88.973 Y94.769 E5.28147
G1 X89.64 Y93.941 E5.31684
G1 X90.596 Y92.792 E5.36655
G1 X91.144 Y92.151 E5.3946
G1 X91.784 Y91.466 E5.42578
M204 S2000
G0 F7500 X92.077 Y91.739
M204 S500
G1 F1500 X92.737 Y91.145 E5.45531
G1 X93.556 Y90.469 E5.49063
G1 X94.885 Y89.41 E5.54715
G1 X95.396 Y89.015 E5.56864
G1 X96.148 Y88.485 E5.59923
G1 X96.906 Y88.041 E5.62845
G1 X97.766 Y87.586 E5.66081
G1 X99.239 Y86.835 E5.7158
G1 X99.876 Y86.522 E5.73941
G1 X100.72 Y86.153 E5.77005
G1 X101.507 Y85.883 E5.79772
G1 X102.312 Y85.642 E5.82567
G1 X103.703 Y85.247 E5.87376
G1 X104.574 Y85.013 E5.90376
G1 X105.473 Y84.814 E5.93439
G1 X106.061 Y84.727 E5.95416
G1 X106.612 Y84.665 E5.9726
G1 X108.31 Y84.509 E6.02931
G1 X109.191 Y84.441 E6.0587
G1 X110.111 Y84.411 E6.08932
G1 X110.688 Y84.432 E6.10852
G1 X111.312 Y84.478 E6.12933
G1 X113.265 Y84.665 E6.19458
G1 X113.972 Y84.741 E6.21824
G1 X114.882 Y84.879 E6.24885
G1 X115.729 Y85.081 E6.27781
G1 X116.389 Y85.268 E6.30063
G1 X118.04 Y85.761 E6.35793
G1 X118.864 Y86.019 E6.38665
G1 X119.729 Y86.332 E6.41725
G1 X120.539 Y86.707 E6.44694
G1 X121.205 Y87.05 E6.47185
G1 X122.717 Y87.857 E6.52886
G1 X123.473 Y88.274 E6.55757
G1 X124.259 Y88.754 E6.5882
G1 X124.977 Y89.283 E6.61787
G1 X125.791 Y89.938 E6.65262
G1 X126.952 Y90.904 E6.70285
G1 X127.588 Y91.448 E6.73069
G1 X128.261 Y92.077 E6.76132
G1 X128.855 Y92.737 E6.79086
G1 X129.531 Y93.556 E6.82618
G1 X130.59 Y94.885 E6.8827
G1 X130.985 Y95.396 E6.90418
G1 X131.515 Y96.148 E6.93478
G1 X131.959 Y96.906 E6.964
G1 X132.414 Y97.766 E6.99636
G1 X133.167 Y99.244 E7.05153
G1 X133.485 Y99.892 E7.07554
G1 X133.854 Y100.735 E7.10614
G1 X134.13 Y101.542 E7.13451
G1 X134.358 Y102.312 E7.16122
G1 X134.753 Y103.703 E7.20931
G1 X134.987 Y104.574 E7.23931
G1 X135.186 Y105.473 E7.26993
G1 X135.273 Y106.061 E7.2897
G1 X135.335 Y106.612 E7.30815
G1 X135.491 Y108.31 E7.36486
G1 X135.559 Y109.193 E7.39432
G1 X135.589 Y110.113 E7.42493
G1 X135.567 Y110.691 E7.44417
G1 X135.522 Y111.312 E7.46488
G1 X135.335 Y113.265 E7.53013
G1 X135.259 Y113.972 E7.55378
G1 X135.121 Y114.882 E7.5844
G1 X134.917 Y115.733 E7.6135
G1 X134.689 Y116.533 E7.64117
G1 X134.198 Y118.173 E7.69811
G1 X133.984 Y118.856 E7.72191
G1 X133.671 Y119.722 E7.75254
G1 X133.293 Y120.54 E7.78251
G1 X132.949 Y121.208 E7.8075
G1 X132.141 Y122.721 E7.86455
G1 X131.726 Y123.473 E7.89312
G1 X131.246 Y124.259 E7.92375
G1 X130.715 Y124.98 E7.95353
G1 X130.052 Y125.803 E7.98868
G1 X129.096 Y126.952 E8.0384
G1 X128.552 Y127.588 E8.06623
G1 X127.923 Y128.261 E8.09687
G1 X127.263 Y128.855 E8.12641
G1 X126.444 Y129.531 E8.16173
G1 X125.115 Y130.59 E8.21825
G1 X124.604 Y130.985 E8.23973
G1 X123.852 Y131.515 E8.27033
G1 X123.094 Y131.959 E8.29954
G1 X122.234 Y132.414 E8.33191
G1 X120.761 Y133.165 E8.3869
G1 X120.124 Y133.478 E8.4105
G1 X119.28 Y133.847 E8.44114
G1 X118.493 Y134.117 E8.46881
G1 X117.688 Y134.358 E8.49676
G1 X116.297 Y134.753 E8.54486
G1 X115.426 Y134.987 E8.57485
G1 X114.527 Y135.186 E8.60548
G1 X113.939 Y135.273 E8.62525
G1 X113.388 Y135.335 E8.64369
G1 X111.69 Y135.491 E8.7004
G1 X110.807 Y135.559 E8.72986
G1 X109.887 Y135.589 E8.76047
G1 X109.309 Y135.567 E8.77971
G1 X108.688 Y135.522 E8.80042
G1 X106.735 Y135.335 E8.86568
G1 X106.028 Y135.259 E8.88933
G1 X105.118 Y135.121 E8.91994
G1 X104.271 Y134.919 E8.9489
G1 X103.611 Y134.732 E8.97172
G1 X101.96 Y134.239 E9.02902
G1 X101.136 Y133.981 E9.05774
G1 X100.271 Y133.668 E9.08834
G1 X99.467 Y133.296 E9.1178
G1 X98.646 Y132.872 E9.14854
G1 X97.279 Y132.141 E9.2001
G1 X96.527 Y131.726 E9.22866
G1 X95.741 Y131.246 E9.25929
G1 X95.02 Y130.715 E9.28908
G1 X94.197 Y130.052 E9.32423
G1 X93.048 Y129.096 E9.37394
G1 X92.412 Y128.552 E9.40178
G1 X91.739 Y127.923 E9.43242
G1 X91.145 Y127.263 E9.46195
G1 X90.469 Y126.444 E9.49727
G1 X89.41 Y125.115 E9.55379
G1 X89.015 Y124.604 E9.57527
G1 X88.485 Y123.852 E9.60587
G1 X88.041 Y123.094 E9.63509
G1 X87.586 Y122.234 E9.66745
G1 X86.907 Y120.903 E9.71715
G1 X86.522 Y120.122 E9.74611
G1 X86.152 Y119.279 E9.77673
G1 X85.88 Y118.486 E9.80461
G1 X85.641 Y117.685 E9.83241
G1 X85.239 Y116.268 E9.8814
G1 X85.012 Y115.421 E9.91057
G1 X84.813 Y114.522 E9.94119
G1 X84.728 Y113.943 E9.96066
G1 X84.665 Y113.388 E9.97923
G1 X84.509 Y111.69 E10.03595
G1 X84.441 Y110.812 E10.06524
G1 X84.411 Y109.891 E10.09589
G1 X84.432 Y109.315 E10.11506
G1 X84.478 Y108.688 E10.13597
G1 X84.666 Y106.72 E10.20172
G1 X84.744 Y106.004 E10.22568
G1 X84.884 Y105.094 E10.2563
G1 X85.086 Y104.254 E10.28503
G1 X85.311 Y103.466 E10.31229
G1 X85.761 Y101.96 E10.36457
G1 X86.019 Y101.136 E10.39329
G1 X86.332 Y100.271 E10.42388
G1 X86.704 Y99.467 E10.45335
G1 X87.128 Y98.646 E10.48408
G1 X87.859 Y97.279 E10.53564
G1 X88.274 Y96.527 E10.56421
G1 X88.754 Y95.741 E10.59484
G1 X89.285 Y95.02 E10.62462
G1 X89.948 Y94.197 E10.65977
G1 X90.904 Y93.048 E10.70949
G1 X91.448 Y92.412 E10.73732
G1 X92.077 Y91.739 E10.76796
M204 S2000
G0 F7500 X92.369 Y92.013
M204 S500
G1 F1500 X92.992 Y91.453 E10.79582
G1 X93.805 Y90.782 E10.83088
G1 X95.009 Y89.822 E10.8821
G1 X95.641 Y89.332 E10.9087
G1 X96.379 Y88.812 E10.93872
G1 X97.094 Y88.394 E10.96627
G1 X97.948 Y87.942 E10.99841
G1 X99.416 Y87.194 E11.05321
G1 X100.053 Y86.881 E11.07681
G1 X100.88 Y86.519 E11.10684
G1 X101.621 Y86.266 E11.13288
G1 X102.422 Y86.027 E11.16068
G1 X103.963 Y85.59 E11.21396
G1 X104.677 Y85.399 E11.23854
G1 X105.559 Y85.205 E11.26858
G1 X106.108 Y85.124 E11.28704
G1 X106.649 Y85.064 E11.30514
G1 X108.347 Y84.908 E11.36185
G1 X109.221 Y84.84 E11.39101
G1 X110.124 Y84.811 E11.42106
G1 X110.662 Y84.832 E11.43897
G1 X111.274 Y84.876 E11.45938
G1 X113.222 Y85.062 E11.52446
G1 X113.929 Y85.138 E11.54811
G1 X114.822 Y85.275 E11.57816
G1 X115.62 Y85.466 E11.60545
G1 X116.28 Y85.653 E11.62827
G1 X118.063 Y86.186 E11.69016
G1 X118.744 Y86.4 E11.71391
G1 X119.593 Y86.709 E11.74396
G1 X120.356 Y87.063 E11.77193
G1 X121.022 Y87.406 E11.79685
G1 X122.66 Y88.281 E11.85861
G1 X123.28 Y88.624 E11.88218
G1 X124.05 Y89.096 E11.91222
G1 X124.727 Y89.595 E11.94019
G1 X125.535 Y90.245 E11.97468
G1 X126.696 Y91.211 E12.02492
G1 X127.328 Y91.752 E12.05259
G1 X127.987 Y92.369 E12.08261
G1 X128.547 Y92.992 E12.11047
G1 X129.218 Y93.805 E12.14553
G1 X130.178 Y95.009 E12.19675
G1 X130.668 Y95.641 E12.22335
G1 X131.188 Y96.379 E12.25338
G1 X131.606 Y97.094 E12.28092
G1 X132.058 Y97.948 E12.31306
G1 X132.808 Y99.42 E12.36801
G1 X133.126 Y100.068 E12.39202
G1 X133.487 Y100.896 E12.42206
G1 X133.746 Y101.656 E12.44876
G1 X133.973 Y102.422 E12.47534
G1 X134.41 Y103.963 E12.52861
G1 X134.601 Y104.677 E12.55319
G1 X134.795 Y105.559 E12.58323
G1 X134.876 Y106.108 E12.60169
G1 X134.936 Y106.649 E12.61979
G1 X135.092 Y108.347 E12.67651
G1 X135.16 Y109.223 E12.70573
G1 X135.189 Y110.126 E12.73578
G1 X135.168 Y110.665 E12.75372
G1 X135.124 Y111.274 E12.77403
G1 X134.938 Y113.222 E12.83911
G1 X134.862 Y113.929 E12.86276
G1 X134.725 Y114.822 E12.89281
G1 X134.533 Y115.623 E12.92021
G1 X134.346 Y116.282 E12.94299
G1 X133.856 Y117.924 E12.99999
G1 X133.602 Y118.737 E13.02831
G1 X133.295 Y119.586 E13.05834
G1 X132.937 Y120.357 E13.08662
G1 X132.52 Y121.165 E13.11686
G1 X131.789 Y122.532 E13.16842
G1 X131.376 Y123.28 E13.19684
G1 X130.904 Y124.05 E13.22687
G1 X130.403 Y124.73 E13.25497
G1 X129.745 Y125.547 E13.28986
G1 X128.789 Y126.696 E13.33957
G1 X128.248 Y127.328 E13.36724
G1 X127.631 Y127.987 E13.39727
G1 X127.008 Y128.547 E13.42513
G1 X126.195 Y129.218 E13.46019
G1 X124.991 Y130.178 E13.51141
G1 X124.359 Y130.668 E13.538
G1 X123.621 Y131.188 E13.56803
G1 X122.906 Y131.606 E13.59558
G1 X122.052 Y132.058 E13.62772
G1 X120.584 Y132.806 E13.68251
G1 X119.947 Y133.119 E13.70612
G1 X119.12 Y133.481 E13.73615
G1 X118.379 Y133.734 E13.76219
G1 X117.578 Y133.973 E13.78999
G1 X116.037 Y134.41 E13.84327
G1 X115.323 Y134.601 E13.86785
G1 X114.441 Y134.795 E13.89789
G1 X113.892 Y134.876 E13.91634
G1 X113.351 Y134.936 E13.93445
G1 X111.653 Y135.092 E13.99116
G1 X110.777 Y135.16 E14.02038
G1 X109.874 Y135.189 E14.05043
G1 X109.335 Y135.168 E14.06837
G1 X108.726 Y135.124 E14.08868
G1 X106.778 Y134.938 E14.15377
G1 X106.071 Y134.862 E14.17742
G1 X105.178 Y134.725 E14.20747
G1 X104.38 Y134.534 E14.23476
G1 X103.72 Y134.347 E14.25757
G1 X101.937 Y133.814 E14.31947
G1 X101.256 Y133.6 E14.34321
G1 X100.407 Y133.291 E14.37326
G1 X99.65 Y132.94 E14.40102
G1 X98.835 Y132.52 E14.43151
G1 X97.468 Y131.789 E14.48307
G1 X96.72 Y131.376 E14.51149
G1 X95.95 Y130.904 E14.54153
G1 X95.27 Y130.403 E14.56962
G1 X94.453 Y129.745 E14.60451
G1 X93.304 Y128.789 E14.65422
G1 X92.672 Y128.248 E14.68189
G1 X92.013 Y127.631 E14.71192
G1 X91.453 Y127.008 E14.73978
G1 X90.782 Y126.195 E14.77484
G1 X89.822 Y124.991 E14.82606
G1 X89.332 Y124.359 E14.85266
G1 X88.812 Y123.621 E14.88268
G1 X88.394 Y122.906 E14.91023
G1 X87.942 Y122.052 E14.94237
G1 X87.263 Y120.721 E14.99207
G1 X86.881 Y119.945 E15.02083
G1 X86.519 Y119.118 E15.05086
G1 X86.263 Y118.371 E15.07712
G1 X86.026 Y117.576 E15.10471
G1 X85.582 Y116.007 E15.15895
G1 X85.398 Y115.318 E15.18267
G1 X85.204 Y114.436 E15.2127
G1 X85.125 Y113.895 E15.23089
G1 X85.064 Y113.351 E15.2491
G1 X84.908 Y111.653 E15.30581
G1 X84.84 Y110.781 E15.3349
G1 X84.811 Y109.878 E15.36495
G1 X84.831 Y109.341 E15.38282
G1 X84.876 Y108.726 E15.40333
G1 X85.064 Y106.763 E15.46892
G1 X85.142 Y106.047 E15.49288
G1 X85.279 Y105.155 E15.52289
G1 X85.47 Y104.364 E15.54996
G1 X85.655 Y103.713 E15.57247
G1 X86.186 Y101.937 E15.63412
G1 X86.4 Y101.256 E15.65786
G1 X86.709 Y100.407 E15.68791
G1 X87.06 Y99.65 E15.71567
G1 X87.48 Y98.835 E15.74616
G1 X88.211 Y97.468 E15.79772
G1 X88.624 Y96.72 E15.82614
G1 X89.096 Y95.95 E15.85618
G1 X89.597 Y95.27 E15.88427
G1 X90.255 Y94.453 E15.91916
G1 X91.211 Y93.304 E15.96887
G1 X91.752 Y92.672 E15.99654
G1 X92.369 Y92.013 E16.02657
M204 S2000
G1 F2400 E15.22657
;MESH:test-tube-0.1-tol.stl
G0 F7500 X99.124 Y98.737
G0 X99.8 Y99.584
G0 X97.342 Y104.782
G0 X96.561 Y107.385
G0 X96.308 Y109.999
G0 X96.532 Y112.46
G0 X97.245 Y114.977
G0 X98.483 Y117.404
G0 X100.219 Y119.579
G0 X102.36 Y121.363
G0 X104.798 Y122.665
G0 X109.977 Y124.15
G1 F2400 E16.02657
G0 F7500 X110.002 Y123.886
M204 S500
;TYPE:WALL-INNER
G1 F1271.2 X107.362 Y123.634 E16.13065
G1 X104.722 Y122.845 E16.23879
G1 F1273.9 X102.251 Y121.523 E16.34855
G1 X100.08 Y119.719 E16.45909
G1 F1271.2 X98.319 Y117.507 E16.57006
G1 F1268.5 X97.062 Y115.045 E16.67878
G1 X96.339 Y112.492 E16.78314
G1 F1271.2 X96.117 Y110.06 E16.87899
G1 F1276.6 X96.117 Y109.941 E16.88364
G1 F1273.9 X96.366 Y107.362 E16.98511
G1 F1271.2 X97.156 Y104.721 E17.0933
G1 F1273.9 X98.477 Y102.251 E17.203
G1 X100.281 Y100.08 E17.31355
G1 F1271.2 X102.496 Y98.315 E17.4247
G1 X104.952 Y97.063 E17.5329
