;FLAVOR:Marlin
;TIME:4942
;Filament used: 4.71324m
;Layer height: 0.28
;MINX:49
;MINY:49
;MINZ:0.28
;MAXX:171
;MAXY:171
;MAXZ:9.52
;Generated with Cura_SteamEngine 5.2.0
M82 ;absolute extrusion mode
; Ender 3 S1 Start G-code
G92 E0 ; Reset Extruder
G28 ; Home all axes
G1 Z10.0 F3000 ; Move Z Axis up little to prevent scratching of Heat Bed
G1 X0 Y0

M104 S200
M190 S60
M109 S200

G1 X0.1 Y20 Z0.3 F5000.0 ; Move to start position
G1 X0.1 Y200.0 Z0.3 F1500.0 E15 ; Draw the first line
G1 X0.4 Y200.0 Z0.3 F5000.0 ; Move to side a little
G1 X0.4 Y20 Z0.3 F1500.0 E30 ; Draw the second line
G92 E0 ; Reset Extruder
G1 Z2.0 F3000 ; Move Z Axis up little to prevent scratching of Heat Bed
G1 X5 Y20 Z0.3 F5000.0 ; Move over to prevent blob squish

G92 E0
G92 E0
G1 F2400 E-0.8
;LAYER_COUNT:34
;LAYER:0
M107
M204 S2000
G0 F7500 X52.198 Y52.264 Z0.28
M204 S500
;TYPE:SKIRT
G1 F2400 E0
G1 F1500 X52.886 Y51.627 E0.04366
G1 X53.626 Y51.051 E0.08732
G1 X54.412 Y50.539 E0.131
G1 X55.239 Y50.097 E0.17467
G1 X56.101 Y49.727 E0.21835
G1 X56.991 Y49.431 E0.26202
G1 X57.903 Y49.213 E0.30568
G1 X58.83 Y49.072 E0.34935
G1 X59.701 Y49.013 E0.39
G1 X60.33 Y49 E0.41929
G1 X159.451 Y49.001 E5.03478
G1 X160.149 Y49.011 E5.06729
G1 X161.085 Y49.065 E5.11094
G1 X162.013 Y49.197 E5.15459
G1 X162.927 Y49.409 E5.19828
G1 X163.819 Y49.698 E5.24194
G1 X164.684 Y50.061 E5.28562
G1 X165.514 Y50.497 E5.32928
G1 X166.305 Y51.002 E5.37297
G1 X167.049 Y51.573 E5.41665
G1 X167.742 Y52.205 E5.46032
G1 X168.379 Y52.893 E5.50398
G1 X168.954 Y53.634 E5.54765
G1 X169.465 Y54.42 E5.59131
G1 X169.907 Y55.248 E5.63501
G1 X170.276 Y56.11 E5.67867
G1 X170.571 Y57 E5.72233
G1 X170.789 Y57.912 E5.76599
G1 X170.929 Y58.84 E5.80969
G1 X170.987 Y59.701 E5.84988
G1 X171 Y60.33 E5.87917
G1 X170.999 Y159.4 E10.49229
G1 X170.99 Y160.127 E10.52614
G1 X170.939 Y161.064 E10.56984
G1 X170.807 Y161.992 E10.61348
G1 X170.598 Y162.906 E10.65714
G1 X170.311 Y163.799 E10.70082
G1 X169.949 Y164.665 E10.74452
G1 X169.515 Y165.496 E10.78818
G1 X169.011 Y166.287 E10.83185
G1 X168.442 Y167.032 E10.8755
G1 X167.811 Y167.727 E10.91921
G1 X167.124 Y168.365 E10.96287
G1 X166.385 Y168.942 E11.00653
G1 X165.599 Y169.454 E11.05021
G1 X164.773 Y169.897 E11.09385
G1 X163.911 Y170.269 E11.13757
G1 X163.022 Y170.565 E11.1812
G1 X162.11 Y170.785 E11.22488
G1 X161.183 Y170.926 E11.26854
G1 X160.299 Y170.987 E11.3098
G1 X159.67 Y171 E11.3391
G1 X60.565 Y170.999 E15.95384
G1 X59.867 Y170.99 E15.98635
G1 X58.931 Y170.938 E16.03
G1 X58.002 Y170.806 E16.07369
G1 X57.088 Y170.596 E16.11736
G1 X56.195 Y170.309 E16.16104
G1 X55.33 Y169.946 E16.20472
G1 X54.499 Y169.512 E16.24837
G1 X53.708 Y169.008 E16.29204
G1 X52.963 Y168.438 E16.33572
G1 X52.269 Y167.807 E16.3794
G1 X51.632 Y167.12 E16.42302
G1 X51.055 Y166.38 E16.46672
G1 X50.543 Y165.594 E16.5104
G1 X50.1 Y164.767 E16.55408
G1 X49.729 Y163.906 E16.59774
G1 X49.433 Y163.016 E16.64141
G1 X49.214 Y162.104 E16.68509
G1 X49.073 Y161.177 E16.72875
G1 X49.013 Y160.288 E16.77024
G1 X49 Y159.658 E16.79958
G1 X49.001 Y60.525 E21.41563
G1 X49.01 Y59.86 E21.4466
G1 X49.063 Y58.924 E21.49025
G1 X49.195 Y57.995 E21.53394
G1 X49.406 Y57.081 E21.57762
G1 X49.694 Y56.189 E21.62127
G1 X50.057 Y55.324 E21.66495
G1 X50.492 Y54.493 E21.70862
G1 X50.996 Y53.703 E21.75226
G1 X51.566 Y52.958 E21.79594
G1 X52.198 Y52.264 E21.83965
M204 S2000
G0 F7500 X52.589 Y52.439
M204 S500
G1 F1500 X53.274 Y51.823 E21.88254
G1 X54.01 Y51.27 E21.92541
G1 X54.791 Y50.782 E21.96829
G1 X55.611 Y50.364 E22.01115
G1 X56.465 Y50.019 E22.05404
G1 X57.345 Y49.749 E22.0969
G1 X58.245 Y49.557 E22.13975
G1 X59.159 Y49.443 E22.18264
G1 X59.712 Y49.413 E22.20843
G1 X60.33 Y49.4 E22.23721
G1 X159.445 Y49.401 E26.85242
G1 X160.143 Y49.411 E26.88492
G1 X161.062 Y49.464 E26.92779
G1 X161.973 Y49.597 E26.97066
G1 X162.869 Y49.808 E27.01352
G1 X163.743 Y50.096 E27.05637
G1 X164.59 Y50.459 E27.09928
G1 X165.401 Y50.894 E27.14213
G1 X166.171 Y51.398 E27.18498
G1 X166.895 Y51.967 E27.22786
G1 X167.567 Y52.597 E27.27075
G1 X168.182 Y53.282 E27.31362
G1 X168.735 Y54.018 E27.35649
G1 X169.222 Y54.799 E27.39934
G1 X169.639 Y55.62 E27.44222
G1 X169.984 Y56.474 E27.48511
G1 X170.253 Y57.354 E27.52796
G1 X170.445 Y58.255 E27.57086
G1 X170.558 Y59.168 E27.61369
G1 X170.587 Y59.712 E27.63906
G1 X170.6 Y60.33 E27.66784
G1 X170.599 Y159.395 E32.28072
G1 X170.59 Y160.122 E32.31458
G1 X170.539 Y161.041 E32.35744
G1 X170.408 Y161.953 E32.40034
G1 X170.198 Y162.849 E32.44319
G1 X169.912 Y163.724 E32.48606
G1 X169.551 Y164.571 E32.52893
G1 X169.117 Y165.383 E32.5718
G1 X168.615 Y166.155 E32.61468
G1 X168.047 Y166.88 E32.65757
G1 X167.419 Y167.553 E32.70043
G1 X166.735 Y168.169 E32.74329
G1 X166 Y168.723 E32.78615
G1 X165.22 Y169.212 E32.82902
G1 X164.4 Y169.631 E32.87189
G1 X163.547 Y169.977 E32.91476
G1 X162.667 Y170.248 E32.95763
G1 X161.767 Y170.441 E33.00049
G1 X160.853 Y170.556 E33.04339
G1 X160.288 Y170.587 E33.06974
G1 X159.67 Y170.6 E33.09852
G1 X60.57 Y170.599 E37.71303
G1 X59.872 Y170.59 E37.74553
G1 X58.953 Y170.538 E37.7884
G1 X58.042 Y170.407 E37.83125
G1 X57.146 Y170.197 E37.8741
G1 X56.271 Y169.91 E37.91698
G1 X55.424 Y169.548 E37.95987
G1 X54.612 Y169.114 E38.00275
G1 X53.841 Y168.612 E38.04559
G1 X53.116 Y168.044 E38.08847
G1 X52.443 Y167.415 E38.13137
G1 X51.828 Y166.731 E38.1742
G1 X51.274 Y165.996 E38.21706
G1 X50.786 Y165.215 E38.25994
G1 X50.367 Y164.395 E38.30282
G1 X50.021 Y163.542 E38.34568
G1 X49.751 Y162.662 E38.38854
G1 X49.558 Y161.761 E38.43145
G1 X49.444 Y160.848 E38.47429
G1 X49.413 Y160.277 E38.50092
G1 X49.4 Y159.658 E38.52975
G1 X49.401 Y60.531 E43.14551
G1 X49.41 Y59.866 E43.17648
G1 X49.462 Y58.946 E43.21939
G1 X49.594 Y58.035 E43.26225
G1 X49.805 Y57.139 E43.30512
G1 X50.092 Y56.264 E43.348
G1 X50.455 Y55.418 E43.39086
G1 X50.889 Y54.606 E43.43373
G1 X51.392 Y53.835 E43.4766
G1 X51.961 Y53.111 E43.51948
G1 X52.589 Y52.439 E43.56231
M204 S2000
G0 F7500 X52.981 Y52.617
M204 S500
G1 F1500 X53.662 Y52.024 E43.60435
G1 X54.394 Y51.494 E43.64643
G1 X55.169 Y51.031 E43.68847
G1 X55.982 Y50.638 E43.73052
G1 X56.827 Y50.318 E43.77259
G1 X57.696 Y50.075 E43.81461
G1 X58.584 Y49.909 E43.85667
G1 X59.723 Y49.813 E43.9099
G1 X60.33 Y49.8 E43.93817
G1 X159.439 Y49.801 E48.5531
G1 X160.137 Y49.811 E48.58561
G1 X161.039 Y49.864 E48.62768
G1 X161.932 Y49.996 E48.66971
G1 X162.81 Y50.207 E48.71176
G1 X163.666 Y50.495 E48.75381
G1 X164.493 Y50.857 E48.79585
G1 X165.285 Y51.292 E48.83793
G1 X166.036 Y51.794 E48.87999
G1 X166.739 Y52.361 E48.92204
G1 X167.389 Y52.988 E48.9641
G1 X167.981 Y53.67 E49.00615
G1 X168.511 Y54.401 E49.04819
G1 X168.973 Y55.177 E49.09024
G1 X169.366 Y55.99 E49.13229
G1 X169.684 Y56.835 E49.17433
G1 X169.927 Y57.705 E49.21639
G1 X170.092 Y58.593 E49.25845
G1 X170.187 Y59.723 E49.31125
G1 X170.2 Y60.33 E49.33953
G1 X170.199 Y159.39 E53.95217
G1 X170.19 Y160.117 E53.98603
G1 X170.139 Y161.019 E54.0281
G1 X170.008 Y161.913 E54.07017
G1 X169.799 Y162.791 E54.1122
G1 X169.513 Y163.648 E54.15426
G1 X169.152 Y164.476 E54.19632
G1 X168.72 Y165.268 E54.23833
G1 X168.219 Y166.02 E54.28041
G1 X167.653 Y166.724 E54.32247
G1 X167.028 Y167.375 E54.36449
G1 X166.347 Y167.969 E54.40657
G1 X165.616 Y168.5 E54.44864
G1 X164.842 Y168.964 E54.49066
G1 X164.029 Y169.358 E54.53273
G1 X163.185 Y169.678 E54.57476
G1 X162.315 Y169.923 E54.61685
G1 X161.428 Y170.089 E54.65887
G1 X160.277 Y170.187 E54.71266
G1 X159.67 Y170.2 E54.74093
G1 X60.575 Y170.199 E59.35521
G1 X59.877 Y170.19 E59.38771
G1 X58.976 Y170.139 E59.42973
G1 X58.082 Y170.007 E59.47181
G1 X57.204 Y169.798 E59.51384
G1 X56.347 Y169.511 E59.55592
G1 X55.52 Y169.15 E59.59794
G1 X54.727 Y168.717 E59.64001
G1 X53.976 Y168.216 E59.68205
G1 X53.272 Y167.65 E59.72411
G1 X52.621 Y167.024 E59.76616
G1 X52.028 Y166.343 E59.80821
G1 X51.498 Y165.612 E59.85025
G1 X51.034 Y164.837 E59.89231
G1 X50.64 Y164.024 E59.93438
G1 X50.32 Y163.18 E59.97641
G1 X50.076 Y162.31 E60.01849
G1 X49.91 Y161.422 E60.06055
G1 X49.813 Y160.267 E60.11452
G1 X49.8 Y159.658 E60.14289
G1 X49.801 Y60.536 E64.75842
G1 X49.81 Y59.871 E64.78939
G1 X49.862 Y58.969 E64.83146
G1 X49.994 Y58.076 E64.87349
G1 X50.204 Y57.198 E64.91553
G1 X50.491 Y56.341 E64.95762
G1 X50.853 Y55.514 E64.99965
G1 X51.286 Y54.722 E65.04168
G1 X51.788 Y53.971 E65.08374
G1 X52.355 Y53.267 E65.12584
G1 X52.981 Y52.617 E65.16786
M204 S2000
G1 F2400 E64.36786
;MESH:cylinder_assembly_jig.stl
G0 F7500 X60.42 Y59.335
G0 X60.601 Y159.399
M204 S500
;TYPE:WALL-INNER
G1 F2400 E65.16786
G1 F1500 X159.4 Y159.4 E69.76835
G1 X159.4 Y60.6 E74.36889
G1 X60.601 Y60.601 E78.96939
G1 X60.601 Y159.399 E83.56984
M204 S2000
G0 F7500 X60.201 Y159.799
M204 S500
;TYPE:WALL-OUTER
G1 F1500 X159.8 Y159.8 E88.20758
G1 X159.8 Y60.2 E92.84538
G1 X60.201 Y60.201 E97.48312
G1 X60.201 Y159.799 E102.12082
M204 S2000
G1 F2400 E101.32082
G0 F7500 X60.47 Y159.53
G0 X151.903 Y159.58
G0 X151.825 Y152.606
G0 X151.903 Y152.425
M204 S500
;TYPE:WALL-INNER
G1 F2400 E102.12082
G1 F1500 X68.09 Y152.425 E106.02351
G1 X67.834 Y152.32 E106.03639
G1 X67.68 Y152.165 E106.04657
G1 X67.575 Y151.903 E106.05971
G1 X67.575 Y68.175 E109.95844
G1 X67.68 Y67.834 E109.97505
G1 X67.835 Y67.68 E109.98522
G1 X68.097 Y67.575 E109.99837
G1 X151.91 Y67.575 E113.90105
G1 X152.166 Y67.68 E113.91394
G1 X152.32 Y67.834 E113.92408
G1 X152.426 Y68.081 E113.93659
G1 X152.426 Y151.899 E117.83951
G1 X152.376 Y152.064 E117.84754
G1 X152.25 Y152.25 E117.858
G1 X152.064 Y152.376 E117.86846
G1 X151.903 Y152.425 E117.8763
M204 S2000
G1 F2400 E117.0763
G0 F7500 X67.747 Y152.253
G0 X67.675 Y151.967
G1 F2400 E117.8763
G0 F7500 X68.033 Y151.967
M204 S500
;TYPE:WALL-OUTER
G1 F1500 X67.977 Y151.86 E117.88192
G1 X67.975 Y68.175 E121.77864
G1 X68.033 Y68.033 E121.78579
G1 X68.14 Y67.977 E121.79141
G1 X151.866 Y67.979 E125.69004
G1 X151.967 Y68.033 E125.69538
G1 X152.026 Y68.175 E125.70254
G1 X152.023 Y151.86 E129.59926
G1 X151.967 Y151.967 E129.60488
G1 X151.86 Y152.023 E129.61051
G1 X68.134 Y152.021 E133.50914
G1 X68.033 Y151.967 E133.51447
M204 S2000
G0 F7500 X68.015 Y152.781
M204 S500
;TYPE:SKIN
G1 F1500 X67.635 Y152.62 E133.53369
G1 X67.375 Y152.366 E133.55062
G1 X67.217 Y151.97 E133.57047
G1 X67.215 Y68.056 E137.47786
G1 X67.23 Y67.977 E137.4816
G1 X67.379 Y67.636 E137.49893
G1 X67.635 Y67.375 E137.51595
G1 X68.033 Y67.217 E137.53589
G1 X151.985 Y67.219 E141.44505
G1 X152.365 Y67.38 E141.46427
G1 X152.621 Y67.635 E141.48109
G1 X152.782 Y68.014 E141.50027
G1 X152.784 Y151.991 E145.41059
G1 X152.621 Y152.364 E145.42954
G1 X152.365 Y152.625 E145.44656
G1 X151.967 Y152.783 E145.4665
G1 X68.015 Y152.781 E149.37566
M204 S2000
G1 F2400 E148.57566
G0 F7500 X68.041 Y152.512
G0 X67.623 Y152.377
G0 X60.801 Y155.211
G0 X60.962 Y159.038
M204 S500
G1 F2400 E149.37566
G1 F1500 X159.04 Y159.04 E153.94258
G1 X159.04 Y60.96 E158.5096
G1 X60.962 Y60.962 E163.07652
G1 X60.962 Y159.038 E167.64335
M204 S2000
G0 F7500 X61.539 Y158.837
M204 S500
G1 F1500 X61.161 Y158.459 E167.66824
M204 S2000
G0 F7500 X61.161 Y157.894
M204 S500
G1 F1500 X62.105 Y158.837 E167.73037
M204 S2000
G0 F7500 X62.67 Y158.837
M204 S500
G1 F1500 X61.161 Y157.328 E167.82974
M204 S2000
G0 F7500 X61.161 Y156.762
M204 S500
G1 F1500 X63.236 Y158.837 E167.96639
M204 S2000
G0 F7500 X63.802 Y158.837
M204 S500
G1 F1500 X61.161 Y156.197 E168.14027
M204 S2000
G0 F7500 X61.161 Y155.631
M204 S500
G1 F1500 X64.367 Y158.837 E168.35139
M204 S2000
G0 F7500 X64.933 Y158.837
M204 S500
G1 F1500 X61.161 Y155.065 E168.59978
M204 S2000
G0 F7500 X61.161 Y154.5
M204 S500
G1 F1500 X65.499 Y158.837 E168.88541
M204 S2000
G0 F7500 X66.064 Y158.837
M204 S500
G1 F1500 X61.161 Y153.934 E169.20828
M204 S2000
G0 F7500 X61.161 Y153.368
M204 S500
G1 F1500 X66.63 Y158.837 E169.56843
M204 S2000
G0 F7500 X67.196 Y158.837
M204 S500
G1 F1500 X61.161 Y152.802 E169.96584
M204 S2000
G0 F7500 X61.161 Y152.237
M204 S500
G1 F1500 X67.762 Y158.837 E170.4005
M204 S2000
G0 F7500 X68.327 Y158.837
M204 S500
G1 F1500 X61.161 Y151.671 E170.87239
M204 S2000
G0 F7500 X61.161 Y151.105
M204 S500
G1 F1500 X68.893 Y158.837 E171.38155
M204 S2000
G0 F7500 X69.459 Y158.837
M204 S500
G1 F1500 X61.161 Y150.54 E171.92796
M204 S2000
G0 F7500 X61.161 Y149.974
M204 S500
G1 F1500 X70.024 Y158.837 E172.5116
M204 S2000
G0 F7500 X70.59 Y158.837
M204 S500
G1 F1500 X61.161 Y149.408 E173.13252
M204 S2000
G0 F7500 X61.161 Y148.843
M204 S500
G1 F1500 X71.156 Y158.837 E173.79067
M204 S2000
G0 F7500 X71.721 Y158.837
M204 S500
G1 F1500 X61.161 Y148.277 E174.48607
M204 S2000
G0 F7500 X61.161 Y147.711
M204 S500
G1 F1500 X72.287 Y158.837 E175.21873
M204 S2000
G0 F7500 X72.853 Y158.837
M204 S500
G1 F1500 X61.161 Y147.146 E175.98864
M204 S2000
G0 F7500 X61.161 Y146.58
M204 S500
G1 F1500 X73.418 Y158.837 E176.79578
M204 S2000
G0 F7500 X73.984 Y158.837
M204 S500
G1 F1500 X68.131 Y152.984 E177.18121
M204 S2000
G0 F7500 X68.697 Y152.984
M204 S500
G1 F1500 X74.55 Y158.837 E177.56664
M204 S2000
G0 F7500 X75.115 Y158.837
M204 S500
G1 F1500 X69.263 Y152.984 E177.95204
M204 S2000
G0 F7500 X69.828 Y152.984
M204 S500
G1 F1500 X75.681 Y158.837 E178.33747
M204 S2000
G0 F7500 X76.247 Y158.837
M204 S500
G1 F1500 X70.394 Y152.984 E178.7229
M204 S2000
G0 F7500 X70.96 Y152.984
M204 S500
G1 F1500 X76.813 Y158.837 E179.10833
M204 S2000
G0 F7500 X77.378 Y158.837
M204 S500
G1 F1500 X71.525 Y152.984 E179.49376
M204 S2000
G0 F7500 X72.091 Y152.984
M204 S500
G1 F1500 X77.944 Y158.837 E179.87919
M204 S2000
G0 F7500 X78.51 Y158.837
M204 S500
G1 F1500 X72.657 Y152.984 E180.26462
M204 S2000
G0 F7500 X73.223 Y152.984
M204 S500
G1 F1500 X79.075 Y158.837 E180.65002
M204 S2000
G0 F7500 X79.641 Y158.837
M204 S500
G1 F1500 X73.788 Y152.984 E181.03545
M204 S2000
G0 F7500 X74.354 Y152.984
M204 S500
G1 F1500 X80.207 Y158.837 E181.42088
M204 S2000
G0 F7500 X80.772 Y158.837
M204 S500
G1 F1500 X74.92 Y152.984 E181.80627
M204 S2000
G0 F7500 X75.485 Y152.984
M204 S500
G1 F1500 X81.338 Y158.837 E182.1917
M204 S2000
G0 F7500 X81.904 Y158.837
M204 S500
G1 F1500 X76.051 Y152.984 E182.57714
M204 S2000
G0 F7500 X76.617 Y152.984
M204 S500
G1 F1500 X82.469 Y158.837 E182.96253
M204 S2000
G0 F7500 X83.035 Y158.837
M204 S500
G1 F1500 X77.182 Y152.984 E183.34796
M204 S2000
G0 F7500 X77.748 Y152.984
M204 S500
G1 F1500 X83.601 Y158.837 E183.73339
M204 S2000
G0 F7500 X84.166 Y158.837
M204 S500
G1 F1500 X78.314 Y152.984 E184.11879
M204 S2000
G0 F7500 X78.879 Y152.984
M204 S500
G1 F1500 X84.732 Y158.837 E184.50422
M204 S2000
G0 F7500 X85.298 Y158.837
M204 S500
G1 F1500 X79.445 Y152.984 E184.88965
M204 S2000
G0 F7500 X80.01 Y152.983
M204 S500
G1 F1500 X85.863 Y158.837 E185.27511
M204 S2000
G0 F7500 X86.429 Y158.837
M204 S500
G1 F1500 X80.576 Y152.983 E185.66058
M204 S2000
G0 F7500 X81.141 Y152.983
M204 S500
G1 F1500 X86.995 Y158.837 E186.04607
M204 S2000
G0 F7500 X87.561 Y158.837
M204 S500
G1 F1500 X81.707 Y152.983 E186.43157
M204 S2000
G0 F7500 X82.273 Y152.983
M204 S500
G1 F1500 X88.126 Y158.837 E186.81703
M204 S2000
G0 F7500 X88.692 Y158.837
M204 S500
G1 F1500 X82.838 Y152.983 E187.20253
M204 S2000
G0 F7500 X83.404 Y152.983
M204 S500
G1 F1500 X89.258 Y158.837 E187.58802
M204 S2000
G0 F7500 X89.823 Y158.837
M204 S500
G1 F1500 X83.97 Y152.983 E187.97348
M204 S2000
G0 F7500 X84.536 Y152.983
M204 S500
G1 F1500 X90.389 Y158.837 E188.35895
M204 S2000
G0 F7500 X90.955 Y158.837
M204 S500
G1 F1500 X85.101 Y152.983 E188.74444
M204 S2000
G0 F7500 X85.667 Y152.983
M204 S500
G1 F1500 X91.52 Y158.837 E189.12991
M204 S2000
G0 F7500 X92.086 Y158.837
M204 S500
G1 F1500 X86.233 Y152.983 E189.51537
M204 S2000
G0 F7500 X86.798 Y152.983
M204 S500
G1 F1500 X92.652 Y158.837 E189.90087
M204 S2000
G0 F7500 X93.217 Y158.837
M204 S500
G1 F1500 X87.364 Y152.983 E190.28633
M204 S2000
G0 F7500 X87.93 Y152.983
M204 S500
G1 F1500 X93.784 Y158.838 E190.67186
M204 S2000
G0 F7500 X94.349 Y158.838
M204 S500
G1 F1500 X88.495 Y152.983 E191.05739
M204 S2000
G0 F7500 X89.061 Y152.983
M204 S500
G1 F1500 X94.915 Y158.838 E191.44292
M204 S2000
G0 F7500 X95.481 Y158.838
M204 S500
G1 F1500 X89.627 Y152.983 E191.82844
M204 S2000
G0 F7500 X90.192 Y152.983
M204 S500
G1 F1500 X96.047 Y158.838 E192.21401
M204 S2000
