;FLAVOR:Marlin
;TIME:7115
;Filament used: 7.29742m
;Layer height: 0.28
;MINX:49
;MINY:49
;MINZ:0.28
;MAXX:171
;MAXY:171
;MAXZ:19.88
;Generated with Cura_SteamEngine 5.2.0
M82 ;absolute extrusion mode
; Ender 3 S1 Start G-code
G92 E0 ; Reset Extruder
G28 ; Home all axes
G1 Z10.0 F3000 ; Move Z Axis up little to prevent scratching of Heat Bed
G1 X0 Y0

M104 S200
M190 S60
M109 S200

G1 X0.1 Y20 Z0.3 F5000.0 ; Move to start position
G1 X0.1 Y200.0 Z0.3 F1500.0 E15 ; Draw the first line
G1 X0.4 Y200.0 Z0.3 F5000.0 ; Move to side a little
G1 X0.4 Y20 Z0.3 F1500.0 E30 ; Draw the second line
G92 E0 ; Reset Extruder
G1 Z2.0 F3000 ; Move Z Axis up little to prevent scratching of Heat Bed
G1 X5 Y20 Z0.3 F5000.0 ; Move over to prevent blob squish

G92 E0
G92 E0
G1 F2400 E-0.8
;LAYER_COUNT:71
;LAYER:0
M107
M204 S2000
G0 F7500 X52.198 Y52.264 Z0.28
M204 S500
;TYPE:SKIRT
G1 F2400 E0
G1 F1500 X52.886 Y51.627 E0.04366
G1 X53.626 Y51.051 E0.08732
G1 X54.412 Y50.539 E0.131
G1 X55.239 Y50.097 E0.17467
G1 X56.101 Y49.727 E0.21835
G1 X56.991 Y49.431 E0.26202
G1 X57.903 Y49.213 E0.30568
G1 X58.83 Y49.072 E0.34935
G1 X59.701 Y49.013 E0.39
G1 X60.33 Y49 E0.41929
G1 X159.451 Y49.001 E5.03478
G1 X160.149 Y49.011 E5.06729
G1 X161.085 Y49.065 E5.11094
G1 X162.013 Y49.197 E5.15459
G1 X162.927 Y49.409 E5.19828
G1 X163.819 Y49.698 E5.24194
G1 X164.684 Y50.061 E5.28562
G1 X165.514 Y50.497 E5.32928
G1 X166.305 Y51.002 E5.37297
G1 X167.049 Y51.573 E5.41665
G1 X167.742 Y52.205 E5.46032
G1 X168.379 Y52.893 E5.50398
G1 X168.954 Y53.634 E5.54765
G1 X169.465 Y54.42 E5.59131
G1 X169.907 Y55.248 E5.63501
G1 X170.276 Y56.11 E5.67867
G1 X170.571 Y57 E5.72233
G1 X170.789 Y57.912 E5.76599
G1 X170.929 Y58.84 E5.80969
G1 X170.987 Y59.701 E5.84988
G1 X171 Y60.33 E5.87917
G1 X170.999 Y159.4 E10.49229
G1 X170.99 Y160.127 E10.52614
G1 X170.939 Y161.064 E10.56984
G1 X170.807 Y161.992 E10.61348
G1 X170.598 Y162.906 E10.65714
G1 X170.311 Y163.799 E10.70082
G1 X169.949 Y164.665 E10.74452
G1 X169.515 Y165.496 E10.78818
G1 X169.011 Y166.287 E10.83185
G1 X168.442 Y167.032 E10.8755
G1 X167.811 Y167.727 E10.91921
G1 X167.124 Y168.365 E10.96287
G1 X166.385 Y168.942 E11.00653
G1 X165.599 Y169.454 E11.05021
G1 X164.773 Y169.897 E11.09385
G1 X163.911 Y170.269 E11.13757
G1 X163.022 Y170.565 E11.1812
G1 X162.11 Y170.785 E11.22488
G1 X161.183 Y170.926 E11.26854
G1 X160.299 Y170.987 E11.3098
G1 X159.67 Y171 E11.3391
G1 X60.565 Y170.999 E15.95384
G1 X59.867 Y170.99 E15.98635
G1 X58.931 Y170.938 E16.03
G1 X58.002 Y170.806 E16.07369
G1 X57.088 Y170.596 E16.11736
G1 X56.195 Y170.309 E16.16104
G1 X55.33 Y169.946 E16.20472
G1 X54.499 Y169.512 E16.24837
G1 X53.708 Y169.008 E16.29204
G1 X52.963 Y168.438 E16.33572
G1 X52.269 Y167.807 E16.3794
G1 X51.632 Y167.12 E16.42302
G1 X51.055 Y166.38 E16.46672
G1 X50.543 Y165.594 E16.5104
G1 X50.1 Y164.767 E16.55408
G1 X49.729 Y163.906 E16.59774
G1 X49.433 Y163.016 E16.64141
G1 X49.214 Y162.104 E16.68509
G1 X49.073 Y161.177 E16.72875
G1 X49.013 Y160.288 E16.77024
G1 X49 Y159.658 E16.79958
G1 X49.001 Y60.525 E21.41563
G1 X49.01 Y59.86 E21.4466
G1 X49.063 Y58.924 E21.49025
G1 X49.195 Y57.995 E21.53394
G1 X49.406 Y57.081 E21.57762
G1 X49.694 Y56.189 E21.62127
G1 X50.057 Y55.324 E21.66495
G1 X50.492 Y54.493 E21.70862
G1 X50.996 Y53.703 E21.75226
G1 X51.566 Y52.958 E21.79594
G1 X52.198 Y52.264 E21.83965
M204 S2000
G0 F7500 X52.589 Y52.439
M204 S500
G1 F1500 X53.274 Y51.823 E21.88254
G1 X54.01 Y51.27 E21.92541
G1 X54.791 Y50.782 E21.96829
G1 X55.611 Y50.364 E22.01115
G1 X56.465 Y50.019 E22.05404
G1 X57.345 Y49.749 E22.0969
G1 X58.245 Y49.557 E22.13975
G1 X59.159 Y49.443 E22.18264
G1 X59.712 Y49.413 E22.20843
G1 X60.33 Y49.4 E22.23721
G1 X159.445 Y49.401 E26.85242
G1 X160.143 Y49.411 E26.88492
G1 X161.062 Y49.464 E26.92779
G1 X161.973 Y49.597 E26.97066
G1 X162.869 Y49.808 E27.01352
G1 X163.743 Y50.096 E27.05637
G1 X164.59 Y50.459 E27.09928
G1 X165.401 Y50.894 E27.14213
G1 X166.171 Y51.398 E27.18498
G1 X166.895 Y51.967 E27.22786
G1 X167.567 Y52.597 E27.27075
G1 X168.182 Y53.282 E27.31362
G1 X168.735 Y54.018 E27.35649
G1 X169.222 Y54.799 E27.39934
G1 X169.639 Y55.62 E27.44222
G1 X169.984 Y56.474 E27.48511
G1 X170.253 Y57.354 E27.52796
G1 X170.445 Y58.255 E27.57086
G1 X170.558 Y59.168 E27.61369
G1 X170.587 Y59.712 E27.63906
G1 X170.6 Y60.33 E27.66784
G1 X170.599 Y159.395 E32.28072
G1 X170.59 Y160.122 E32.31458
G1 X170.539 Y161.041 E32.35744
G1 X170.408 Y161.953 E32.40034
G1 X170.198 Y162.849 E32.44319
G1 X169.912 Y163.724 E32.48606
G1 X169.551 Y164.571 E32.52893
G1 X169.117 Y165.383 E32.5718
G1 X168.615 Y166.155 E32.61468
G1 X168.047 Y166.88 E32.65757
G1 X167.419 Y167.553 E32.70043
G1 X166.735 Y168.169 E32.74329
G1 X166 Y168.723 E32.78615
G1 X165.22 Y169.212 E32.82902
G1 X164.4 Y169.631 E32.87189
G1 X163.547 Y169.977 E32.91476
G1 X162.667 Y170.248 E32.95763
G1 X161.767 Y170.441 E33.00049
G1 X160.853 Y170.556 E33.04339
G1 X160.288 Y170.587 E33.06974
G1 X159.67 Y170.6 E33.09852
G1 X60.57 Y170.599 E37.71303
G1 X59.872 Y170.59 E37.74553
G1 X58.953 Y170.538 E37.7884
G1 X58.042 Y170.407 E37.83125
G1 X57.146 Y170.197 E37.8741
G1 X56.271 Y169.91 E37.91698
G1 X55.424 Y169.548 E37.95987
G1 X54.612 Y169.114 E38.00275
G1 X53.841 Y168.612 E38.04559
G1 X53.116 Y168.044 E38.08847
G1 X52.443 Y167.415 E38.13137
G1 X51.828 Y166.731 E38.1742
G1 X51.274 Y165.996 E38.21706
G1 X50.786 Y165.215 E38.25994
G1 X50.367 Y164.395 E38.30282
G1 X50.021 Y163.542 E38.34568
G1 X49.751 Y162.662 E38.38854
G1 X49.558 Y161.761 E38.43145
G1 X49.444 Y160.848 E38.47429
G1 X49.413 Y160.277 E38.50092
G1 X49.4 Y159.658 E38.52975
G1 X49.401 Y60.531 E43.14551
G1 X49.41 Y59.866 E43.17648
G1 X49.462 Y58.946 E43.21939
G1 X49.594 Y58.035 E43.26225
G1 X49.805 Y57.139 E43.30512
G1 X50.092 Y56.264 E43.348
G1 X50.455 Y55.418 E43.39086
G1 X50.889 Y54.606 E43.43373
G1 X51.392 Y53.835 E43.4766
G1 X51.961 Y53.111 E43.51948
G1 X52.589 Y52.439 E43.56231
M204 S2000
G0 F7500 X52.981 Y52.617
M204 S500
G1 F1500 X53.662 Y52.024 E43.60435
G1 X54.394 Y51.494 E43.64643
G1 X55.169 Y51.031 E43.68847
G1 X55.982 Y50.638 E43.73052
G1 X56.827 Y50.318 E43.77259
G1 X57.696 Y50.075 E43.81461
G1 X58.584 Y49.909 E43.85667
G1 X59.723 Y49.813 E43.9099
G1 X60.33 Y49.8 E43.93817
G1 X159.439 Y49.801 E48.5531
G1 X160.137 Y49.811 E48.58561
G1 X161.039 Y49.864 E48.62768
G1 X161.932 Y49.996 E48.66971
G1 X162.81 Y50.207 E48.71176
G1 X163.666 Y50.495 E48.75381
G1 X164.493 Y50.857 E48.79585
G1 X165.285 Y51.292 E48.83793
G1 X166.036 Y51.794 E48.87999
G1 X166.739 Y52.361 E48.92204
G1 X167.389 Y52.988 E48.9641
G1 X167.981 Y53.67 E49.00615
G1 X168.511 Y54.401 E49.04819
G1 X168.973 Y55.177 E49.09024
G1 X169.366 Y55.99 E49.13229
G1 X169.684 Y56.835 E49.17433
G1 X169.927 Y57.705 E49.21639
G1 X170.092 Y58.593 E49.25845
G1 X170.187 Y59.723 E49.31125
G1 X170.2 Y60.33 E49.33953
G1 X170.199 Y159.39 E53.95217
G1 X170.19 Y160.117 E53.98603
G1 X170.139 Y161.019 E54.0281
G1 X170.008 Y161.913 E54.07017
G1 X169.799 Y162.791 E54.1122
G1 X169.513 Y163.648 E54.15426
G1 X169.152 Y164.476 E54.19632
G1 X168.72 Y165.268 E54.23833
G1 X168.219 Y166.02 E54.28041
G1 X167.653 Y166.724 E54.32247
G1 X167.028 Y167.375 E54.36449
G1 X166.347 Y167.969 E54.40657
G1 X165.616 Y168.5 E54.44864
G1 X164.842 Y168.964 E54.49066
G1 X164.029 Y169.358 E54.53273
G1 X163.185 Y169.678 E54.57476
G1 X162.315 Y169.923 E54.61685
G1 X161.428 Y170.089 E54.65887
G1 X160.277 Y170.187 E54.71266
G1 X159.67 Y170.2 E54.74093
G1 X60.575 Y170.199 E59.35521
G1 X59.877 Y170.19 E59.38771
G1 X58.976 Y170.139 E59.42973
G1 X58.082 Y170.007 E59.47181
G1 X57.204 Y169.798 E59.51384
G1 X56.347 Y169.511 E59.55592
G1 X55.52 Y169.15 E59.59794
G1 X54.727 Y168.717 E59.64001
G1 X53.976 Y168.216 E59.68205
G1 X53.272 Y167.65 E59.72411
G1 X52.621 Y167.024 E59.76616
G1 X52.028 Y166.343 E59.80821
G1 X51.498 Y165.612 E59.85025
G1 X51.034 Y164.837 E59.89231
G1 X50.64 Y164.024 E59.93438
G1 X50.32 Y163.18 E59.97641
G1 X50.076 Y162.31 E60.01849
G1 X49.91 Y161.422 E60.06055
G1 X49.813 Y160.267 E60.11452
G1 X49.8 Y159.658 E60.14289
G1 X49.801 Y60.536 E64.75842
G1 X49.81 Y59.871 E64.78939
G1 X49.862 Y58.969 E64.83146
G1 X49.994 Y58.076 E64.87349
G1 X50.204 Y57.198 E64.91553
G1 X50.491 Y56.341 E64.95762
G1 X50.853 Y55.514 E64.99965
G1 X51.286 Y54.722 E65.04168
G1 X51.788 Y53.971 E65.08374
G1 X52.355 Y53.267 E65.12584
G1 X52.981 Y52.617 E65.16786
M204 S2000
G1 F2400 E64.36786
;MESH:whole_assembly_jig.stl
G0 F7500 X67.219 Y68
G0 X67.659 Y152.495
M204 S500
;TYPE:WALL-INNER
G1 F2400 E65.16786
G1 F1500 X67.505 Y152.34 E65.17803
G1 X67.4 Y152.078 E65.19117
G1 X67.4 Y68 E69.1062
G1 X67.412 Y67.876 E69.112
G1 X67.505 Y67.659 E69.12299
G1 X67.66 Y67.505 E69.13317
G1 X67.922 Y67.4 E69.14631
G1 X152.087 Y67.4 E73.06538
G1 X152.341 Y67.505 E73.07818
G1 X152.495 Y67.659 E73.08832
G1 X152.6 Y67.904 E73.10074
G1 X152.6 Y152.078 E77.02023
G1 X152.495 Y152.341 E77.03342
G1 X152.34 Y152.495 E77.04359
G1 X152.078 Y152.6 E77.05673
G1 X67.913 Y152.6 E80.97581
G1 X67.659 Y152.495 E80.98861
M204 S2000
G0 F7500 X67.858 Y152.142
M204 S500
;TYPE:WALL-OUTER
G1 F1500 X67.802 Y152.035 E80.99423
G1 X67.8 Y68 E84.90725
G1 X67.858 Y67.858 E84.91439
G1 X67.965 Y67.802 E84.92002
G1 X152.042 Y67.804 E88.83499
G1 X152.142 Y67.858 E88.84029
G1 X152.196 Y67.958 E88.84558
G1 X152.198 Y152.035 E92.76056
G1 X152.142 Y152.142 E92.76618
G1 X152.035 Y152.198 E92.7718
G1 X67.958 Y152.196 E96.68678
G1 X67.858 Y152.142 E96.69207
M204 S2000
G1 F2400 E95.89207
G0 F7500 X67.5 Y152.142
G0 X67.448 Y152.552
G0 X60.8 Y152.552
G0 X60.6 Y159.4
M204 S500
;TYPE:WALL-INNER
G1 F2400 E96.69207
G1 F1500 X159.4 Y159.4 E101.29261
G1 X159.4 Y60.6 E105.89316
G1 X60.6 Y60.6 E110.4937
G1 X60.6 Y159.4 E115.09424
M204 S2000
G0 F7500 X60.2 Y159.8
M204 S500
;TYPE:WALL-OUTER
G1 F1500 X159.8 Y159.8 E119.73203
G1 X159.8 Y60.2 E124.36983
G1 X60.2 Y60.2 E129.00762
G1 X60.2 Y159.8 E133.64541
M204 S2000
G0 F7500 X60.47 Y159.53
G0 X60.7 Y159.039
G0 X60.961 Y159.039
M204 S500
;TYPE:SKIN
G1 F1500 X159.04 Y159.04 E138.21238
G1 X159.04 Y60.96 E142.7794
G1 X60.961 Y60.961 E147.34637
G1 X60.961 Y159.039 E151.91329
M204 S2000
G1 F2400 E151.11329
G0 F7500 X60.7 Y159.039
G0 X60.8 Y152.687
G0 X67.23 Y152.137
G0 X67.84 Y152.956
M204 S500
G1 F2400 E151.91329
G1 F1500 X67.46 Y152.795 E151.93251
G1 X67.2 Y152.541 E151.94943
G1 X67.043 Y152.15 E151.96905
G1 X67.04 Y67.881 E155.89297
G1 X67.055 Y67.803 E155.89667
G1 X67.204 Y67.461 E155.91404
G1 X67.459 Y67.2 E155.93103
G1 X67.854 Y67.043 E155.95082
G1 X152.16 Y67.044 E159.87646
G1 X152.54 Y67.205 E159.89568
G1 X152.796 Y67.461 E159.91254
G1 X152.96 Y67.837 E159.93164
G1 X152.957 Y152.15 E163.8576
G1 X152.8 Y152.54 E163.87718
G1 X152.54 Y152.8 E163.8943
G1 X152.146 Y152.957 E163.91405
G1 X67.84 Y152.956 E167.83969
M204 S2000
G1 F2400 E167.03969
G0 F7500 X67.866 Y152.687
G0 X67.448 Y152.552
G0 X67.448 Y159.2
G0 X61.54 Y158.838
M204 S500
G1 F2400 E167.83969
G1 F1500 X61.16 Y158.458 E167.86471
M204 S2000
G0 F7500 X61.16 Y157.892
M204 S500
G1 F1500 X62.105 Y158.838 E167.92698
M204 S2000
G0 F7500 X62.671 Y158.838
M204 S500
G1 F1500 X61.16 Y157.327 E168.02648
M204 S2000
G0 F7500 X61.16 Y156.761
M204 S500
G1 F1500 X63.237 Y158.838 E168.16325
M204 S2000
G0 F7500 X63.802 Y158.838
M204 S500
G1 F1500 X61.16 Y156.195 E168.33727
M204 S2000
G0 F7500 X61.16 Y155.629
M204 S500
G1 F1500 X64.368 Y158.838 E168.54855
M204 S2000
G0 F7500 X64.934 Y158.838
M204 S500
G1 F1500 X61.16 Y155.064 E168.79708
M204 S2000
G0 F7500 X61.16 Y154.498
M204 S500
G1 F1500 X65.5 Y158.838 E169.08287
M204 S2000
G0 F7500 X66.065 Y158.838
M204 S500
G1 F1500 X61.16 Y153.932 E169.40591
M204 S2000
G0 F7500 X61.16 Y153.367
M204 S500
G1 F1500 X66.631 Y158.838 E169.76618
M204 S2000
G0 F7500 X67.197 Y158.838
M204 S500
G1 F1500 X61.16 Y152.801 E170.16373
M204 S2000
G0 F7500 X61.16 Y152.235
M204 S500
G1 F1500 X67.762 Y158.838 E170.59852
M204 S2000
G0 F7500 X68.328 Y158.838
M204 S500
G1 F1500 X61.16 Y151.67 E171.07054
M204 S2000
G0 F7500 X61.16 Y151.104
M204 S500
G1 F1500 X68.894 Y158.838 E171.57984
M204 S2000
G0 F7500 X69.459 Y158.838
M204 S500
G1 F1500 X61.16 Y150.538 E172.12637
M204 S2000
G0 F7500 X61.16 Y149.973
M204 S500
G1 F1500 X70.025 Y158.838 E172.71015
M204 S2000
G0 F7500 X70.591 Y158.838
M204 S500
G1 F1500 X61.16 Y149.407 E173.3312
M204 S2000
G0 F7500 X61.16 Y148.841
M204 S500
G1 F1500 X71.156 Y158.838 E173.98948
M204 S2000
G0 F7500 X71.722 Y158.838
M204 S500
G1 F1500 X61.16 Y148.276 E174.68501
M204 S2000
G0 F7500 X61.16 Y147.71
M204 S500
G1 F1500 X72.288 Y158.838 E175.41781
M204 S2000
G0 F7500 X72.853 Y158.838
M204 S500
G1 F1500 X61.16 Y147.144 E176.18784
M204 S2000
G0 F7500 X61.16 Y146.578
M204 S500
G1 F1500 X66.888 Y152.307 E176.56507
M204 S2000
G0 F7500 X66.839 Y151.692
M204 S500
G1 F1500 X61.16 Y146.013 E176.93905
M204 S2000
G0 F7500 X61.16 Y145.447
M204 S500
G1 F1500 X66.839 Y151.127 E177.31305
M204 S2000
G0 F7500 X66.839 Y150.561
M204 S500
G1 F1500 X61.16 Y144.881 E177.68706
M204 S2000
G0 F7500 X61.16 Y144.316
M204 S500
G1 F1500 X66.839 Y149.995 E178.06103
M204 S2000
G0 F7500 X66.839 Y149.43
M204 S500
G1 F1500 X61.16 Y143.75 E178.43503
M204 S2000
G0 F7500 X61.16 Y143.184
M204 S500
G1 F1500 X66.839 Y148.864 E178.80904
M204 S2000
G0 F7500 X66.839 Y148.298
M204 S500
G1 F1500 X61.16 Y142.619 E179.18301
M204 S2000
G0 F7500 X61.16 Y142.053
M204 S500
G1 F1500 X66.839 Y147.732 E179.55698
M204 S2000
G0 F7500 X66.839 Y147.167
M204 S500
G1 F1500 X61.16 Y141.487 E179.93099
M204 S2000
G0 F7500 X61.16 Y140.922
M204 S500
G1 F1500 X66.839 Y146.601 E180.30496
M204 S2000
G0 F7500 X66.839 Y146.035
M204 S500
G1 F1500 X61.16 Y140.356 E180.67893
M204 S2000
G0 F7500 X61.16 Y139.79
M204 S500
G1 F1500 X66.839 Y145.47 E181.05293
M204 S2000
G0 F7500 X66.839 Y144.904
M204 S500
G1 F1500 X61.16 Y139.225 E181.42691
M204 S2000
G0 F7500 X61.16 Y138.659
M204 S500
G1 F1500 X66.839 Y144.338 E181.80088
M204 S2000
G0 F7500 X66.839 Y143.773
M204 S500
G1 F1500 X61.16 Y138.093 E182.17488
M204 S2000
G0 F7500 X61.16 Y137.528
M204 S500
G1 F1500 X66.839 Y143.207 E182.54886
M204 S2000
G0 F7500 X66.839 Y142.641
M204 S500
G1 F1500 X61.16 Y136.962 E182.92283
M204 S2000
G0 F7500 X61.16 Y136.396
M204 S500
G1 F1500 X66.839 Y142.076 E183.29683
M204 S2000
G0 F7500 X66.839 Y141.51
M204 S500
G1 F1500 X61.16 Y135.83 E183.67084
M204 S2000
G0 F7500 X61.16 Y135.265
M204 S500
G1 F1500 X66.839 Y140.944 E184.04481
M204 S2000
G0 F7500 X66.839 Y140.379
M204 S500
G1 F1500 X61.16 Y134.699 E184.41881
M204 S2000
G0 F7500 X61.16 Y134.133
M204 S500
G1 F1500 X66.839 Y139.813 E184.79282
M204 S2000
G0 F7500 X66.839 Y139.247
M204 S500
G1 F1500 X61.16 Y133.568 E185.16679
M204 S2000
G0 F7500 X61.16 Y133.002
M204 S500
G1 F1500 X66.839 Y138.682 E185.54079
M204 S2000
G0 F7500 X66.839 Y138.116
M204 S500
G1 F1500 X61.16 Y132.436 E185.9148
M204 S2000
G0 F7500 X61.16 Y131.871
M204 S500
G1 F1500 X66.839 Y137.55 E186.28877
M204 S2000
G0 F7500 X66.839 Y136.984
M204 S500
G1 F1500 X61.16 Y131.305 E186.66274
M204 S2000
G0 F7500 X61.16 Y130.739
M204 S500
G1 F1500 X66.839 Y136.419 E187.03675
M204 S2000
G0 F7500 X66.839 Y135.853
M204 S500
G1 F1500 X61.16 Y130.174 E187.41072
M204 S2000
G0 F7500 X61.16 Y129.608
M204 S500
G1 F1500 X66.839 Y135.287 E187.78469
M204 S2000
G0 F7500 X66.839 Y134.722
M204 S500
G1 F1500 X61.16 Y129.042 E188.1587
M204 S2000
G0 F7500 X61.16 Y128.477
M204 S500
G1 F1500 X66.839 Y134.156 E188.53267
M204 S2000
G0 F7500 X66.839 Y133.59
M204 S500
G1 F1500 X61.16 Y127.911 E188.90664
M204 S2000
G0 F7500 X61.16 Y127.345
M204 S500
G1 F1500 X66.839 Y133.025 E189.28064
M204 S2000
G0 F7500 X66.839 Y132.459
M204 S500
G1 F1500 X61.16 Y126.78 E189.65462
M204 S2000
G0 F7500 X61.16 Y126.214
M204 S500
G1 F1500 X66.839 Y131.893 E190.02859
M204 S2000
G0 F7500 X66.839 Y131.328
M204 S500
G1 F1500 X61.16 Y125.648 E190.40259
M204 S2000
G0 F7500 X61.16 Y125.082
M204 S500
G1 F1500 X66.839 Y130.762 E190.7766
M204 S2000
G0 F7500 X66.839 Y130.196
M204 S500
G1 F1500 X61.16 Y124.517 E191.15057
M204 S2000
G0 F7500 X61.16 Y123.951
M204 S500
G1 F1500 X66.839 Y129.631 E191.52457
M204 S2000
G0 F7500 X66.839 Y129.065
M204 S500
G1 F1500 X61.16 Y123.385 E191.89858
M204 S2000
G0 F7500 X61.16 Y122.82
M204 S500
