;FLAVOR:Marlin
;TIME:20065
;Filament used: 21.9564m
;Layer height: 0.28
;MINX:38.185
;MINY:48.185
;MINZ:0.28
;MAXX:181.815
;MAXY:171.815
;MAXZ:28
;Generated with Cura_SteamEngine 5.2.0
M82 ;absolute extrusion mode
; Ender 3 S1 Start G-code
G92 E0 ; Reset Extruder
G28 ; Home all axes
G1 Z10.0 F3000 ; Move Z Axis up little to prevent scratching of Heat Bed
G1 X0 Y0

M104 S200
M190 S60
M109 S200

G1 X0.1 Y20 Z0.3 F5000.0 ; Move to start position
G1 X0.1 Y200.0 Z0.3 F1500.0 E15 ; Draw the first line
G1 X0.4 Y200.0 Z0.3 F5000.0 ; Move to side a little
G1 X0.4 Y20 Z0.3 F1500.0 E30 ; Draw the second line
G92 E0 ; Reset Extruder
G1 Z2.0 F3000 ; Move Z Axis up little to prevent scratching of Heat Bed
G1 X5 Y20 Z0.3 F5000.0 ; Move over to prevent blob squish

G92 E0
G92 E0
G1 F2400 E-0.8
;LAYER_COUNT:100
;LAYER:0
M107
M204 S2000
G0 F7500 X42.071 Y50.812 Z0.28
M204 S500
;TYPE:SKIRT
G1 F2400 E0
G1 F1500 X42.811 Y50.236 E0.04367
G1 X43.597 Y49.724 E0.08735
G1 X44.424 Y49.282 E0.13101
G1 X45.286 Y48.912 E0.17469
G1 X46.176 Y48.616 E0.21836
G1 X47.088 Y48.398 E0.26203
G1 X48.015 Y48.257 E0.30569
G1 X48.886 Y48.198 E0.34634
G1 X49.515 Y48.185 E0.37563
G1 X170.266 Y48.186 E5.9983
G1 X170.964 Y48.196 E6.03081
G1 X171.9 Y48.25 E6.07447
G1 X172.828 Y48.382 E6.11811
G1 X173.742 Y48.594 E6.1618
G1 X174.634 Y48.883 E6.20546
G1 X175.499 Y49.246 E6.24914
G1 X176.329 Y49.682 E6.2928
G1 X177.12 Y50.187 E6.3365
G1 X177.864 Y50.758 E6.38017
G1 X178.557 Y51.39 E6.42384
G1 X179.194 Y52.078 E6.4675
G1 X179.769 Y52.819 E6.51118
G1 X180.28 Y53.605 E6.55483
G1 X180.722 Y54.433 E6.59853
G1 X181.091 Y55.295 E6.6422
G1 X181.386 Y56.185 E6.68585
G1 X181.604 Y57.097 E6.72952
G1 X181.744 Y58.025 E6.77322
G1 X181.802 Y58.886 E6.8134
G1 X181.815 Y59.515 E6.8427
G1 X181.814 Y160.215 E11.53171
G1 X181.805 Y160.942 E11.56556
G1 X181.754 Y161.879 E11.60926
G1 X181.622 Y162.807 E11.65291
G1 X181.413 Y163.721 E11.69656
G1 X181.126 Y164.614 E11.74024
G1 X180.764 Y165.48 E11.78395
G1 X180.33 Y166.311 E11.8276
G1 X179.826 Y167.102 E11.87127
G1 X179.257 Y167.847 E11.91493
G1 X178.626 Y168.542 E11.95864
G1 X177.939 Y169.18 E12.00229
G1 X177.2 Y169.757 E12.04595
G1 X176.414 Y170.269 E12.08963
G1 X175.588 Y170.712 E12.13327
G1 X174.726 Y171.084 E12.17699
G1 X173.837 Y171.38 E12.22062
G1 X172.925 Y171.6 E12.26431
G1 X171.998 Y171.741 E12.30797
G1 X171.114 Y171.802 E12.34923
G1 X170.485 Y171.815 E12.37852
G1 X49.75 Y171.814 E18.00045
G1 X49.052 Y171.805 E18.03295
G1 X48.116 Y171.753 E18.07661
G1 X47.187 Y171.621 E18.1203
G1 X46.273 Y171.411 E18.16397
G1 X45.38 Y171.124 E18.20764
G1 X44.515 Y170.761 E18.25132
G1 X43.684 Y170.327 E18.29498
G1 X42.893 Y169.823 E18.33865
G1 X42.148 Y169.253 E18.38233
G1 X41.454 Y168.622 E18.42601
G1 X40.817 Y167.935 E18.46963
G1 X40.24 Y167.195 E18.51333
G1 X39.728 Y166.409 E18.55701
G1 X39.285 Y165.582 E18.60069
G1 X38.914 Y164.721 E18.64435
G1 X38.618 Y163.831 E18.68802
G1 X38.399 Y162.919 E18.73169
G1 X38.258 Y161.992 E18.77536
G1 X38.198 Y161.103 E18.81685
G1 X38.185 Y160.473 E18.84619
G1 X38.186 Y59.71 E23.53814
G1 X38.195 Y59.045 E23.5691
G1 X38.248 Y58.109 E23.61276
G1 X38.38 Y57.18 E23.65645
G1 X38.591 Y56.266 E23.70013
G1 X38.879 Y55.374 E23.74378
G1 X39.242 Y54.509 E23.78746
G1 X39.677 Y53.678 E23.83113
G1 X40.181 Y52.888 E23.87477
G1 X40.751 Y52.143 E23.91845
G1 X41.383 Y51.449 E23.96215
G1 X42.071 Y50.812 E24.00581
M204 S2000
G0 F7500 X42.459 Y51.008
M204 S500
G1 F1500 X43.195 Y50.455 E24.04868
G1 X43.976 Y49.967 E24.09156
G1 X44.796 Y49.549 E24.13442
G1 X45.65 Y49.204 E24.17731
G1 X46.53 Y48.934 E24.22017
G1 X47.43 Y48.742 E24.26302
G1 X48.344 Y48.628 E24.30591
G1 X48.897 Y48.598 E24.3317
G1 X49.515 Y48.585 E24.36048
G1 X170.26 Y48.586 E29.98287
G1 X170.958 Y48.596 E30.01538
G1 X171.877 Y48.649 E30.05824
G1 X172.788 Y48.782 E30.10111
G1 X173.684 Y48.993 E30.14397
G1 X174.558 Y49.281 E30.18682
G1 X175.405 Y49.644 E30.22973
G1 X176.216 Y50.079 E30.27259
G1 X176.986 Y50.583 E30.31544
G1 X177.71 Y51.152 E30.35832
G1 X178.382 Y51.782 E30.40121
G1 X178.997 Y52.467 E30.44407
G1 X179.55 Y53.203 E30.48694
G1 X180.037 Y53.984 E30.5298
G1 X180.454 Y54.805 E30.57268
G1 X180.799 Y55.659 E30.61556
G1 X181.068 Y56.539 E30.65841
G1 X181.26 Y57.44 E30.70131
G1 X181.373 Y58.353 E30.74415
G1 X181.402 Y58.897 E30.76951
G1 X181.415 Y59.515 E30.7983
G1 X181.414 Y160.21 E35.48708
G1 X181.405 Y160.937 E35.52093
G1 X181.354 Y161.856 E35.56379
G1 X181.223 Y162.768 E35.60669
G1 X181.013 Y163.664 E35.64954
G1 X180.727 Y164.539 E35.69241
G1 X180.366 Y165.386 E35.73528
G1 X179.932 Y166.198 E35.77815
G1 X179.43 Y166.97 E35.82103
G1 X178.862 Y167.695 E35.86392
G1 X178.234 Y168.368 E35.90678
G1 X177.55 Y168.984 E35.94964
G1 X176.815 Y169.538 E35.9925
G1 X176.035 Y170.027 E36.03537
G1 X175.215 Y170.446 E36.07825
G1 X174.362 Y170.792 E36.12111
G1 X173.482 Y171.063 E36.16398
G1 X172.582 Y171.256 E36.20684
G1 X171.668 Y171.371 E36.24974
G1 X171.103 Y171.402 E36.27609
G1 X170.485 Y171.415 E36.30487
G1 X49.755 Y171.414 E41.92657
G1 X49.057 Y171.405 E41.95907
G1 X48.138 Y171.353 E42.00193
G1 X47.227 Y171.222 E42.04479
G1 X46.331 Y171.012 E42.08764
G1 X45.456 Y170.725 E42.13052
G1 X44.609 Y170.363 E42.17341
G1 X43.797 Y169.929 E42.21628
G1 X43.026 Y169.427 E42.25912
G1 X42.301 Y168.859 E42.30201
G1 X41.628 Y168.23 E42.3449
G1 X41.013 Y167.546 E42.38773
G1 X40.459 Y166.811 E42.43059
G1 X39.971 Y166.03 E42.47347
G1 X39.552 Y165.21 E42.51635
G1 X39.206 Y164.357 E42.55921
G1 X38.936 Y163.477 E42.60208
G1 X38.743 Y162.576 E42.64498
G1 X38.629 Y161.663 E42.68783
G1 X38.598 Y161.092 E42.71445
G1 X38.585 Y160.473 E42.74328
G1 X38.586 Y59.716 E47.43495
G1 X38.595 Y59.051 E47.46592
G1 X38.647 Y58.131 E47.50883
G1 X38.779 Y57.22 E47.55169
G1 X38.99 Y56.324 E47.59455
G1 X39.277 Y55.449 E47.63743
G1 X39.64 Y54.603 E47.6803
G1 X40.074 Y53.791 E47.72317
G1 X40.577 Y53.02 E47.76603
G1 X41.146 Y52.296 E47.80891
G1 X41.774 Y51.624 E47.85174
G1 X42.459 Y51.008 E47.89464
M204 S2000
G0 F7500 X42.847 Y51.209
M204 S500
G1 F1500 X43.579 Y50.679 E47.93672
G1 X44.354 Y50.216 E47.97876
G1 X45.167 Y49.823 E48.0208
G1 X46.012 Y49.503 E48.06288
G1 X46.881 Y49.26 E48.10489
G1 X47.769 Y49.094 E48.14696
G1 X48.908 Y48.998 E48.20018
G1 X49.515 Y48.985 E48.22845
G1 X170.254 Y48.986 E53.85057
G1 X170.952 Y48.996 E53.88307
G1 X171.854 Y49.049 E53.92515
G1 X172.747 Y49.181 E53.96718
G1 X173.625 Y49.392 E54.00923
G1 X174.481 Y49.68 E54.05128
G1 X175.308 Y50.042 E54.09332
G1 X176.1 Y50.477 E54.13539
G1 X176.851 Y50.979 E54.17746
G1 X177.554 Y51.546 E54.21951
G1 X178.204 Y52.173 E54.26156
G1 X178.796 Y52.855 E54.30362
G1 X179.326 Y53.586 E54.34566
G1 X179.788 Y54.362 E54.38771
G1 X180.181 Y55.175 E54.42976
G1 X180.499 Y56.02 E54.4718
G1 X180.742 Y56.89 E54.51386
G1 X180.907 Y57.778 E54.55592
G1 X181.002 Y58.908 E54.60872
G1 X181.015 Y59.515 E54.63699
G1 X181.014 Y160.205 E59.32554
G1 X181.005 Y160.932 E59.3594
G1 X180.954 Y161.834 E59.40146
G1 X180.823 Y162.728 E59.44354
G1 X180.614 Y163.606 E59.48556
G1 X180.328 Y164.463 E59.52763
G1 X179.967 Y165.291 E59.56969
G1 X179.535 Y166.083 E59.6117
G1 X179.034 Y166.835 E59.65378
G1 X178.468 Y167.539 E59.69584
G1 X177.843 Y168.19 E59.73786
G1 X177.162 Y168.784 E59.77994
G1 X176.431 Y169.315 E59.82201
G1 X175.657 Y169.779 E59.86403
G1 X174.844 Y170.173 E59.9061
G1 X174 Y170.493 E59.94813
G1 X173.13 Y170.738 E59.99021
G1 X172.243 Y170.904 E60.03223
G1 X171.092 Y171.002 E60.08602
G1 X170.485 Y171.015 E60.11429
G1 X49.76 Y171.014 E65.73576
G1 X49.062 Y171.005 E65.76826
G1 X48.161 Y170.954 E65.81028
G1 X47.267 Y170.822 E65.85236
G1 X46.389 Y170.613 E65.89439
G1 X45.532 Y170.326 E65.93647
G1 X44.705 Y169.965 E65.97849
G1 X43.912 Y169.532 E66.02056
G1 X43.161 Y169.031 E66.0626
G1 X42.457 Y168.465 E66.10466
G1 X41.806 Y167.839 E66.14671
G1 X41.213 Y167.158 E66.18876
G1 X40.683 Y166.427 E66.23081
G1 X40.219 Y165.652 E66.27287
G1 X39.825 Y164.839 E66.31493
G1 X39.505 Y163.995 E66.35696
G1 X39.261 Y163.125 E66.39904
G1 X39.095 Y162.237 E66.4411
G1 X38.998 Y161.082 E66.49507
G1 X38.985 Y160.473 E66.52344
G1 X38.986 Y59.721 E71.21487
G1 X38.995 Y59.056 E71.24584
G1 X39.047 Y58.154 E71.28791
G1 X39.179 Y57.261 E71.32995
G1 X39.389 Y56.383 E71.37198
G1 X39.676 Y55.526 E71.41407
G1 X40.038 Y54.699 E71.4561
G1 X40.471 Y53.907 E71.49813
G1 X40.973 Y53.156 E71.5402
G1 X41.54 Y52.452 E71.58229
G1 X42.166 Y51.802 E71.62431
G1 X42.847 Y51.209 E71.66635
M204 S2000
G1 F2400 E70.86635
G0 F7500 X49.766 Y59.724
M204 S500
G1 F2400 E71.66635
G1 F1500 X49.685 Y59.885 E71.67475
G1 X49.685 Y160.115 E76.34188
G1 X49.724 Y160.234 E76.34771
G1 X49.885 Y160.315 E76.3561
G1 X170.115 Y160.315 E81.95451
G1 X170.234 Y160.276 E81.96034
G1 X170.315 Y160.115 E81.96873
G1 X170.315 Y59.885 E86.63586
G1 X170.276 Y59.766 E86.64169
G1 X170.115 Y59.685 E86.65009
G1 X49.885 Y59.685 E92.2485
G1 X49.766 Y59.724 E92.25433
M204 S2000
G0 F7500 X49.385 Y59.385
M204 S500
G1 F1500 X170.615 Y59.385 E97.89931
G1 X170.615 Y160.615 E102.613
G1 X49.385 Y160.615 E108.25798
G1 X49.385 Y59.385 E112.97167
M204 S2000
G1 F2400 E112.17167
;MESH:top-reverse-mesh.stl
G0 F7500 X50.02 Y61.485
G0 X51.285 Y158.715
M204 S500
;TYPE:WALL-INNER
G1 F2400 E112.97167
G1 F1500 X168.715 Y158.715 E118.4397
G1 X168.715 Y61.285 E122.97645
G1 X51.285 Y61.285 E128.44448
G1 X51.285 Y158.715 E132.98123
M204 S2000
G0 F7500 X50.885 Y159.115
M204 S500
;TYPE:WALL-OUTER
G1 F1500 X169.115 Y159.115 E138.48652
G1 X169.115 Y60.885 E143.06052
G1 X50.885 Y60.885 E148.5658
G1 X50.885 Y159.115 E153.1398
M204 S2000
G0 F7500 X51.155 Y158.845
G0 X51.385 Y158.355
G0 X51.645 Y158.355
M204 S500
;TYPE:SKIN
G1 F1500 X168.355 Y158.355 E158.57431
G1 X168.355 Y61.645 E163.07753
G1 X51.645 Y61.645 E168.51204
G1 X51.645 Y158.355 E173.01526
M204 S2000
G0 F7500 X52.371 Y158.154
M204 S500
G1 F1500 X51.844 Y157.627 E173.04996
M204 S2000
G0 F7500 X51.844 Y157.061
M204 S500
G1 F1500 X52.936 Y158.154 E173.12191
M204 S2000
G0 F7500 X53.502 Y158.154
M204 S500
G1 F1500 X51.844 Y156.496 E173.23109
M204 S2000
G0 F7500 X51.844 Y155.93
M204 S500
G1 F1500 X54.068 Y158.154 E173.37754
M204 S2000
G0 F7500 X54.633 Y158.154
M204 S500
G1 F1500 X51.844 Y155.364 E173.56124
M204 S2000
G0 F7500 X51.844 Y154.799
M204 S500
G1 F1500 X55.199 Y158.154 E173.78217
M204 S2000
G0 F7500 X55.765 Y158.154
M204 S500
G1 F1500 X51.844 Y154.233 E174.04037
M204 S2000
G0 F7500 X51.844 Y153.667
M204 S500
G1 F1500 X56.33 Y158.154 E174.33582
M204 S2000
G0 F7500 X56.896 Y158.154
M204 S500
G1 F1500 X51.844 Y153.102 E174.6685
M204 S2000
G0 F7500 X51.844 Y152.536
M204 S500
G1 F1500 X57.462 Y158.154 E175.03845
M204 S2000
G0 F7500 X58.028 Y158.154
M204 S500
G1 F1500 X51.844 Y151.97 E175.44568
M204 S2000
G0 F7500 X51.844 Y151.404
M204 S500
G1 F1500 X58.593 Y158.154 E175.89015
M204 S2000
G0 F7500 X59.159 Y158.154
M204 S500
G1 F1500 X51.844 Y150.839 E176.37185
M204 S2000
G0 F7500 X51.844 Y150.273
M204 S500
G1 F1500 X59.725 Y158.154 E176.89083
M204 S2000
G0 F7500 X60.29 Y158.154
M204 S500
G1 F1500 X51.844 Y149.707 E177.44705
M204 S2000
G0 F7500 X51.844 Y149.142
M204 S500
G1 F1500 X60.856 Y158.154 E178.0405
M204 S2000
G0 F7500 X61.422 Y158.154
M204 S500
G1 F1500 X51.844 Y148.576 E178.67123
M204 S2000
G0 F7500 X51.844 Y148.01
M204 S500
G1 F1500 X61.987 Y158.154 E179.3392
M204 S2000
G0 F7500 X62.553 Y158.154
M204 S500
G1 F1500 X51.844 Y147.445 E180.0444
M204 S2000
G0 F7500 X51.844 Y146.879
M204 S500
G1 F1500 X63.119 Y158.154 E180.78688
M204 S2000
G0 F7500 X63.684 Y158.154
M204 S500
G1 F1500 X51.844 Y146.313 E181.5666
M204 S2000
G0 F7500 X51.844 Y145.748
M204 S500
G1 F1500 X64.25 Y158.154 E182.38355
M204 S2000
G0 F7500 X64.816 Y158.154
M204 S500
G1 F1500 X51.844 Y145.182 E183.23778
M204 S2000
G0 F7500 X51.844 Y144.616
M204 S500
G1 F1500 X65.381 Y158.154 E184.12925
M204 S2000
G0 F7500 X65.947 Y158.154
M204 S500
G1 F1500 X51.844 Y144.051 E185.05796
M204 S2000
G0 F7500 X51.844 Y143.485
M204 S500
G1 F1500 X66.513 Y158.154 E186.02394
M204 S2000
G0 F7500 X67.078 Y158.154
M204 S500
G1 F1500 X51.844 Y142.919 E187.02715
M204 S2000
G0 F7500 X51.844 Y142.354
M204 S500
G1 F1500 X67.644 Y158.154 E188.06761
M204 S2000
G0 F7500 X68.21 Y158.154
M204 S500
G1 F1500 X51.844 Y141.788 E189.14534
M204 S2000
G0 F7500 X51.844 Y141.222
M204 S500
G1 F1500 X68.776 Y158.154 E190.26034
M204 S2000
G0 F7500 X69.341 Y158.154
M204 S500
G1 F1500 X51.844 Y140.656 E191.41258
M204 S2000
G0 F7500 X51.844 Y140.091
M204 S500
G1 F1500 X69.907 Y158.154 E192.60206
M204 S2000
G0 F7500 X70.473 Y158.154
M204 S500
G1 F1500 X51.844 Y139.525 E193.82881
M204 S2000
G0 F7500 X51.844 Y138.959
M204 S500
G1 F1500 X71.038 Y158.154 E195.0928
M204 S2000
G0 F7500 X71.604 Y158.154
M204 S500
G1 F1500 X51.844 Y138.394 E196.39403
M204 S2000
G0 F7500 X51.844 Y137.828
M204 S500
G1 F1500 X72.17 Y158.154 E197.73253
M204 S2000
G0 F7500 X72.735 Y158.154
M204 S500
G1 F1500 X51.844 Y137.262 E199.10827
M204 S2000
G0 F7500 X51.844 Y136.697
M204 S500
G1 F1500 X73.301 Y158.154 E200.52125
M204 S2000
G0 F7500 X73.867 Y158.154
M204 S500
G1 F1500 X51.844 Y136.131 E201.97151
M204 S2000
G0 F7500 X51.844 Y135.565
M204 S500
G1 F1500 X74.432 Y158.154 E203.459
M204 S2000
G0 F7500 X74.998 Y158.154
M204 S500
G1 F1500 X51.844 Y135 E204.98373
M204 S2000
G0 F7500 X51.844 Y134.434
M204 S500
G1 F1500 X75.564 Y158.154 E206.54573
M204 S2000
G0 F7500 X76.129 Y158.154
M204 S500
G1 F1500 X51.844 Y133.868 E208.14497
M204 S2000
G0 F7500 X51.844 Y133.303
M204 S500
G1 F1500 X76.695 Y158.154 E209.78145
M204 S2000
G0 F7500 X77.261 Y158.154
M204 S500
G1 F1500 X51.844 Y132.737 E211.45521
M204 S2000
G0 F7500 X51.844 Y132.171
M204 S500
G1 F1500 X77.827 Y158.154 E213.16623
M204 S2000
G0 F7500 X78.392 Y158.154
M204 S500
G1 F1500 X51.844 Y131.606 E214.91446
M204 S2000
G0 F7500 X51.844 Y131.04
M204 S500
G1 F1500 X78.958 Y158.154 E216.69997
M204 S2000
G0 F7500 X79.524 Y158.154
M204 S500
G1 F1500 X51.844 Y130.474 E218.52274
M204 S2000
G0 F7500 X51.844 Y129.908
M204 S500
G1 F1500 X80.089 Y158.154 E220.38276
M204 S2000
G0 F7500 X80.655 Y158.154
M204 S500
G1 F1500 X51.844 Y129.343 E222.28001
M204 S2000
G0 F7500 X51.844 Y128.777
M204 S500
G1 F1500 X81.221 Y158.154 E224.21453
M204 S2000
G0 F7500 X81.786 Y158.154
M204 S500
G1 F1500 X51.844 Y128.211 E226.1863
M204 S2000
G0 F7500 X51.844 Y127.646
M204 S500
G1 F1500 X82.352 Y158.154 E228.1953
M204 S2000
G0 F7500 X82.918 Y158.154
M204 S500
G1 F1500 X51.844 Y127.08 E230.24158
M204 S2000
G0 F7500 X51.844 Y126.514
M204 S500
G1 F1500 X83.483 Y158.154 E232.32509
M204 S2000
G0 F7500 X84.049 Y158.154
M204 S500
G1 F1500 X51.844 Y125.949 E234.44585
M204 S2000
G0 F7500 X51.844 Y125.383
M204 S500
G1 F1500 X84.615 Y158.154 E236.60387
M204 S2000
G0 F7500 X85.18 Y158.154
M204 S500
G1 F1500 X51.844 Y124.817 E238.79914
M204 S2000
G0 F7500 X51.844 Y124.252
M204 S500
G1 F1500 X85.746 Y158.154 E241.03164
M204 S2000
G0 F7500 X86.312 Y158.154
M204 S500
G1 F1500 X51.844 Y123.686 E243.30142
M204 S2000
G0 F7500 X51.844 Y123.12
M204 S500
G1 F1500 X86.877 Y158.154 E245.60844
M204 S2000
G0 F7500 X87.443 Y158.154
M204 S500
G1 F1500 X51.844 Y122.555 E247.95269
M204 S2000
G0 F7500 X51.844 Y121.989
M204 S500
G1 F1500 X88.009 Y158.154 E250.33422
M204 S2000
G0 F7500 X88.575 Y158.154
M204 S500
G1 F1500 X51.844 Y121.423 E252.75302
M204 S2000
G0 F7500 X51.844 Y120.857
M204 S500
G1 F1500 X89.14 Y158.154 E255.20906
M204 S2000
G0 F7500 X89.706 Y158.154
M204 S500
G1 F1500 X51.844 Y120.292 E257.70233
M204 S2000
G0 F7500 X51.844 Y119.726
M204 S500
G1 F1500 X90.272 Y158.154 E260.23288
M204 S2000
G0 F7500 X90.837 Y158.154
M204 S500
G1 F1500 X51.844 Y119.16 E262.80067
M204 S2000
G0 F7500 X51.844 Y118.595
M204 S500
G1 F1500 X91.403 Y158.154 E265.4057
M204 S2000
G0 F7500 X91.969 Y158.154
M204 S500
G1 F1500 X51.844 Y118.029 E268.048
M204 S2000
G0 F7500 X51.844 Y117.463
M204 S500
G1 F1500 X92.534 Y158.154 E270.72754
M204 S2000
G0 F7500 X93.1 Y158.154
M204 S500
G1 F1500 X51.844 Y116.898 E273.44432
M204 S2000
G0 F7500 X51.844 Y116.332
M204 S500
G1 F1500 X93.666 Y158.154 E276.19837
M204 S2000
G0 F7500 X94.231 Y158.154
M204 S500
G1 F1500 X51.844 Y115.766 E278.98966
M204 S2000
G0 F7500 X51.844 Y115.201
M204 S500
