;FLAVOR:Marlin
;TIME:19472
;Filament used: 22.7233m
;Layer height: 0.28
;MINX:38.185
;MINY:48.185
;MINZ:0.28
;MAXX:181.815
;MAXY:171.815
;MAXZ:24.92
;Generated with Cura_SteamEngine 5.2.0
M82 ;absolute extrusion mode
; Ender 3 S1 Start G-code
G92 E0 ; Reset Extruder
G28 ; Home all axes
G1 Z10.0 F3000 ; Move Z Axis up little to prevent scratching of Heat Bed
G1 X0 Y0

M104 S200
M190 S60
M109 S200

G1 X0.1 Y20 Z0.3 F5000.0 ; Move to start position
G1 X0.1 Y200.0 Z0.3 F1500.0 E15 ; Draw the first line
G1 X0.4 Y200.0 Z0.3 F5000.0 ; Move to side a little
G1 X0.4 Y20 Z0.3 F1500.0 E30 ; Draw the second line
G92 E0 ; Reset Extruder
G1 Z2.0 F3000 ; Move Z Axis up little to prevent scratching of Heat Bed
G1 X5 Y20 Z0.3 F5000.0 ; Move over to prevent blob squish

G92 E0
G92 E0
G1 F2400 E-0.8
;LAYER_COUNT:89
;LAYER:0
M107
M204 S2000
G0 F7500 X42.071 Y50.812 Z0.28
M204 S500
;TYPE:SKIRT
G1 F2400 E0
G1 F1500 X42.811 Y50.236 E0.04367
G1 X43.597 Y49.724 E0.08735
G1 X44.424 Y49.282 E0.13101
G1 X45.286 Y48.912 E0.17469
G1 X46.176 Y48.616 E0.21836
G1 X47.088 Y48.398 E0.26203
G1 X48.015 Y48.257 E0.30569
G1 X48.886 Y48.198 E0.34634
G1 X49.515 Y48.185 E0.37563
G1 X170.266 Y48.186 E5.9983
G1 X170.964 Y48.196 E6.03081
G1 X171.9 Y48.25 E6.07447
G1 X172.828 Y48.382 E6.11811
G1 X173.742 Y48.594 E6.1618
G1 X174.634 Y48.883 E6.20546
G1 X175.499 Y49.246 E6.24914
G1 X176.329 Y49.682 E6.2928
G1 X177.12 Y50.187 E6.3365
G1 X177.864 Y50.758 E6.38017
G1 X178.557 Y51.39 E6.42384
G1 X179.194 Y52.078 E6.4675
G1 X179.769 Y52.819 E6.51118
G1 X180.28 Y53.605 E6.55483
G1 X180.722 Y54.433 E6.59853
G1 X181.091 Y55.295 E6.6422
G1 X181.386 Y56.185 E6.68585
G1 X181.604 Y57.097 E6.72952
G1 X181.744 Y58.025 E6.77322
G1 X181.802 Y58.886 E6.8134
G1 X181.815 Y59.515 E6.8427
G1 X181.814 Y160.215 E11.53171
G1 X181.805 Y160.942 E11.56556
G1 X181.754 Y161.879 E11.60926
G1 X181.622 Y162.807 E11.65291
G1 X181.413 Y163.721 E11.69656
G1 X181.126 Y164.614 E11.74024
G1 X180.764 Y165.48 E11.78395
G1 X180.33 Y166.311 E11.8276
G1 X179.826 Y167.102 E11.87127
G1 X179.257 Y167.847 E11.91493
G1 X178.626 Y168.542 E11.95864
G1 X177.939 Y169.18 E12.00229
G1 X177.2 Y169.757 E12.04595
G1 X176.414 Y170.269 E12.08963
G1 X175.588 Y170.712 E12.13327
G1 X174.726 Y171.084 E12.17699
G1 X173.837 Y171.38 E12.22062
G1 X172.925 Y171.6 E12.26431
G1 X171.998 Y171.741 E12.30797
G1 X171.114 Y171.802 E12.34923
G1 X170.485 Y171.815 E12.37852
G1 X49.75 Y171.814 E18.00045
G1 X49.052 Y171.805 E18.03295
G1 X48.116 Y171.753 E18.07661
G1 X47.187 Y171.621 E18.1203
G1 X46.273 Y171.411 E18.16397
G1 X45.38 Y171.124 E18.20764
G1 X44.515 Y170.761 E18.25132
G1 X43.684 Y170.327 E18.29498
G1 X42.893 Y169.823 E18.33865
G1 X42.148 Y169.253 E18.38233
G1 X41.454 Y168.622 E18.42601
G1 X40.817 Y167.935 E18.46963
G1 X40.24 Y167.195 E18.51333
G1 X39.728 Y166.409 E18.55701
G1 X39.285 Y165.582 E18.60069
G1 X38.914 Y164.721 E18.64435
G1 X38.618 Y163.831 E18.68802
G1 X38.399 Y162.919 E18.73169
G1 X38.258 Y161.992 E18.77536
G1 X38.198 Y161.103 E18.81685
G1 X38.185 Y160.473 E18.84619
G1 X38.186 Y59.71 E23.53814
G1 X38.195 Y59.045 E23.5691
G1 X38.248 Y58.109 E23.61276
G1 X38.38 Y57.18 E23.65645
G1 X38.591 Y56.266 E23.70013
G1 X38.879 Y55.374 E23.74378
G1 X39.242 Y54.509 E23.78746
G1 X39.677 Y53.678 E23.83113
G1 X40.181 Y52.888 E23.87477
G1 X40.751 Y52.143 E23.91845
G1 X41.383 Y51.449 E23.96215
G1 X42.071 Y50.812 E24.00581
M204 S2000
G0 F7500 X42.459 Y51.008
M204 S500
G1 F1500 X43.195 Y50.455 E24.04868
G1 X43.976 Y49.967 E24.09156
G1 X44.796 Y49.549 E24.13442
G1 X45.65 Y49.204 E24.17731
G1 X46.53 Y48.934 E24.22017
G1 X47.43 Y48.742 E24.26302
G1 X48.344 Y48.628 E24.30591
G1 X48.897 Y48.598 E24.3317
G1 X49.515 Y48.585 E24.36048
G1 X170.26 Y48.586 E29.98287
G1 X170.958 Y48.596 E30.01538
G1 X171.877 Y48.649 E30.05824
G1 X172.788 Y48.782 E30.10111
G1 X173.684 Y48.993 E30.14397
G1 X174.558 Y49.281 E30.18682
G1 X175.405 Y49.644 E30.22973
G1 X176.216 Y50.079 E30.27259
G1 X176.986 Y50.583 E30.31544
G1 X177.71 Y51.152 E30.35832
G1 X178.382 Y51.782 E30.40121
G1 X178.997 Y52.467 E30.44407
G1 X179.55 Y53.203 E30.48694
G1 X180.037 Y53.984 E30.5298
G1 X180.454 Y54.805 E30.57268
G1 X180.799 Y55.659 E30.61556
G1 X181.068 Y56.539 E30.65841
G1 X181.26 Y57.44 E30.70131
G1 X181.373 Y58.353 E30.74415
G1 X181.402 Y58.897 E30.76951
G1 X181.415 Y59.515 E30.7983
G1 X181.414 Y160.21 E35.48708
G1 X181.405 Y160.937 E35.52093
G1 X181.354 Y161.856 E35.56379
G1 X181.223 Y162.768 E35.60669
G1 X181.013 Y163.664 E35.64954
G1 X180.727 Y164.539 E35.69241
G1 X180.366 Y165.386 E35.73528
G1 X179.932 Y166.198 E35.77815
G1 X179.43 Y166.97 E35.82103
G1 X178.862 Y167.695 E35.86392
G1 X178.234 Y168.368 E35.90678
G1 X177.55 Y168.984 E35.94964
G1 X176.815 Y169.538 E35.9925
G1 X176.035 Y170.027 E36.03537
G1 X175.215 Y170.446 E36.07825
G1 X174.362 Y170.792 E36.12111
G1 X173.482 Y171.063 E36.16398
G1 X172.582 Y171.256 E36.20684
G1 X171.668 Y171.371 E36.24974
G1 X171.103 Y171.402 E36.27609
G1 X170.485 Y171.415 E36.30487
G1 X49.755 Y171.414 E41.92657
G1 X49.057 Y171.405 E41.95907
G1 X48.138 Y171.353 E42.00193
G1 X47.227 Y171.222 E42.04479
G1 X46.331 Y171.012 E42.08764
G1 X45.456 Y170.725 E42.13052
G1 X44.609 Y170.363 E42.17341
G1 X43.797 Y169.929 E42.21628
G1 X43.026 Y169.427 E42.25912
G1 X42.301 Y168.859 E42.30201
G1 X41.628 Y168.23 E42.3449
G1 X41.013 Y167.546 E42.38773
G1 X40.459 Y166.811 E42.43059
G1 X39.971 Y166.03 E42.47347
G1 X39.552 Y165.21 E42.51635
G1 X39.206 Y164.357 E42.55921
G1 X38.936 Y163.477 E42.60208
G1 X38.743 Y162.576 E42.64498
G1 X38.629 Y161.663 E42.68783
G1 X38.598 Y161.092 E42.71445
G1 X38.585 Y160.473 E42.74328
G1 X38.586 Y59.716 E47.43495
G1 X38.595 Y59.051 E47.46592
G1 X38.647 Y58.131 E47.50883
G1 X38.779 Y57.22 E47.55169
G1 X38.99 Y56.324 E47.59455
G1 X39.277 Y55.449 E47.63743
G1 X39.64 Y54.603 E47.6803
G1 X40.074 Y53.791 E47.72317
G1 X40.577 Y53.02 E47.76603
G1 X41.146 Y52.296 E47.80891
G1 X41.774 Y51.624 E47.85174
G1 X42.459 Y51.008 E47.89464
M204 S2000
G0 F7500 X42.847 Y51.209
M204 S500
G1 F1500 X43.579 Y50.679 E47.93672
G1 X44.354 Y50.216 E47.97876
G1 X45.167 Y49.823 E48.0208
G1 X46.012 Y49.503 E48.06288
G1 X46.881 Y49.26 E48.10489
G1 X47.769 Y49.094 E48.14696
G1 X48.908 Y48.998 E48.20018
G1 X49.515 Y48.985 E48.22845
G1 X170.254 Y48.986 E53.85057
G1 X170.952 Y48.996 E53.88307
G1 X171.854 Y49.049 E53.92515
G1 X172.747 Y49.181 E53.96718
G1 X173.625 Y49.392 E54.00923
G1 X174.481 Y49.68 E54.05128
G1 X175.308 Y50.042 E54.09332
G1 X176.1 Y50.477 E54.13539
G1 X176.851 Y50.979 E54.17746
G1 X177.554 Y51.546 E54.21951
G1 X178.204 Y52.173 E54.26156
G1 X178.796 Y52.855 E54.30362
G1 X179.326 Y53.586 E54.34566
G1 X179.788 Y54.362 E54.38771
G1 X180.181 Y55.175 E54.42976
G1 X180.499 Y56.02 E54.4718
G1 X180.742 Y56.89 E54.51386
G1 X180.907 Y57.778 E54.55592
G1 X181.002 Y58.908 E54.60872
G1 X181.015 Y59.515 E54.63699
G1 X181.014 Y160.205 E59.32554
G1 X181.005 Y160.932 E59.3594
G1 X180.954 Y161.834 E59.40146
G1 X180.823 Y162.728 E59.44354
G1 X180.614 Y163.606 E59.48556
G1 X180.328 Y164.463 E59.52763
G1 X179.967 Y165.291 E59.56969
G1 X179.535 Y166.083 E59.6117
G1 X179.034 Y166.835 E59.65378
G1 X178.468 Y167.539 E59.69584
G1 X177.843 Y168.19 E59.73786
G1 X177.162 Y168.784 E59.77994
G1 X176.431 Y169.315 E59.82201
G1 X175.657 Y169.779 E59.86403
G1 X174.844 Y170.173 E59.9061
G1 X174 Y170.493 E59.94813
G1 X173.13 Y170.738 E59.99021
G1 X172.243 Y170.904 E60.03223
G1 X171.092 Y171.002 E60.08602
G1 X170.485 Y171.015 E60.11429
G1 X49.76 Y171.014 E65.73576
G1 X49.062 Y171.005 E65.76826
G1 X48.161 Y170.954 E65.81028
G1 X47.267 Y170.822 E65.85236
G1 X46.389 Y170.613 E65.89439
G1 X45.532 Y170.326 E65.93647
G1 X44.705 Y169.965 E65.97849
G1 X43.912 Y169.532 E66.02056
G1 X43.161 Y169.031 E66.0626
G1 X42.457 Y168.465 E66.10466
G1 X41.806 Y167.839 E66.14671
G1 X41.213 Y167.158 E66.18876
G1 X40.683 Y166.427 E66.23081
G1 X40.219 Y165.652 E66.27287
G1 X39.825 Y164.839 E66.31493
G1 X39.505 Y163.995 E66.35696
G1 X39.261 Y163.125 E66.39904
G1 X39.095 Y162.237 E66.4411
G1 X38.998 Y161.082 E66.49507
G1 X38.985 Y160.473 E66.52344
G1 X38.986 Y59.721 E71.21487
G1 X38.995 Y59.056 E71.24584
G1 X39.047 Y58.154 E71.28791
G1 X39.179 Y57.261 E71.32995
G1 X39.389 Y56.383 E71.37198
G1 X39.676 Y55.526 E71.41407
G1 X40.038 Y54.699 E71.4561
G1 X40.471 Y53.907 E71.49813
G1 X40.973 Y53.156 E71.5402
G1 X41.54 Y52.452 E71.58229
G1 X42.166 Y51.802 E71.62431
G1 X42.847 Y51.209 E71.66635
M204 S2000
G1 F2400 E70.86635
;MESH:bottom-reverse-mesh.stl
G0 F7500 X49.605 Y58.52
G0 X50.685 Y160.24
M204 S500
;TYPE:WALL-INNER
G1 F2400 E71.66635
G1 F1714.3 X80.375 Y160.24 E72.87603
G1 F1704.5 X110.065 Y160.239 E74.09263
G1 F1699.7 X139.755 Y160.238 E75.31267
G1 F1690.1 X169.445 Y160.237 E76.53963
G1 F1438.8 X169.936 Y160.176 E76.56365
G1 F1252.6 X170.176 Y160.176 E76.57704
G1 X170.176 Y159.936 E76.59042
G1 F1438.8 X170.238 Y159.445 E76.61444
G1 F1694.9 X170.238 Y126.525 E77.97105
G1 F1704.5 X170.239 Y93.605 E79.32
G1 F1714.3 X170.24 Y60.685 E80.66128
G1 F1639.3 X170.153 Y59.846 E80.69722
G1 X169.315 Y59.76 E80.73311
G1 F1714.3 X167.815 Y59.76 E80.79422
G1 F1600 X167.065 Y59.785 E80.82698
G1 F1500 X49.786 Y59.786 E86.28799
G1 X49.785 Y158.063 E90.86417
G1 F1600 X49.76 Y158.813 E90.89693
G1 F1699.7 X49.763 Y159.445 E90.9229
G1 F1438.8 X49.825 Y159.936 E90.94693
G1 F1345.3 X49.825 Y160.15 E90.95804
G1 F1570.7 X50.685 Y160.24 E90.99649
M204 S2000
G0 F7500 X49.655 Y160.345
G0 X49.386 Y160.614
M204 S500
;TYPE:WALL-OUTER
G1 F1500 X170.615 Y160.615 E96.64142
G1 X170.615 Y59.385 E101.35511
G1 X49.386 Y59.386 E107.00004
G1 X49.386 Y160.614 E111.71364
M204 S2000
G1 F2400 E110.91364
G0 F7500 X49.655 Y160.345
G0 X50.257 Y158.383
G0 X166.944 Y158.115
G1 F2400 E111.71364
G0 F7500 X167.215 Y158.216
M204 S500
;TYPE:WALL-INNER
G1 F1500 X167.215 Y60.685 E116.25509
G1 X167.334 Y60.324 E116.27279
G1 F1587.3 X167.715 Y60.115 E116.29192
G1 F1699.7 X169.315 Y60.11 E116.35767
G1 F1449.3 X169.767 Y60.233 E116.38024
G1 X169.89 Y60.685 E116.40282
G1 F1714.3 X169.889 Y93.595 E117.74369
G1 F1704.5 X169.887 Y126.505 E119.09223
G1 F1694.9 X169.885 Y159.415 E120.44843
G1 F1438.8 X169.767 Y159.767 E120.46645
G1 X169.415 Y159.885 E120.48447
G1 F1690.1 X139.732 Y159.886 E121.71114
G1 F1699.7 X110.049 Y159.887 E122.9309
G1 F1704.5 X80.366 Y159.888 E124.14721
G1 F1714.3 X50.683 Y159.89 E125.3566
G1 F1449.3 X50.233 Y159.767 E125.37908
G1 F1438.8 X50.115 Y159.415 E125.3971
G1 F1699.7 X50.11 Y158.813 E125.42184
G1 F1600 X50.324 Y158.332 E125.44483
G1 F1500 X50.685 Y158.213 E125.46252
G1 X167.215 Y158.216 E130.88865
M204 S2000
G0 F7500 X167.615 Y158.616
M204 S500
;TYPE:WALL-OUTER
G1 F1500 X167.615 Y60.685 E135.44873
G1 X167.654 Y60.564 E135.45465
G1 X167.78 Y60.487 E135.46152
G1 X169.315 Y60.485 E135.533
G1 X169.457 Y60.543 E135.54014
G1 X169.515 Y60.685 E135.54728
G1 X169.513 Y159.35 E140.14154
G1 X169.457 Y159.457 E140.14716
G1 X169.35 Y159.513 E140.15279
G1 X50.685 Y159.515 E145.67833
G1 X50.543 Y159.457 E145.68547
G1 X50.487 Y159.35 E145.69109
G1 X50.485 Y158.813 E145.7161
G1 X50.564 Y158.652 E145.72445
G1 X50.685 Y158.613 E145.73037
G1 X167.615 Y158.616 E151.17512
M204 S2000
G0 F7500 X167.345 Y158.347
G0 X166.853 Y158.115
G0 X166.855 Y157.855
M204 S500
;TYPE:SKIN
G1 F1500 X166.855 Y60.655 E155.70116
G1 X167.029 Y60.145 E155.72625
G1 X50.146 Y60.146 E161.16881
G1 X50.146 Y158.027 E165.72656
G1 X50.655 Y157.853 E165.75161
G1 X166.855 Y157.855 E171.16237
M204 S2000
G1 F2400 E170.36237
G0 F7500 X166.853 Y158.115
G0 X167.115 Y60.871
G1 F2400 E171.16237
G0 F7500 X166.654 Y60.871
M204 S500
G1 F1500 X166.129 Y60.346 E171.19694
M204 S2000
G0 F7500 X165.564 Y60.346
M204 S500
G1 F1500 X166.654 Y61.436 E171.26872
M204 S2000
G0 F7500 X166.654 Y62.002
M204 S500
G1 F1500 X164.998 Y60.346 E171.37777
M204 S2000
G0 F7500 X164.432 Y60.346
M204 S500
G1 F1500 X166.654 Y62.568 E171.52409
M204 S2000
G0 F7500 X166.654 Y63.134
M204 S500
G1 F1500 X163.867 Y60.346 E171.70765
M204 S2000
G0 F7500 X163.301 Y60.346
M204 S500
G1 F1500 X166.654 Y63.699 E171.92845
M204 S2000
G0 F7500 X166.654 Y64.265
M204 S500
G1 F1500 X162.735 Y60.346 E172.18653
M204 S2000
G0 F7500 X162.169 Y60.346
M204 S500
G1 F1500 X166.654 Y64.831 E172.48187
M204 S2000
G0 F7500 X166.654 Y65.396
M204 S500
G1 F1500 X161.604 Y60.346 E172.81442
M204 S2000
G0 F7500 X161.038 Y60.346
M204 S500
G1 F1500 X166.654 Y65.962 E173.18424
M204 S2000
G0 F7500 X166.654 Y66.528
M204 S500
G1 F1500 X160.472 Y60.346 E173.59134
M204 S2000
G0 F7500 X159.907 Y60.346
M204 S500
G1 F1500 X166.654 Y67.093 E174.03564
M204 S2000
G0 F7500 X166.654 Y67.659
M204 S500
G1 F1500 X159.341 Y60.346 E174.51722
M204 S2000
G0 F7500 X158.775 Y60.346
M204 S500
G1 F1500 X166.654 Y68.225 E175.03606
M204 S2000
G0 F7500 X166.654 Y68.79
M204 S500
G1 F1500 X158.21 Y60.346 E175.59211
M204 S2000
G0 F7500 X157.644 Y60.346
M204 S500
G1 F1500 X166.654 Y69.356 E176.18544
M204 S2000
G0 F7500 X166.654 Y69.922
M204 S500
G1 F1500 X157.078 Y60.346 E176.81603
M204 S2000
G0 F7500 X156.513 Y60.346
M204 S500
G1 F1500 X166.654 Y70.487 E177.48383
M204 S2000
G0 F7500 X166.654 Y71.053
M204 S500
G1 F1500 X155.947 Y60.346 E178.18891
M204 S2000
G0 F7500 X155.381 Y60.346
M204 S500
G1 F1500 X166.654 Y71.619 E178.93126
M204 S2000
G0 F7500 X166.654 Y72.184
M204 S500
G1 F1500 X154.816 Y60.346 E179.71081
M204 S2000
G0 F7500 X154.25 Y60.346
M204 S500
G1 F1500 X166.654 Y72.75 E180.52763
M204 S2000
G0 F7500 X166.654 Y73.316
M204 S500
G1 F1500 X153.684 Y60.346 E181.38173
M204 S2000
G0 F7500 X153.119 Y60.346
M204 S500
G1 F1500 X166.654 Y73.882 E182.27306
M204 S2000
G0 F7500 X166.654 Y74.447
M204 S500
G1 F1500 X152.553 Y60.346 E183.20164
M204 S2000
G0 F7500 X151.987 Y60.346
M204 S500
G1 F1500 X166.654 Y75.013 E184.16749
M204 S2000
G0 F7500 X166.654 Y75.579
M204 S500
G1 F1500 X151.421 Y60.346 E185.17061
M204 S2000
G0 F7500 X150.856 Y60.346
M204 S500
G1 F1500 X166.654 Y76.144 E186.21093
M204 S2000
G0 F7500 X166.654 Y76.71
M204 S500
G1 F1500 X150.29 Y60.346 E187.28853
M204 S2000
G0 F7500 X149.724 Y60.346
M204 S500
G1 F1500 X166.654 Y77.276 E188.4034
M204 S2000
G0 F7500 X166.654 Y77.841
M204 S500
G1 F1500 X149.159 Y60.346 E189.55547
M204 S2000
G0 F7500 X148.593 Y60.346
M204 S500
G1 F1500 X166.654 Y78.407 E190.74482
M204 S2000
G0 F7500 X166.654 Y78.973
M204 S500
G1 F1500 X148.027 Y60.346 E191.97144
M204 S2000
G0 F7500 X147.462 Y60.346
M204 S500
G1 F1500 X166.654 Y79.538 E193.23527
M204 S2000
G0 F7500 X166.654 Y80.104
M204 S500
G1 F1500 X146.896 Y60.346 E194.53636
M204 S2000
G0 F7500 X146.33 Y60.346
M204 S500
G1 F1500 X166.654 Y80.67 E195.87473
M204 S2000
G0 F7500 X166.654 Y81.235
M204 S500
G1 F1500 X145.765 Y60.346 E197.25031
M204 S2000
G0 F7500 X145.199 Y60.346
M204 S500
G1 F1500 X166.654 Y81.801 E198.66316
M204 S2000
G0 F7500 X166.654 Y82.367
M204 S500
G1 F1500 X144.633 Y60.346 E200.11328
M204 S2000
G0 F7500 X144.068 Y60.346
M204 S500
G1 F1500 X166.654 Y82.933 E201.60064
M204 S2000
G0 F7500 X166.654 Y83.498
M204 S500
G1 F1500 X143.502 Y60.346 E203.12524
M204 S2000
G0 F7500 X142.936 Y60.346
M204 S500
G1 F1500 X166.654 Y84.064 E204.68711
M204 S2000
G0 F7500 X166.654 Y84.63
M204 S500
G1 F1500 X142.371 Y60.346 E206.28622
M204 S2000
G0 F7500 X141.805 Y60.346
M204 S500
G1 F1500 X166.654 Y85.195 E207.92257
M204 S2000
G0 F7500 X166.654 Y85.761
M204 S500
G1 F1500 X141.239 Y60.346 E209.59619
M204 S2000
G0 F7500 X140.673 Y60.346
M204 S500
G1 F1500 X166.654 Y86.327 E211.30708
M204 S2000
G0 F7500 X166.654 Y86.892
M204 S500
G1 F1500 X140.108 Y60.346 E213.05518
M204 S2000
G0 F7500 X139.542 Y60.346
M204 S500
G1 F1500 X166.654 Y87.458 E214.84055
M204 S2000
G0 F7500 X166.654 Y88.024
M204 S500
G1 F1500 X138.976 Y60.346 E216.6632
M204 S2000
G0 F7500 X138.411 Y60.346
M204 S500
G1 F1500 X166.654 Y88.589 E218.52305
M204 S2000
G0 F7500 X166.654 Y89.155
M204 S500
G1 F1500 X137.845 Y60.346 E220.42017
M204 S2000
G0 F7500 X137.279 Y60.346
M204 S500
G1 F1500 X166.654 Y89.721 E222.35456
M204 S2000
G0 F7500 X166.654 Y90.286
M204 S500
G1 F1500 X136.714 Y60.346 E224.32616
M204 S2000
G0 F7500 X136.148 Y60.346
M204 S500
G1 F1500 X166.654 Y90.852 E226.33503
M204 S2000
G0 F7500 X166.654 Y91.418
M204 S500
