;FLAVOR:Marlin
;TIME:24460
;Filament used: 28.4874m
;Layer height: 0.28
;MINX:10.984
;MINY:6.392
;MINZ:0.28
;MAXX:214.454
;MAXY:210.276
;MAXZ:33.88
;Generated with Cura_SteamEngine 5.2.0
M82 ;absolute extrusion mode
; Ender 3 S1 Start G-code
G92 E0 ; Reset Extruder
G28 ; Home all axes
G1 Z10.0 F3000 ; Move Z Axis up little to prevent scratching of Heat Bed
G1 X0 Y0

M104 S200
M190 S60
M109 S200

G1 X0.1 Y20 Z0.3 F5000.0 ; Move to start position
G1 X0.1 Y200.0 Z0.3 F1500.0 E15 ; Draw the first line
G1 X0.4 Y200.0 Z0.3 F5000.0 ; Move to side a little
G1 X0.4 Y20 Z0.3 F1500.0 E30 ; Draw the second line
G92 E0 ; Reset Extruder
G1 Z2.0 F3000 ; Move Z Axis up little to prevent scratching of Heat Bed
G1 X5 Y20 Z0.3 F5000.0 ; Move over to prevent blob squish

G92 E0
G92 E0
G1 F2400 E-0.8
;LAYER_COUNT:121
;LAYER:0
M107
M204 S2000
G0 F7500 X19.937 Y99.572 Z0.28
M204 S500
;TYPE:SKIRT
G1 F2400 E0
G1 F1500 X20.858 Y99.393 E0.04369
G1 X21.587 Y99.308 E0.07786
G1 X22.032 Y99.271 E0.09866
G1 X24.666 Y99.013 E0.22189
G1 X27.157 Y98.697 E0.33881
G1 X29.648 Y98.31 E0.4562
G1 X32.107 Y97.856 E0.57263
G1 X34.562 Y97.331 E0.68953
G1 X36.992 Y96.739 E0.80599
G1 X39.431 Y96.071 E0.92375
G1 X41.868 Y95.328 E1.04238
G1 X44.26 Y94.525 E1.15987
G1 X46.577 Y93.673 E1.27482
G1 X48.936 Y92.73 E1.39312
G1 X51.273 Y91.716 E1.51174
G1 X53.53 Y90.663 E1.62771
G1 X55.763 Y89.542 E1.74406
G1 X58 Y88.337 E1.86237
G1 X60.179 Y87.084 E1.97941
G1 X62.323 Y85.769 E2.09653
G1 X64.438 Y84.389 E2.21412
G1 X66.5 Y82.956 E2.33105
G1 X68.524 Y81.464 E2.44813
G1 X70.506 Y79.915 E2.56526
G1 X72.455 Y78.301 E2.6831
G1 X74.345 Y76.643 E2.80017
G1 X76.175 Y74.946 E2.91638
G1 X77.989 Y73.163 E3.03482
G1 X79.716 Y71.367 E3.15084
G1 X81.425 Y69.487 E3.26914
G1 X83.063 Y67.578 E3.38627
G1 X84.647 Y65.625 E3.50336
G1 X86.176 Y63.623 E3.62066
G1 X87.644 Y61.589 E3.73746
G1 X89.066 Y59.493 E3.8554
G1 X90.403 Y57.398 E3.97113
G1 X91.7 Y55.231 E4.08873
G1 X92.942 Y53.02 E4.20681
G1 X94.105 Y50.802 E4.32343
G1 X95.218 Y48.526 E4.4414
G1 X96.254 Y46.247 E4.55797
G1 X97.227 Y43.936 E4.67473
G1 X98.148 Y41.558 E4.79347
G1 X98.983 Y39.211 E4.90947
G1 X99.766 Y36.793 E5.02782
G1 X100.466 Y34.404 E5.14374
G1 X101.114 Y31.941 E5.26233
G1 X101.676 Y29.524 E5.37788
G1 X102.182 Y27.026 E5.49656
G1 X102.608 Y24.577 E5.6123
G1 X102.973 Y22.058 E5.73082
G1 X103.261 Y19.563 E5.84777
G1 X103.48 Y17.056 E5.96495
G1 X103.601 Y16.126 E6.00862
G1 X103.704 Y15.608 E6.03322
G1 X103.796 Y15.197 E6.05283
G1 X104.039 Y14.292 E6.09646
G1 X104.359 Y13.41 E6.14015
G1 X104.753 Y12.559 E6.18382
G1 X105.218 Y11.744 E6.22751
G1 X105.751 Y10.972 E6.27119
G1 X106.347 Y10.249 E6.31482
G1 X107.003 Y9.578 E6.35852
G1 X107.714 Y8.966 E6.4022
G1 X108.535 Y8.377 E6.44925
G1 X108.835 Y8.182 E6.46591
G1 X109.643 Y7.705 E6.5096
G1 X110.488 Y7.298 E6.55327
G1 X111.364 Y6.965 E6.59691
G1 X112.266 Y6.708 E6.64058
G1 X113.187 Y6.528 E6.68428
G1 X114.429 Y6.412 E6.74237
G1 X115.186 Y6.392 E6.77763
G1 X202.404 Y6.393 E10.83886
G1 X203.215 Y6.405 E10.87663
G1 X204.151 Y6.459 E10.92029
G1 X205.079 Y6.592 E10.96394
G1 X205.993 Y6.804 E11.00763
G1 X206.885 Y7.093 E11.05129
G1 X207.75 Y7.457 E11.09499
G1 X208.684 Y7.955 E11.14428
G1 X208.934 Y8.104 E11.15783
G1 X209.718 Y8.618 E11.20148
G1 X210.456 Y9.197 E11.24516
G1 X211.142 Y9.837 E11.28885
G1 X211.77 Y10.533 E11.3325
G1 X212.338 Y11.28 E11.37619
G1 X212.77 Y11.953 E11.41343
G1 X212.909 Y12.188 E11.42614
G1 X213.351 Y13.015 E11.46981
G1 X213.722 Y13.876 E11.51346
G1 X214.018 Y14.766 E11.55714
G1 X214.237 Y15.678 E11.60081
G1 X214.377 Y16.606 E11.64451
G1 X214.44 Y17.615 E11.69159
G1 X214.454 Y18.506 E11.73308
G1 X214.452 Y105.329 E15.77592
G1 X214.44 Y106.167 E15.81495
G1 X214.386 Y107.103 E15.8586
G1 X214.254 Y108.031 E15.90225
G1 X214.042 Y108.945 E15.94594
G1 X213.753 Y109.837 E15.9896
G1 X213.39 Y110.702 E16.03328
G1 X212.891 Y111.639 E16.08271
G1 X212.748 Y111.879 E16.09572
G1 X212.234 Y112.664 E16.13941
G1 X211.655 Y113.402 E16.18309
G1 X211.015 Y114.088 E16.22678
G1 X210.319 Y114.717 E16.27046
G1 X209.573 Y115.284 E16.31409
G1 X208.886 Y115.724 E16.35208
G1 X208.652 Y115.862 E16.36473
G1 X207.824 Y116.304 E16.40844
G1 X206.962 Y116.673 E16.4521
G1 X206.072 Y116.968 E16.49576
G1 X205.16 Y117.186 E16.53942
G1 X204.052 Y117.343 E16.59153
G1 X201.825 Y117.544 E16.69565
G1 X199.314 Y117.835 E16.81335
G1 X196.815 Y118.197 E16.93093
G1 X194.34 Y118.628 E17.04791
G1 X191.888 Y119.124 E17.1644
G1 X189.431 Y119.697 E17.28188
G1 X187.012 Y120.333 E17.39834
G1 X184.564 Y121.051 E17.51714
G1 X182.166 Y121.828 E17.63451
G1 X179.828 Y122.659 E17.75005
G1 X177.471 Y123.573 E17.86777
G1 X175.164 Y124.544 E17.98432
G1 X172.844 Y125.6 E18.10301
G1 X170.571 Y126.711 E18.22082
G1 X168.362 Y127.87 E18.33698
G1 X166.18 Y129.094 E18.45347
G1 X164.005 Y130.399 E18.57158
G1 X161.887 Y131.75 E18.68856
G1 X159.809 Y133.16 E18.80549
G1 X157.751 Y134.645 E18.92366
G1 X155.772 Y136.158 E19.03966
G1 X153.789 Y137.766 E19.15854
G1 X151.91 Y139.378 E19.27382
G1 X150.026 Y141.092 E19.39242
G1 X148.231 Y142.818 E19.50837
G1 X146.452 Y144.63 E19.62662
G1 X144.748 Y146.464 E19.74319
G1 X143.071 Y148.379 E19.86171
G1 X141.48 Y150.3 E19.97786
G1 X139.93 Y152.283 E20.09506
G1 X138.429 Y154.321 E20.21292
G1 X136.997 Y156.384 E20.32985
G1 X135.628 Y158.48 E20.44642
G1 X134.308 Y160.632 E20.56398
G1 X133.048 Y162.824 E20.68171
G1 X131.866 Y165.02 E20.79784
G1 X130.736 Y167.271 E20.91512
G1 X129.663 Y169.569 E21.03321
G1 X128.663 Y171.88 E21.15046
G1 X127.722 Y174.232 E21.26842
G1 X126.868 Y176.554 E21.38363
G1 X126.06 Y178.961 E21.50185
G1 X125.323 Y181.382 E21.61969
G1 X124.671 Y183.763 E21.73464
G1 X124.057 Y186.286 E21.85555
G1 X123.537 Y188.716 E21.97127
G1 X123.089 Y191.147 E22.08637
G1 X122.696 Y193.678 E22.20564
G1 X122.385 Y196.134 E22.32091
G1 X122.185 Y198.322 E22.42322
G1 X122.032 Y199.874 E22.49584
G1 X121.9 Y200.803 E22.53953
G1 X121.69 Y201.717 E22.5832
G1 X121.402 Y202.609 E22.62684
G1 X121.04 Y203.474 E22.67051
G1 X120.423 Y204.621 E22.73115
G1 X119.827 Y205.508 E22.78091
G1 X119.24 Y206.239 E22.82457
G1 X118.593 Y206.918 E22.86824
G1 X117.89 Y207.539 E22.91192
G1 X117.258 Y208.014 E22.94873
G1 X117.043 Y208.164 E22.96094
G1 X116.252 Y208.668 E23.00461
G1 X115.42 Y209.102 E23.04831
G1 X114.555 Y209.464 E23.09197
G1 X113.662 Y209.75 E23.13563
G1 X112.748 Y209.96 E23.1793
G1 X111.819 Y210.091 E23.22299
G1 X110.982 Y210.141 E23.26203
G1 X109.849 Y210.165 E23.3148
G1 X23.156 Y210.276 E27.35159
G1 X22.337 Y210.265 E27.38973
G1 X21.401 Y210.212 E27.43339
G1 X20.472 Y210.08 E27.47708
G1 X19.558 Y209.87 E27.52075
G1 X18.666 Y209.582 E27.56439
G1 X17.801 Y209.219 E27.60807
G1 X16.673 Y208.605 E27.66788
G1 X16.44 Y208.46 E27.68065
G1 X15.666 Y207.931 E27.72431
G1 X14.939 Y207.338 E27.76799
G1 X14.266 Y206.685 E27.81166
G1 X13.65 Y205.978 E27.85532
G1 X13.098 Y205.22 E27.89899
G1 X12.656 Y204.505 E27.93813
G1 X12.212 Y203.679 E27.98179
G1 X11.839 Y202.818 E28.02549
G1 X11.542 Y201.928 E28.06917
G1 X11.321 Y201.017 E28.11282
G1 X11.179 Y200.09 E28.15649
G1 X11.115 Y199.093 E28.20301
G1 X11.093 Y197.833 E28.26169
G1 X10.984 Y111.272 E32.29234
G1 X10.995 Y110.519 E32.32741
G1 X11.049 Y109.583 E32.37106
G1 X11.182 Y108.655 E32.41471
G1 X11.394 Y107.741 E32.4584
G1 X11.683 Y106.849 E32.50207
G1 X12.047 Y105.984 E32.54576
G1 X12.492 Y105.137 E32.59032
G1 X12.688 Y104.801 E32.60843
G1 X13.195 Y104.012 E32.6521
G1 X13.767 Y103.269 E32.69576
G1 X14.4 Y102.577 E32.73943
G1 X15.09 Y101.942 E32.7831
G1 X15.832 Y101.368 E32.82678
G1 X16.62 Y100.859 E32.87046
G1 X17.448 Y100.419 E32.91412
G1 X18.311 Y100.051 E32.95781
G1 X19.628 Y99.646 E33.02197
G1 X19.937 Y99.572 E33.03676
M204 S2000
G0 F7500 X20.03 Y99.961
M204 S500
G1 F1500 X20.934 Y99.786 E33.07964
G1 X21.62 Y99.706 E33.1118
G1 X22.172 Y99.66 E33.13759
G1 X24.684 Y99.414 E33.25512
G1 X27.197 Y99.096 E33.37307
G1 X29.71 Y98.705 E33.49149
G1 X32.198 Y98.246 E33.6093
G1 X34.661 Y97.719 E33.72658
G1 X37.095 Y97.126 E33.84323
G1 X39.549 Y96.454 E33.96171
G1 X41.975 Y95.714 E34.07981
G1 X44.378 Y94.907 E34.19785
G1 X46.758 Y94.032 E34.31592
G1 X49.065 Y93.11 E34.43161
G1 X51.422 Y92.088 E34.55123
G1 X53.7 Y91.024 E34.6683
G1 X55.98 Y89.879 E34.78711
G1 X58.197 Y88.686 E34.90434
G1 X60.367 Y87.438 E35.0209
G1 X62.545 Y86.102 E35.13988
G1 X64.656 Y84.724 E35.25726
G1 X66.744 Y83.274 E35.37563
G1 X68.746 Y81.798 E35.49145
G1 X70.762 Y80.222 E35.6106
G1 X72.708 Y78.611 E35.72824
G1 X74.618 Y76.936 E35.84653
G1 X76.463 Y75.224 E35.96373
G1 X78.258 Y73.46 E36.08092
G1 X80.017 Y71.63 E36.19911
G1 X81.726 Y69.751 E36.31738
G1 X83.377 Y67.827 E36.43544
G1 X84.96 Y65.874 E36.5525
G1 X86.485 Y63.878 E36.66946
G1 X87.983 Y61.802 E36.78867
G1 X89.391 Y59.727 E36.90543
G1 X90.74 Y57.613 E37.0222
G1 X92.058 Y55.411 E37.1417
G1 X93.287 Y53.222 E37.2586
G1 X94.461 Y50.985 E37.37624
G1 X95.584 Y48.689 E37.49525
G1 X96.609 Y46.432 E37.61068
G1 X97.609 Y44.057 E37.73067
G1 X98.527 Y41.689 E37.84893
G1 X99.365 Y39.332 E37.96541
G1 X100.142 Y36.934 E38.08279
G1 X100.854 Y34.504 E38.20069
G1 X101.494 Y32.07 E38.31788
G1 X102.071 Y29.588 E38.43654
G1 X102.576 Y27.095 E38.55498
G1 X103.004 Y24.637 E38.67116
G1 X103.368 Y22.124 E38.78939
G1 X103.659 Y19.607 E38.90738
G1 X103.878 Y17.091 E39.02498
G1 X103.998 Y16.178 E39.06785
G1 X104.094 Y15.696 E39.09074
G1 X104.186 Y15.285 E39.11035
G1 X104.426 Y14.396 E39.15323
G1 X104.742 Y13.531 E39.19611
G1 X105.132 Y12.697 E39.23898
G1 X105.593 Y11.9 E39.28185
G1 X106.121 Y11.146 E39.32472
G1 X106.713 Y10.441 E39.36758
G1 X107.364 Y9.79 E39.41045
G1 X108.068 Y9.197 E39.45331
G1 X108.753 Y8.712 E39.49239
G1 X109.053 Y8.517 E39.50906
G1 X109.846 Y8.05 E39.55191
G1 X110.677 Y7.653 E39.59479
G1 X111.539 Y7.329 E39.63767
G1 X112.425 Y7.081 E39.68051
G1 X113.33 Y6.912 E39.72338
G1 X114.443 Y6.812 E39.77542
G1 X115.186 Y6.792 E39.81003
G1 X202.398 Y6.793 E43.87098
G1 X203.209 Y6.805 E43.90875
G1 X204.128 Y6.859 E43.95162
G1 X205.039 Y6.992 E43.99449
G1 X205.935 Y7.204 E44.03736
G1 X206.809 Y7.492 E44.08021
G1 X207.655 Y7.856 E44.12309
G1 X208.479 Y8.299 E44.16666
G1 X208.729 Y8.448 E44.18021
G1 X209.498 Y8.953 E44.22305
G1 X210.221 Y9.523 E44.26592
G1 X210.892 Y10.154 E44.30881
G1 X211.505 Y10.84 E44.35165
G1 X212.057 Y11.577 E44.39452
G1 X212.426 Y12.157 E44.42653
G1 X212.565 Y12.392 E44.43924
G1 X212.998 Y13.204 E44.48209
G1 X213.36 Y14.05 E44.52494
G1 X213.647 Y14.925 E44.56782
G1 X213.857 Y15.821 E44.61067
G1 X213.988 Y16.733 E44.65358
G1 X214.04 Y17.621 E44.695
G1 X214.055 Y18.679 E44.74427
G1 X214.052 Y105.323 E48.77877
G1 X214.04 Y106.161 E48.8178
G1 X213.987 Y107.08 E48.86066
G1 X213.854 Y107.991 E48.90353
G1 X213.643 Y108.887 E48.9464
G1 X213.355 Y109.761 E48.98924
G1 X212.992 Y110.607 E49.03211
G1 X212.547 Y111.435 E49.07588
G1 X212.404 Y111.675 E49.08889
G1 X211.899 Y112.444 E49.13173
G1 X211.329 Y113.167 E49.1746
G1 X210.698 Y113.838 E49.21749
G1 X210.012 Y114.452 E49.26036
G1 X209.275 Y115.003 E49.30321
G1 X208.683 Y115.379 E49.33586
G1 X208.449 Y115.517 E49.34851
G1 X207.636 Y115.95 E49.3914
G1 X206.789 Y116.311 E49.43428
G1 X205.914 Y116.597 E49.47714
G1 X205.017 Y116.806 E49.52003
G1 X204.016 Y116.944 E49.56708
G1 X201.783 Y117.145 E49.67148
G1 X199.282 Y117.435 E49.78872
G1 X196.755 Y117.801 E49.90761
G1 X194.27 Y118.234 E50.02507
G1 X191.816 Y118.731 E50.14165
G1 X189.31 Y119.315 E50.26147
G1 X186.903 Y119.948 E50.37736
G1 X184.443 Y120.669 E50.49673
G1 X182.046 Y121.446 E50.61406
G1 X179.686 Y122.285 E50.73069
G1 X177.32 Y123.202 E50.84885
G1 X174.98 Y124.187 E50.96707
G1 X172.71 Y125.22 E51.0832
G1 X170.388 Y126.355 E51.20354
G1 X168.187 Y127.51 E51.31929
G1 X165.958 Y128.761 E51.43831
G1 X163.805 Y130.052 E51.5552
G1 X161.652 Y131.426 E51.67413
G1 X159.572 Y132.837 E51.79117
G1 X157.519 Y134.318 E51.90904
G1 X155.523 Y135.845 E52.02606
G1 X153.542 Y137.45 E52.14478
G1 X151.645 Y139.078 E52.26118
G1 X149.761 Y140.792 E52.37978
G1 X147.933 Y142.55 E52.49788
G1 X146.174 Y144.342 E52.6148
G1 X144.438 Y146.21 E52.73354
G1 X142.778 Y148.105 E52.85085
G1 X141.172 Y150.044 E52.96809
G1 X139.596 Y152.063 E53.08735
G1 X138.123 Y154.061 E53.20294
G1 X136.661 Y156.167 E53.32231
G1 X135.285 Y158.274 E53.43949
G1 X133.963 Y160.43 E53.55726
G1 X132.699 Y162.629 E53.67536
G1 X131.499 Y164.857 E53.7932
G1 X130.373 Y167.101 E53.9101
G1 X129.311 Y169.376 E54.02701
G1 X128.296 Y171.721 E54.14599
G1 X127.351 Y174.082 E54.26441
G1 X126.486 Y176.436 E54.38119
G1 X125.677 Y178.844 E54.49947
G1 X124.95 Y181.233 E54.61575
G1 X124.272 Y183.709 E54.73529
G1 X123.671 Y186.179 E54.85366
G1 X123.148 Y188.624 E54.97008
G1 X122.687 Y191.125 E55.0885
G1 X122.303 Y193.598 E55.20504
G1 X121.989 Y196.076 E55.32135
G1 X121.787 Y198.283 E55.42454
G1 X121.634 Y199.835 E55.49716
G1 X121.504 Y200.746 E55.54001
G1 X121.295 Y201.643 E55.5829
G1 X121.01 Y202.518 E55.62575
G1 X120.649 Y203.365 E55.66862
G1 X120.079 Y204.416 E55.72429
G1 X119.495 Y205.284 E55.77301
G1 X118.917 Y206.001 E55.81589
G1 X118.279 Y206.665 E55.85877
G1 X117.586 Y207.27 E55.90161
G1 X117.029 Y207.686 E55.93398
G1 X116.814 Y207.836 E55.94618
G1 X116.037 Y208.33 E55.98906
G1 X115.22 Y208.754 E56.03192
G1 X114.369 Y209.106 E56.0748
G1 X113.491 Y209.382 E56.11766
G1 X112.592 Y209.582 E56.16054
G1 X111.679 Y209.702 E56.20342
G1 X110.973 Y209.741 E56.23634
G1 X109.84 Y209.765 E56.28911
G1 X23.162 Y209.876 E60.32521
G1 X22.343 Y209.865 E60.36335
G1 X21.423 Y209.813 E60.40625
G1 X20.512 Y209.681 E60.44912
G1 X19.616 Y209.47 E60.49198
G1 X18.741 Y209.183 E60.53486
G1 X17.895 Y208.821 E60.57771
G1 X16.884 Y208.266 E60.63141
G1 X16.651 Y208.121 E60.64419
G1 X15.892 Y207.601 E60.68703
G1 X15.18 Y207.017 E60.72991
G1 X14.521 Y206.373 E60.77282
G1 X13.921 Y205.675 E60.81567
G1 X13.384 Y204.928 E60.85851
G1 X13 Y204.301 E60.89275
G1 X12.564 Y203.489 E60.93567
G1 X12.201 Y202.643 E60.97853
G1 X11.912 Y201.769 E61.0214
G1 X11.701 Y200.873 E61.06426
G1 X11.568 Y199.962 E61.10713
G1 X11.515 Y199.085 E61.14804
G1 X11.493 Y197.832 E61.20639
G1 X11.384 Y111.278 E65.23671
G1 X11.395 Y110.525 E65.27178
G1 X11.449 Y109.606 E65.31465
G1 X11.582 Y108.695 E65.35752
G1 X11.793 Y107.799 E65.40038
G1 X12.081 Y106.925 E65.44323
G1 X12.445 Y106.079 E65.48611
G1 X12.838 Y105.339 E65.52513
G1 X13.034 Y105.003 E65.54324
G1 X13.532 Y104.229 E65.5861
G1 X14.095 Y103.5 E65.62899
G1 X14.72 Y102.824 E65.67186
G1 X15.4 Y102.204 E65.71471
G1 X16.132 Y101.646 E65.75757
G1 X16.91 Y101.153 E65.80045
G1 X17.727 Y100.729 E65.84331
G1 X18.578 Y100.378 E65.88618
G1 X19.721 Y100.035 E65.94175
G1 X20.03 Y99.961 E65.95654
M204 S2000
G0 F7500 X20.123 Y100.35
M204 S500
G1 F1500 X21.01 Y100.179 E65.9986
G1 X21.653 Y100.105 E66.02874
G1 X22.177 Y100.061 E66.05323
G1 X24.737 Y99.81 E66.173
G1 X27.243 Y99.493 E66.29062
G1 X29.773 Y99.1 E66.40984
G1 X32.276 Y98.638 E66.52836
G1 X34.741 Y98.11 E66.64575
G1 X37.223 Y97.506 E66.76469
G1 X39.656 Y96.84 E66.88215
G1 X42.081 Y96.1 E67.00021
G1 X44.506 Y95.286 E67.11932
G1 X46.896 Y94.407 E67.2379
G1 X49.236 Y93.472 E67.35523
G1 X51.571 Y92.459 E67.47375
G1 X53.912 Y91.366 E67.59405
G1 X56.143 Y90.246 E67.71029
G1 X58.365 Y89.05 E67.8278
G1 X60.595 Y87.767 E67.94759
G1 X62.767 Y86.435 E68.06623
G1 X64.881 Y85.056 E68.18376
G1 X66.963 Y83.609 E68.30182
G1 X69.006 Y82.103 E68.42001
G1 X71.018 Y80.531 E68.5389
G1 X72.961 Y78.922 E68.65637
G1 X74.87 Y77.247 E68.77463
G1 X76.75 Y75.503 E68.89403
G1 X78.526 Y73.758 E69.00997
G1 X80.318 Y71.893 E69.1304
G1 X82.024 Y70.017 E69.24848
G1 X83.692 Y68.073 E69.36775
G1 X85.259 Y66.14 E69.48362
G1 X86.825 Y64.091 E69.60371
G1 X88.306 Y62.038 E69.72158
G1 X89.716 Y59.961 E69.83847
G1 X91.087 Y57.812 E69.95717
G1 X92.399 Y55.621 E70.07609
G1 X93.64 Y53.41 E70.19415
G1 X94.831 Y51.14 E70.31351
G1 X95.93 Y48.894 E70.42995
G1 X96.99 Y46.56 E70.54931
G1 X97.969 Y44.232 E70.66691
G1 X98.905 Y41.82 E70.78738
G1 X99.736 Y39.484 E70.90283
G1 X100.533 Y37.023 E71.02328
G1 X101.237 Y34.622 E71.13979
G1 X101.886 Y32.148 E71.25889
G1 X102.46 Y29.687 E71.37656
G1 X102.968 Y27.178 E71.49576
G1 X103.4 Y24.692 E71.61325
G1 X103.767 Y22.156 E71.73257
G1 X104.056 Y19.655 E71.8498
