;FLAVOR:Marlin
;TIME:1569
;Filament used: 0.528801m
;Layer height: 0.2
;MINX:87.5
;MINY:93.941
;MINZ:0.2
;MAXX:132.5
;MAXY:126.059
;MAXZ:23
;Generated with Cura_SteamEngine 5.2.0
M82 ;absolute extrusion mode
; Ender 3 S1 Start G-code
G92 E0 ; Reset Extruder
G28 ; Home all axes
G1 Z10.0 F3000 ; Move Z Axis up little to prevent scratching of Heat Bed
G1 X0 Y0

M104 S200
M190 S60
M109 S200

G1 X0.1 Y20 Z0.3 F5000.0 ; Move to start position
G1 X0.1 Y200.0 Z0.3 F1500.0 E15 ; Draw the first line
G1 X0.4 Y200.0 Z0.3 F5000.0 ; Move to side a little
G1 X0.4 Y20 Z0.3 F1500.0 E30 ; Draw the second line
G92 E0 ; Reset Extruder
G1 Z2.0 F3000 ; Move Z Axis up little to prevent scratching of Heat Bed
G1 X5 Y20 Z0.3 F5000.0 ; Move over to prevent blob squish

G92 E0
G92 E0
G1 F2400 E-0.8
;LAYER_COUNT:115
;LAYER:0
M107
M204 S2000
G0 F7500 X90.709 Y97.195 Z0.2
M204 S500
;TYPE:SKIRT
G1 F2400 E0
G1 F1500 X91.398 Y96.559 E0.03119
G1 X92.138 Y95.983 E0.06238
G1 X92.925 Y95.473 E0.09357
G1 X93.753 Y95.032 E0.12477
G1 X94.615 Y94.663 E0.15596
G1 X95.505 Y94.368 E0.18714
G1 X96.418 Y94.151 E0.21835
G1 X97.345 Y94.012 E0.24953
G1 X98.201 Y93.954 E0.27807
G1 X98.83 Y93.941 E0.29899
G1 X107.949 Y93.942 E0.60229
G1 X108.655 Y93.952 E0.62578
G1 X111.95 Y94.05 E0.73542
G1 X113.243 Y94.059 E0.77842
G1 X120.951 Y94.06 E1.03479
G1 X121.649 Y94.07 E1.05801
G1 X122.585 Y94.124 E1.08919
G1 X123.513 Y94.256 E1.12037
G1 X124.427 Y94.468 E1.15158
G1 X125.319 Y94.757 E1.18276
G1 X126.184 Y95.12 E1.21396
G1 X127.014 Y95.556 E1.24515
G1 X127.805 Y96.061 E1.27636
G1 X128.549 Y96.632 E1.30755
G1 X129.242 Y97.264 E1.33875
G1 X129.879 Y97.952 E1.36993
G1 X130.454 Y98.693 E1.40113
G1 X130.965 Y99.479 E1.43231
G1 X131.407 Y100.307 E1.46353
G1 X131.776 Y101.169 E1.49471
G1 X132.071 Y102.059 E1.5259
G1 X132.289 Y102.971 E1.55709
G1 X132.429 Y103.899 E1.5883
G1 X132.486 Y104.753 E1.61677
G1 X132.5 Y105.382 E1.63769
G1 X132.499 Y114.459 E1.9396
G1 X132.49 Y115.186 E1.96378
G1 X132.439 Y116.123 E1.99499
G1 X132.307 Y117.051 E2.02617
G1 X132.098 Y117.965 E2.05735
G1 X131.811 Y118.858 E2.08855
G1 X131.449 Y119.724 E2.11977
G1 X131.015 Y120.555 E2.15095
G1 X130.511 Y121.346 E2.18214
G1 X129.942 Y122.091 E2.21332
G1 X129.311 Y122.786 E2.24454
G1 X128.624 Y123.424 E2.27573
G1 X127.885 Y124.001 E2.30691
G1 X127.099 Y124.513 E2.33811
G1 X126.273 Y124.956 E2.36929
G1 X125.411 Y125.328 E2.40051
G1 X124.522 Y125.624 E2.43168
G1 X123.61 Y125.844 E2.46288
G1 X122.683 Y125.985 E2.49407
G1 X121.799 Y126.046 E2.52354
G1 X121.17 Y126.059 E2.54446
G1 X112.051 Y126.058 E2.84776
G1 X111.346 Y126.048 E2.87121
G1 X108.05 Y125.95 E2.98089
G1 X106.757 Y125.941 E3.02389
G1 X99.207 Y125.941 E3.27501
G1 X98.32 Y125.927 E3.30451
G1 X97.384 Y125.871 E3.3357
G1 X96.456 Y125.736 E3.36689
G1 X95.543 Y125.521 E3.39809
G1 X94.651 Y125.23 E3.42929
G1 X93.788 Y124.864 E3.46047
G1 X92.958 Y124.426 E3.49169
G1 X92.17 Y123.919 E3.52285
G1 X91.427 Y123.346 E3.55406
G1 X90.736 Y122.712 E3.58525
G1 X90.101 Y122.022 E3.61644
G1 X89.527 Y121.28 E3.64764
G1 X89.019 Y120.491 E3.67885
G1 X88.58 Y119.663 E3.71002
G1 X88.213 Y118.8 E3.74121
G1 X87.92 Y117.909 E3.77241
G1 X87.705 Y116.996 E3.80361
G1 X87.568 Y116.068 E3.83481
G1 X87.513 Y115.229 E3.86277
G1 X87.5 Y114.599 E3.88373
G1 X87.501 Y105.461 E4.18766
G1 X87.511 Y104.787 E4.21008
G1 X87.565 Y103.85 E4.2413
G1 X87.699 Y102.922 E4.27248
G1 X87.911 Y102.009 E4.30366
G1 X88.2 Y101.116 E4.33487
G1 X88.564 Y100.252 E4.36606
G1 X89 Y99.422 E4.39724
G1 X89.506 Y98.632 E4.42844
G1 X90.076 Y97.888 E4.45962
G1 X90.709 Y97.195 E4.49083
M204 S2000
G0 F7500 X91.1 Y97.37
M204 S500
G1 F1500 X91.786 Y96.756 E4.52145
G1 X92.522 Y96.203 E4.55207
G1 X93.304 Y95.716 E4.58271
G1 X94.125 Y95.3 E4.61333
G1 X94.979 Y94.955 E4.64396
G1 X95.859 Y94.687 E4.67456
G1 X96.76 Y94.495 E4.7052
G1 X97.674 Y94.383 E4.73582
G1 X98.212 Y94.354 E4.75374
G1 X98.83 Y94.341 E4.7743
G1 X107.943 Y94.342 E5.0774
G1 X108.649 Y94.352 E5.10089
G1 X111.936 Y94.45 E5.21026
G1 X113.24 Y94.459 E5.25363
G1 X120.945 Y94.46 E5.5099
G1 X121.643 Y94.47 E5.53312
G1 X122.562 Y94.523 E5.56374
G1 X123.473 Y94.656 E5.59436
G1 X124.369 Y94.867 E5.62498
G1 X125.243 Y95.155 E5.65558
G1 X126.09 Y95.518 E5.68623
G1 X126.901 Y95.953 E5.71684
G1 X127.671 Y96.457 E5.74745
G1 X128.395 Y97.026 E5.77808
G1 X129.067 Y97.656 E5.80871
G1 X129.682 Y98.341 E5.83933
G1 X130.235 Y99.077 E5.86995
G1 X130.722 Y99.858 E5.90056
G1 X131.139 Y100.679 E5.93119
G1 X131.484 Y101.533 E5.96183
G1 X131.753 Y102.413 E5.99243
G1 X131.945 Y103.314 E6.02307
G1 X132.058 Y104.227 E6.05367
G1 X132.087 Y104.764 E6.07156
G1 X132.1 Y105.382 E6.09212
G1 X132.099 Y114.454 E6.39385
G1 X132.09 Y115.181 E6.41803
G1 X132.039 Y116.1 E6.44865
G1 X131.908 Y117.012 E6.47929
G1 X131.698 Y117.908 E6.5099
G1 X131.412 Y118.783 E6.54052
G1 X131.051 Y119.63 E6.57114
G1 X130.617 Y120.442 E6.60176
G1 X130.115 Y121.214 E6.63239
G1 X129.547 Y121.939 E6.66303
G1 X128.919 Y122.612 E6.69364
G1 X128.235 Y123.228 E6.72426
G1 X127.5 Y123.782 E6.75487
G1 X126.72 Y124.271 E6.78549
G1 X125.9 Y124.69 E6.81612
G1 X125.047 Y125.036 E6.84673
G1 X124.167 Y125.307 E6.87736
G1 X123.267 Y125.5 E6.90797
G1 X122.353 Y125.615 E6.93861
G1 X121.788 Y125.646 E6.95743
G1 X121.17 Y125.659 E6.97799
G1 X112.057 Y125.658 E7.28109
G1 X111.053 Y125.64 E7.31449
G1 X108.064 Y125.55 E7.41395
G1 X106.76 Y125.541 E7.45732
G1 X99.207 Y125.541 E7.70854
G1 X98.327 Y125.527 E7.73781
G1 X97.408 Y125.472 E7.76843
G1 X96.497 Y125.336 E7.79906
G1 X95.602 Y125.123 E7.82966
G1 X94.728 Y124.832 E7.8603
G1 X93.883 Y124.466 E7.89093
G1 X93.073 Y124.029 E7.92154
G1 X92.304 Y123.523 E7.95216
G1 X91.582 Y122.952 E7.98277
G1 X90.912 Y122.321 E8.01339
G1 X90.299 Y121.634 E8.04401
G1 X89.748 Y120.896 E8.07464
G1 X89.263 Y120.113 E8.10528
G1 X88.848 Y119.291 E8.1359
G1 X88.506 Y118.437 E8.1665
G1 X88.24 Y117.555 E8.19714
G1 X88.05 Y116.654 E8.22777
G1 X87.94 Y115.74 E8.25839
G1 X87.913 Y115.218 E8.27577
G1 X87.9 Y114.599 E8.29636
G1 X87.901 Y105.467 E8.6001
G1 X87.911 Y104.793 E8.62251
G1 X87.965 Y103.874 E8.65313
G1 X88.098 Y102.963 E8.68375
G1 X88.31 Y102.067 E8.71438
G1 X88.598 Y101.192 E8.74502
G1 X88.962 Y100.347 E8.77562
G1 X89.397 Y99.535 E8.80626
G1 X89.901 Y98.765 E8.83687
G1 X90.471 Y98.041 E8.86751
G1 X91.1 Y97.37 E8.8981
M204 S2000
G0 F7500 X91.492 Y97.549
M204 S500
G1 F1500 X92.174 Y96.957 E8.92814
G1 X92.906 Y96.428 E8.95818
G1 X93.681 Y95.965 E8.98821
G1 X94.495 Y95.573 E9.01826
G1 X95.34 Y95.255 E9.04828
G1 X96.21 Y95.013 E9.07832
G1 X97.098 Y94.848 E9.10836
G1 X98.223 Y94.754 E9.14591
G1 X98.83 Y94.741 E9.1661
G1 X107.937 Y94.742 E9.469
G1 X108.643 Y94.752 E9.49249
G1 X111.923 Y94.85 E9.60163
G1 X113.237 Y94.859 E9.64533
G1 X120.939 Y94.86 E9.9015
G1 X121.637 Y94.87 E9.92472
G1 X122.539 Y94.923 E9.95477
G1 X123.432 Y95.055 E9.9848
G1 X124.31 Y95.266 E10.01483
G1 X125.166 Y95.554 E10.04487
G1 X125.993 Y95.916 E10.07489
G1 X126.785 Y96.351 E10.10495
G1 X127.536 Y96.853 E10.13499
G1 X128.239 Y97.42 E10.16503
G1 X128.889 Y98.047 E10.19507
G1 X129.481 Y98.729 E10.22511
G1 X130.011 Y99.46 E10.25514
G1 X130.473 Y100.236 E10.28518
G1 X130.866 Y101.049 E10.31521
G1 X131.184 Y101.894 E10.34524
G1 X131.427 Y102.764 E10.37528
G1 X131.592 Y103.652 E10.40532
G1 X131.687 Y104.776 E10.44284
G1 X131.7 Y105.382 E10.463
G1 X131.699 Y114.449 E10.76457
G1 X131.69 Y115.176 E10.78875
G1 X131.639 Y116.078 E10.8188
G1 X131.508 Y116.972 E10.84885
G1 X131.299 Y117.85 E10.87887
G1 X131.013 Y118.707 E10.90892
G1 X130.652 Y119.535 E10.93897
G1 X130.22 Y120.327 E10.96897
G1 X129.719 Y121.079 E10.99903
G1 X129.153 Y121.783 E11.02907
G1 X128.528 Y122.434 E11.05909
G1 X127.847 Y123.028 E11.08914
G1 X127.116 Y123.559 E11.11919
G1 X126.342 Y124.023 E11.14921
G1 X125.529 Y124.417 E11.17925
G1 X124.685 Y124.737 E11.20928
G1 X123.815 Y124.982 E11.23934
G1 X122.928 Y125.148 E11.26935
G1 X121.777 Y125.246 E11.30777
G1 X121.17 Y125.259 E11.32797
G1 X112.062 Y125.258 E11.6309
G1 X111.357 Y125.248 E11.65435
G1 X108.077 Y125.15 E11.76349
G1 X106.763 Y125.141 E11.8072
G1 X99.207 Y125.141 E12.05851
G1 X98.334 Y125.127 E12.08755
G1 X97.432 Y125.072 E12.11761
G1 X96.539 Y124.937 E12.14765
G1 X95.662 Y124.724 E12.17766
G1 X94.807 Y124.433 E12.2077
G1 X93.98 Y124.069 E12.23776
G1 X93.19 Y123.632 E12.26778
G1 X92.441 Y123.128 E12.29781
G1 X91.739 Y122.559 E12.32786
G1 X91.091 Y121.93 E12.3579
G1 X90.501 Y121.246 E12.38795
G1 X89.973 Y120.513 E12.41799
G1 X89.513 Y119.736 E12.44802
G1 X89.123 Y118.922 E12.47804
G1 X88.807 Y118.076 E12.50808
G1 X88.566 Y117.205 E12.53814
G1 X88.404 Y116.317 E12.56816
G1 X88.313 Y115.207 E12.6052
G1 X88.3 Y114.599 E12.62543
G1 X88.301 Y105.473 E12.92896
G1 X88.311 Y104.799 E12.95138
G1 X88.364 Y103.897 E12.98144
G1 X88.497 Y103.004 E13.01146
G1 X88.709 Y102.126 E13.04151
G1 X88.997 Y101.27 E13.07154
G1 X89.36 Y100.443 E13.10158
G1 X89.794 Y99.651 E13.13162
G1 X90.297 Y98.901 E13.16166
G1 X90.864 Y98.198 E13.1917
G1 X91.492 Y97.549 E13.22173
M204 S2000
G1 F2400 E12.42173
;MESH:bottom-test-supports.stl
G0 F7500 X103.83 Y104.276
G0 X103.83 Y109.246
M204 S500
;TYPE:WALL-OUTER
G1 F2400 E13.22173
G1 F1119.4 X104.176 Y109.252 E13.23716
M204 S2000
G0 F7500 X104.828 Y109.401
G0 X104.974 Y109.725
G0 X103.958 Y110.237
G0 X103.798 Y110.671
M204 S500
G1 F1174.2 X103.947 Y110.674 E13.24349
G1 X104.074 Y110.575 E13.25033
G1 X104.131 Y110.447 E13.25628
G1 X104.141 Y110.292 E13.26288
G1 X104.101 Y110.153 E13.26903
G1 F1171.9 X103.987 Y110.048 E13.27563
G1 X103.769 Y110.047 E13.28491
G1 F1188.1 X103.608 Y110.165 E13.29329
G1 F1250 X103.423 Y110.239 E13.30124
G1 F1232 X103.627 Y110.363 E13.31091
G1 F1174.2 X103.692 Y110.57 E13.32013
G1 X103.798 Y110.671 E13.32635
M204 S2000
G0 F7500 X103.891 Y110.437
G0 X103.975 Y111.577
G0 X103.694 Y111.795
M204 S500
;TYPE:WALL-INNER
G1 F1500 X103.19 Y111.642 E13.34387
G1 X103.062 Y111.551 E13.34909
G1 X102.967 Y111.644 E13.35351
G1 X102.739 Y111.752 E13.36191
G1 X102.273 Y111.752 E13.37741
G1 X102.036 Y111.704 E13.38545
G1 X101.85 Y111.579 E13.3929
G1 X101.722 Y111.392 E13.40044
G1 X101.673 Y111.229 E13.4061
G1 X101.673 Y110.803 E13.42027
G1 X101.749 Y110.51 E13.43034
G1 X101.929 Y110.311 E13.43926
G1 X102.193 Y110.203 E13.44875
G1 X102.568 Y110.202 E13.46122
G1 X102.521 Y109.932 E13.47034
G1 X102.8 Y108.458 E13.52023
G1 X102.948 Y108.258 E13.52851
G1 X103.133 Y108.135 E13.5359
G1 X103.291 Y108.088 E13.54138
G1 X104.609 Y108.088 E13.58522
G1 X104.862 Y108.143 E13.59383
G1 X105.053 Y108.283 E13.6017
G1 X105.166 Y108.463 E13.60877
G1 X105.21 Y108.688 E13.6164
G1 X105.21 Y109.057 E13.62867
G1 X105.151 Y109.24 E13.63507
G1 X105.008 Y109.412 E13.64251
G1 X105.259 Y109.791 E13.65762
G1 X105.331 Y110.391 E13.67772
G1 X105.235 Y110.824 E13.69248
G1 X105.137 Y111.044 E13.70049
G1 X104.836 Y111.454 E13.7174
G1 X104.294 Y111.753 E13.73799
G1 X103.694 Y111.795 E13.758
M204 S2000
G0 F7500 X104.174 Y111.362
M204 S500
;TYPE:WALL-OUTER
G1 F1500 X103.739 Y111.392 E13.7725
G1 X103.323 Y111.261 E13.787
G1 F1496.3 X103.099 Y111.039 E13.79752
G1 F1363.6 X102.938 Y110.89 E13.80555
G1 F1204.8 X102.883 Y110.772 E13.81094
G1 F1229.5 X102.808 Y111.254 E13.83073
G1 F1398.6 X102.663 Y111.352 E13.83697
G1 F1500 X102.218 Y111.352 E13.85177
G1 X102.132 Y111.295 E13.85521
G1 X102.075 Y111.187 E13.85927
G1 X102.073 Y110.803 E13.87204
G1 X102.098 Y110.705 E13.8754
G1 X102.24 Y110.605 E13.88118
G1 F1442.3 X102.752 Y110.602 E13.89889
G1 F1265.8 X102.871 Y110.729 E13.90575
G1 F1222 X102.848 Y110.565 E13.91251
G1 F1385.7 X102.934 Y110.352 E13.92078
G1 F1500 X103.054 Y110.298 E13.92516
G1 X103.375 Y110.27 E13.93587
G1 X103.377 Y110.207 E13.93797
G1 X103.068 Y110.163 E13.94835
G1 X102.96 Y110.085 E13.95278
G1 X102.925 Y109.965 E13.95694
G1 X103.178 Y108.61 E14.00279
G1 X103.333 Y108.49 E14.00931
G1 X104.678 Y108.488 E14.05404
G1 X104.81 Y108.637 E14.06066
G1 X104.81 Y109.044 E14.0742
G1 F1379.3 X104.705 Y109.169 E14.0801
G1 F1273.9 X104.212 Y109.246 E14.09965
G1 F1379.3 X104.527 Y109.495 E14.11417
G1 F1500 X104.644 Y109.586 E14.1191
G1 X104.868 Y109.925 E14.13261
G1 X104.93 Y110.355 E14.14706
G1 X104.836 Y110.778 E14.16148
G1 X104.57 Y111.144 E14.17652
G1 X104.174 Y111.362 E14.19156
M204 S2000
G1 F2400 E13.39156
G0 F7500 X104.537 Y111.733
G0 X105.01 Y111.521
G0 X107.7 Y111.521
G0 X107.9 Y114.341
M204 S500
;TYPE:WALL-INNER
G1 F2400 E14.19156
G1 F1500 X107.9 Y105.541 E14.48425
G1 X99.1 Y105.541 E14.77694
G1 X99.101 Y114.34 E15.06959
G1 X107.9 Y114.341 E15.36225
M204 S2000
G0 F7500 X108.3 Y114.741
M204 S500
;TYPE:WALL-OUTER
G1 F1500 X108.3 Y105.141 E15.68155
G1 X98.7 Y105.141 E16.00084
G1 X98.701 Y114.74 E16.32011
G1 X108.3 Y114.741 E16.63937
M204 S2000
G0 F7500 X108.03 Y114.471
G0 X107.8 Y113.981
G0 X107.54 Y113.981
M204 S500
;TYPE:SKIN
G1 F1500 X107.54 Y105.901 E16.90811
G1 X99.461 Y105.902 E17.17682
G1 X99.461 Y107.516 E17.2305
G1 X99.461 Y113.98 E17.4455
G1 X107.54 Y113.981 E17.71421
M204 S2000
G1 F2400 E16.91421
G0 F7500 X107.8 Y113.981
G0 X106.111 Y114.144
G0 X104.169 Y111.946
G0 X102.825 Y112.11
M204 S500
G1 F2400 E17.71421
G1 F1500 X102.237 Y112.108 E17.73376
G1 X101.889 Y112.037 E17.74558
G1 X101.598 Y111.836 E17.75734
G1 X101.392 Y111.542 E17.76928
G1 X101.315 Y111.285 E17.7782
G1 X101.313 Y110.807 E17.7941
G1 X101.319 Y110.757 E17.79578
G1 X101.428 Y110.334 E17.81031
G1 X101.724 Y110.016 E17.82475
G1 X102.072 Y109.867 E17.83735
G1 X102.168 Y109.85 E17.84059
G1 X102.428 Y108.487 E17.88674
G1 X102.512 Y108.25 E17.8951
G1 X102.697 Y107.997 E17.90553
G1 X102.958 Y107.82 E17.91602
G1 X103.235 Y107.73 E17.9257
G1 X104.651 Y107.732 E17.9728
G1 X105.013 Y107.812 E17.98513
G1 X105.319 Y108.037 E17.99776
G1 X105.503 Y108.328 E18.00921
G1 X105.567 Y108.654 E18.02026
G1 X105.568 Y109.113 E18.03553
G1 X105.49 Y109.367 E18.04437
G1 X105.447 Y109.441 E18.04721
G1 X105.618 Y109.734 E18.0585
G1 X105.694 Y110.401 E18.08083
G1 X105.591 Y110.892 E18.09751
G1 X105.427 Y111.259 E18.11088
G1 X105.08 Y111.73 E18.13034
G1 X104.556 Y112.018 E18.15023
G1 X104.279 Y112.113 E18.15997
G1 X103.648 Y112.159 E18.18101
G1 X103.083 Y111.986 E18.20066
G1 X102.825 Y112.11 E18.21018
M204 S2000
G1 F2400 E17.41018
G0 F7500 X103.503 Y111.842
G0 X103.205 Y111.836
G0 X102.951 Y114.141
G0 X100.202 Y113.779
M204 S500
G1 F2400 E18.21018
G1 F1500 X99.661 Y113.237 E18.23565
M204 S2000
G0 F7500 X99.661 Y112.671
M204 S500
G1 F1500 X100.768 Y113.779 E18.28775
M204 S2000
G0 F7500 X101.334 Y113.779
M204 S500
G1 F1500 X99.661 Y112.106 E18.36644
M204 S2000
G0 F7500 X99.661 Y111.54
M204 S500
G1 F1500 X101.899 Y113.779 E18.47173
M204 S2000
G0 F7500 X102.465 Y113.779
M204 S500
G1 F1500 X99.661 Y110.974 E18.60365
M204 S2000
G0 F7500 X99.661 Y110.409
M204 S500
G1 F1500 X103.031 Y113.779 E18.76216
M204 S2000
G0 F7500 X103.597 Y113.779
M204 S500
G1 F1500 X102.101 Y112.283 E18.83253
M204 S2000
G0 F7500 X102.69 Y112.307
M204 S500
G1 F1500 X104.163 Y113.779 E18.90179
M204 S2000
G0 F7500 X104.728 Y113.779
M204 S500
G1 F1500 X103.169 Y112.22 E18.97512
M204 S2000
G0 F7500 X103.858 Y112.343
M204 S500
G1 F1500 X105.294 Y113.779 E19.04267
M204 S2000
G0 F7500 X105.86 Y113.779
M204 S500
G1 F1500 X104.371 Y112.29 E19.1127
M204 S2000
G0 F7500 X104.774 Y112.128
M204 S500
G1 F1500 X106.425 Y113.779 E19.19036
M204 S2000
G0 F7500 X106.991 Y113.779
M204 S500
G1 F1500 X105.138 Y111.926 E19.27752
M204 S2000
G0 F7500 X105.403 Y111.625
M204 S500
G1 F1500 X107.34 Y113.562 E19.36863
M204 S2000
G0 F7500 X107.34 Y112.997
M204 S500
G1 F1500 X105.635 Y111.292 E19.44883
M204 S2000
G0 F7500 X105.795 Y110.887
M204 S500
G1 F1500 X107.34 Y112.431 E19.52148
M204 S2000
G0 F7500 X107.34 Y111.865
M204 S500
G1 F1500 X105.896 Y110.421 E19.5894
M204 S2000
G0 F7500 X105.825 Y109.785
M204 S500
G1 F1500 X107.34 Y111.3 E19.66066
M204 S2000
G0 F7500 X107.34 Y110.734
M204 S500
G1 F1500 X105.761 Y109.156 E19.73491
M204 S2000
G0 F7500 X105.756 Y108.584
M204 S500
G1 F1500 X107.34 Y110.168 E19.80942
M204 S2000
G0 F7500 X107.34 Y109.602
M204 S500
G1 F1500 X103.838 Y106.101 E19.97412
M204 S2000
G0 F7500 X103.272 Y106.101
M204 S500
G1 F1500 X104.711 Y107.539 E20.04178
M204 S2000
G0 F7500 X104.134 Y107.528
M204 S500
