;FLAVOR:Marlin
;TIME:27494
;Filament used: 22.0945m
;Layer height: 0.2
;MINX:19
;MINY:19
;MINZ:0.2
;MAXX:201
;MAXY:201
;MAXZ:30
;Generated with Cura_SteamEngine 5.2.0
M82 ;absolute extrusion mode
; Ender 3 S1 Start G-code
G92 E0 ; Reset Extruder
G28 ; Home all axes
G1 Z10.0 F3000 ; Move Z Axis up little to prevent scratching of Heat Bed
G1 X0 Y0

M104 S200
M190 S60
M109 S200

G1 X0.1 Y20 Z0.3 F5000.0 ; Move to start position
G1 X0.1 Y200.0 Z0.3 F1500.0 E15 ; Draw the first line
G1 X0.4 Y200.0 Z0.3 F5000.0 ; Move to side a little
G1 X0.4 Y20 Z0.3 F1500.0 E30 ; Draw the second line
G92 E0 ; Reset Extruder
G1 Z2.0 F3000 ; Move Z Axis up little to prevent scratching of Heat Bed
G1 X5 Y20 Z0.3 F5000.0 ; Move over to prevent blob squish

G92 E0
G92 E0
G1 F2400 E-0.8
;LAYER_COUNT:150
;LAYER:0
M107
M204 S2000
G0 F7500 X22.198 Y22.264 Z0.2
M204 S500
;TYPE:SKIRT
G1 F2400 E0
G1 F1500 X22.886 Y21.627 E0.03119
G1 X23.626 Y21.051 E0.06237
G1 X24.412 Y20.539 E0.09357
G1 X25.239 Y20.097 E0.12476
G1 X26.101 Y19.727 E0.15596
G1 X26.991 Y19.431 E0.18716
G1 X27.903 Y19.213 E0.21835
G1 X28.83 Y19.072 E0.24953
G1 X29.701 Y19.013 E0.27857
G1 X30.33 Y19 E0.29949
G1 X189.451 Y19.001 E5.59188
G1 X190.149 Y19.011 E5.6151
G1 X191.085 Y19.065 E5.64628
G1 X192.013 Y19.197 E5.67746
G1 X192.927 Y19.409 E5.70866
G1 X193.819 Y19.698 E5.73985
G1 X194.684 Y20.061 E5.77105
G1 X195.514 Y20.497 E5.80223
G1 X196.305 Y21.002 E5.83345
G1 X197.049 Y21.573 E5.86464
G1 X197.742 Y22.205 E5.89584
G1 X198.379 Y22.893 E5.92702
G1 X198.954 Y23.634 E5.95822
G1 X199.465 Y24.42 E5.9894
G1 X199.907 Y25.248 E6.02062
G1 X200.276 Y26.11 E6.0518
G1 X200.571 Y27 E6.08299
G1 X200.789 Y27.912 E6.11417
G1 X200.929 Y28.84 E6.14539
G1 X200.987 Y29.701 E6.17409
G1 X201 Y30.33 E6.19502
G1 X200.999 Y189.4 E11.48571
G1 X200.99 Y190.127 E11.50989
G1 X200.939 Y191.064 E11.5411
G1 X200.807 Y191.992 E11.57228
G1 X200.598 Y192.906 E11.60346
G1 X200.311 Y193.799 E11.63466
G1 X199.949 Y194.665 E11.66588
G1 X199.515 Y195.496 E11.69706
G1 X199.011 Y196.287 E11.72825
G1 X198.442 Y197.032 E11.75943
G1 X197.811 Y197.727 E11.79065
G1 X197.124 Y198.365 E11.82184
G1 X196.385 Y198.942 E11.85302
G1 X195.599 Y199.454 E11.88422
G1 X194.773 Y199.897 E11.9154
G1 X193.911 Y200.269 E11.94662
G1 X193.022 Y200.565 E11.97779
G1 X192.11 Y200.785 E12.00899
G1 X191.183 Y200.926 E12.04018
G1 X190.299 Y200.987 E12.06965
G1 X189.67 Y201 E12.09057
G1 X30.565 Y200.999 E17.38243
G1 X29.867 Y200.99 E17.40564
G1 X28.931 Y200.938 E17.43682
G1 X28.002 Y200.806 E17.46803
G1 X27.088 Y200.596 E17.49922
G1 X26.195 Y200.309 E17.53042
G1 X25.33 Y199.946 E17.56162
G1 X24.499 Y199.512 E17.5928
G1 X23.708 Y199.008 E17.624
G1 X22.963 Y198.438 E17.6552
G1 X22.269 Y197.807 E17.6864
G1 X21.632 Y197.12 E17.71756
G1 X21.055 Y196.38 E17.74877
G1 X20.543 Y195.594 E17.77997
G1 X20.1 Y194.767 E17.81117
G1 X19.729 Y193.906 E17.84235
G1 X19.433 Y193.016 E17.87355
G1 X19.214 Y192.104 E17.90474
G1 X19.073 Y191.177 E17.93593
G1 X19.013 Y190.288 E17.96557
G1 X19 Y189.658 E17.98652
G1 X19.001 Y30.525 E23.27931
G1 X19.01 Y29.86 E23.30143
G1 X19.063 Y28.924 E23.33261
G1 X19.195 Y27.995 E23.36382
G1 X19.406 Y27.081 E23.39502
G1 X19.694 Y26.189 E23.4262
G1 X20.057 Y25.324 E23.4574
G1 X20.492 Y24.493 E23.48859
G1 X20.996 Y23.703 E23.51976
G1 X21.566 Y22.958 E23.55096
G1 X22.198 Y22.264 E23.58218
M204 S2000
G0 F7500 X22.589 Y22.439
M204 S500
G1 F1500 X23.274 Y21.823 E23.61282
G1 X24.01 Y21.27 E23.64344
G1 X24.791 Y20.782 E23.67407
G1 X25.611 Y20.364 E23.70468
G1 X26.465 Y20.019 E23.73532
G1 X27.345 Y19.749 E23.76593
G1 X28.245 Y19.557 E23.79654
G1 X29.159 Y19.443 E23.82717
G1 X29.712 Y19.413 E23.84559
G1 X30.33 Y19.4 E23.86615
G1 X189.445 Y19.401 E29.15834
G1 X190.143 Y19.411 E29.18156
G1 X191.062 Y19.464 E29.21218
G1 X191.973 Y19.597 E29.2428
G1 X192.869 Y19.808 E29.27341
G1 X193.743 Y20.096 E29.30402
G1 X194.59 Y20.459 E29.33467
G1 X195.401 Y20.894 E29.36528
G1 X196.171 Y21.398 E29.39589
G1 X196.895 Y21.967 E29.42651
G1 X197.567 Y22.597 E29.45715
G1 X198.182 Y23.282 E29.48777
G1 X198.735 Y24.018 E29.51839
G1 X199.222 Y24.799 E29.549
G1 X199.639 Y25.62 E29.57963
G1 X199.984 Y26.474 E29.61026
G1 X200.253 Y27.354 E29.64087
G1 X200.445 Y28.255 E29.67151
G1 X200.558 Y29.168 E29.70211
G1 X200.587 Y29.712 E29.72023
G1 X200.6 Y30.33 E29.74079
G1 X200.599 Y189.395 E35.03131
G1 X200.59 Y190.122 E35.05549
G1 X200.539 Y191.041 E35.0861
G1 X200.408 Y191.953 E35.11675
G1 X200.198 Y192.849 E35.14736
G1 X199.912 Y193.724 E35.17797
G1 X199.551 Y194.571 E35.2086
G1 X199.117 Y195.383 E35.23922
G1 X198.615 Y196.155 E35.26985
G1 X198.047 Y196.88 E35.30048
G1 X197.419 Y197.553 E35.3311
G1 X196.735 Y198.169 E35.36171
G1 X196 Y198.723 E35.39233
G1 X195.22 Y199.212 E35.42295
G1 X194.4 Y199.631 E35.45357
G1 X193.547 Y199.977 E35.48419
G1 X192.667 Y200.248 E35.51481
G1 X191.767 Y200.441 E35.54543
G1 X190.853 Y200.556 E35.57607
G1 X190.288 Y200.587 E35.59489
G1 X189.67 Y200.6 E35.61545
G1 X30.57 Y200.599 E40.90714
G1 X29.872 Y200.59 E40.93035
G1 X28.953 Y200.538 E40.96097
G1 X28.042 Y200.407 E40.99158
G1 X27.146 Y200.197 E41.02219
G1 X26.271 Y199.91 E41.05282
G1 X25.424 Y199.548 E41.08345
G1 X24.612 Y199.114 E41.11408
G1 X23.841 Y198.612 E41.14468
G1 X23.116 Y198.044 E41.17531
G1 X22.443 Y197.415 E41.20595
G1 X21.828 Y196.731 E41.23654
G1 X21.274 Y195.996 E41.26715
G1 X20.786 Y195.215 E41.29778
G1 X20.367 Y194.395 E41.32841
G1 X20.021 Y193.542 E41.35903
G1 X19.751 Y192.662 E41.38964
G1 X19.558 Y191.761 E41.42029
G1 X19.444 Y190.848 E41.45089
G1 X19.413 Y190.277 E41.46991
G1 X19.4 Y189.658 E41.4905
G1 X19.401 Y30.531 E46.78309
G1 X19.41 Y29.866 E46.80521
G1 X19.462 Y28.946 E46.83586
G1 X19.594 Y28.035 E46.86647
G1 X19.805 Y27.139 E46.89709
G1 X20.092 Y26.264 E46.92772
G1 X20.455 Y25.418 E46.95834
G1 X20.889 Y24.606 E46.98896
G1 X21.392 Y23.835 E47.01958
G1 X21.961 Y23.111 E47.05021
G1 X22.589 Y22.439 E47.0808
M204 S2000
G0 F7500 X22.981 Y22.617
M204 S500
G1 F1500 X23.662 Y22.024 E47.11083
G1 X24.394 Y21.494 E47.14089
G1 X25.169 Y21.031 E47.17092
G1 X25.982 Y20.638 E47.20095
G1 X26.827 Y20.318 E47.231
G1 X27.696 Y20.075 E47.26101
G1 X28.584 Y19.909 E47.29106
G1 X29.723 Y19.813 E47.32908
G1 X30.33 Y19.8 E47.34927
G1 X189.439 Y19.801 E52.64126
G1 X190.137 Y19.811 E52.66448
G1 X191.039 Y19.864 E52.69453
G1 X191.932 Y19.996 E52.72455
G1 X192.81 Y20.207 E52.75459
G1 X193.666 Y20.495 E52.78463
G1 X194.493 Y20.857 E52.81465
G1 X195.285 Y21.292 E52.84471
G1 X196.036 Y21.794 E52.87475
G1 X196.739 Y22.361 E52.90479
G1 X197.389 Y22.988 E52.93483
G1 X197.981 Y23.67 E52.96486
G1 X198.511 Y24.401 E52.9949
G1 X198.973 Y25.177 E53.02493
G1 X199.366 Y25.99 E53.05497
G1 X199.684 Y26.835 E53.085
G1 X199.927 Y27.705 E53.11504
G1 X200.092 Y28.593 E53.14508
G1 X200.187 Y29.723 E53.1828
G1 X200.2 Y30.33 E53.20299
G1 X200.199 Y189.39 E58.49335
G1 X200.19 Y190.117 E58.51753
G1 X200.139 Y191.019 E58.54758
G1 X200.008 Y191.913 E58.57763
G1 X199.799 Y192.791 E58.60765
G1 X199.513 Y193.648 E58.6377
G1 X199.152 Y194.476 E58.66774
G1 X198.72 Y195.268 E58.69775
G1 X198.219 Y196.02 E58.7278
G1 X197.653 Y196.724 E58.75785
G1 X197.028 Y197.375 E58.78786
G1 X196.347 Y197.969 E58.81792
G1 X195.616 Y198.5 E58.84797
G1 X194.842 Y198.964 E58.87798
G1 X194.029 Y199.358 E58.90803
G1 X193.185 Y199.678 E58.93805
G1 X192.315 Y199.923 E58.96811
G1 X191.428 Y200.089 E58.99813
G1 X190.277 Y200.187 E59.03655
G1 X189.67 Y200.2 E59.05674
G1 X30.575 Y200.199 E64.34826
G1 X29.877 Y200.19 E64.37148
G1 X28.976 Y200.139 E64.4015
G1 X28.082 Y200.007 E64.43155
G1 X27.204 Y199.798 E64.46157
G1 X26.347 Y199.511 E64.49163
G1 X25.52 Y199.15 E64.52164
G1 X24.727 Y198.717 E64.5517
G1 X23.976 Y198.216 E64.58172
G1 X23.272 Y197.65 E64.61177
G1 X22.621 Y197.024 E64.64181
G1 X22.028 Y196.343 E64.67184
G1 X21.498 Y195.612 E64.70187
G1 X21.034 Y194.837 E64.73191
G1 X20.64 Y194.024 E64.76196
G1 X20.32 Y193.18 E64.79198
G1 X20.076 Y192.31 E64.82204
G1 X19.91 Y191.422 E64.85208
G1 X19.813 Y190.267 E64.89063
G1 X19.8 Y189.658 E64.91089
G1 X19.801 Y30.536 E70.20331
G1 X19.81 Y29.871 E70.22543
G1 X19.862 Y28.969 E70.25548
G1 X19.994 Y28.076 E70.28551
G1 X20.204 Y27.198 E70.31553
G1 X20.491 Y26.341 E70.34559
G1 X20.853 Y25.514 E70.37562
G1 X21.286 Y24.722 E70.40564
G1 X21.788 Y23.971 E70.43569
G1 X22.355 Y23.267 E70.46575
G1 X22.981 Y22.617 E70.49577
M204 S2000
G1 F2400 E69.69577
G0 F7500 X32.6 Y32.6
M204 S500
G1 F2400 E70.49577
G1 F1500 X33.184 Y32.6 E70.51519
G1 X33.021 Y32.715 E70.52183
G1 X32.7 Y33.038 E70.53697
G1 X32.6 Y33.183 E70.54283
G1 X32.6 Y32.6 E70.56222
M204 S2000
G0 F7500 X32.2 Y32.2
M204 S500
G1 F1500 X187.8 Y32.2 E75.7375
G1 X187.8 Y187.8 E80.91277
G1 X32.2 Y187.8 E86.08805
G1 X32.2 Y32.2 E91.26333
M204 S2000
G0 F7500 X31.8 Y31.8
M204 S500
G1 F1500 X188.2 Y31.8 E96.46521
G1 X188.2 Y188.2 E101.6671
G1 X31.8 Y188.2 E106.86898
G1 X31.8 Y31.8 E112.07087
M204 S2000
G0 F7500 X31.4 Y31.4
M204 S500
G1 F1500 X188.6 Y31.4 E117.29936
G1 X188.6 Y188.6 E122.52786
G1 X31.4 Y188.6 E127.75635
G1 X31.4 Y31.4 E132.98484
M204 S2000
G0 F7500 X31 Y31
M204 S500
G1 F1500 X189 Y31 E138.23994
G1 X189 Y189 E143.49504
G1 X31 Y189 E148.75015
G1 X31 Y31 E154.00525
M204 S2000
G0 F7500 X30.6 Y30.6
M204 S500
G1 F1500 X189.4 Y30.6 E159.28696
G1 X189.4 Y189.4 E164.56867
G1 X30.6 Y189.4 E169.85038
G1 X30.6 Y30.6 E175.13208
M204 S2000
G0 F7500 X30.2 Y30.2
M204 S500
G1 F1500 X189.8 Y30.2 E180.4404
G1 X189.8 Y189.8 E185.74872
G1 X30.2 Y189.8 E191.05704
G1 X30.2 Y30.2 E196.36535
M204 S2000
G1 F2400 E195.56535
G0 F7500 X33.18 Y33.11
M204 S500
G1 F2400 E196.36535
G1 F1500 X32.906 Y33.427 E196.37929
G1 X32.697 Y33.79 E196.39322
G1 X32.561 Y34.187 E196.40718
G1 X32.5 Y34.7 E196.42436
G1 X32.5 Y185.3 E201.43334
G1 X32.54 Y185.717 E201.44727
G1 X32.658 Y186.119 E201.46121
G1 X32.851 Y186.491 E201.47515
G1 X33.11 Y186.82 E201.48907
G1 X33.427 Y187.094 E201.50301
G1 X33.79 Y187.303 E201.51694
G1 X34.187 Y187.439 E201.5309
G1 X34.7 Y187.5 E201.54808
G1 X185.3 Y187.5 E206.55706
G1 X185.717 Y187.46 E206.57099
G1 X186.119 Y187.342 E206.58492
G1 X186.491 Y187.149 E206.59886
G1 X186.82 Y186.89 E206.61279
G1 X187.094 Y186.573 E206.62673
G1 X187.303 Y186.21 E206.64066
G1 X187.439 Y185.813 E206.65462
G1 X187.5 Y185.3 E206.6718
G1 X187.5 Y34.7 E211.68077
G1 X187.46 Y34.283 E211.69471
G1 X187.342 Y33.881 E211.70864
G1 X187.149 Y33.509 E211.72258
G1 X186.89 Y33.18 E211.73651
G1 X186.573 Y32.906 E211.75044
G1 X186.21 Y32.697 E211.76438
G1 X185.813 Y32.561 E211.77833
G1 X185.3 Y32.5 E211.79552
G1 X34.7 Y32.5 E216.80449
G1 X34.283 Y32.54 E216.81842
G1 X33.881 Y32.658 E216.83236
G1 X33.509 Y32.851 E216.8463
G1 X33.18 Y33.11 E216.86022
M204 S2000
G0 F7500 X33.355 Y33.503
M204 S500
G1 F1500 X33.135 Y33.812 E216.87284
G1 X32.983 Y34.159 E216.88544
G1 X32.9 Y34.7 E216.90365
G1 X32.9 Y185.3 E221.91262
G1 X32.94 Y185.677 E221.92523
G1 X33.058 Y186.037 E221.93783
G1 X33.248 Y186.364 E221.95041
G1 X33.503 Y186.645 E221.96303
G1 X33.812 Y186.865 E221.97565
G1 X34.159 Y187.017 E221.98825
G1 X34.7 Y187.1 E222.00645
G1 X185.3 Y187.1 E227.01543
G1 X185.677 Y187.06 E227.02804
G1 X186.037 Y186.942 E227.04064
G1 X186.364 Y186.752 E227.05322
G1 X186.645 Y186.497 E227.06584
G1 X186.865 Y186.188 E227.07845
G1 X187.017 Y185.841 E227.09105
G1 X187.1 Y185.3 E227.10926
G1 X187.1 Y34.7 E232.11823
G1 X187.06 Y34.323 E232.13084
G1 X186.942 Y33.963 E232.14344
G1 X186.752 Y33.636 E232.15602
G1 X186.497 Y33.355 E232.16864
G1 X186.188 Y33.135 E232.18126
G1 X185.841 Y32.983 E232.19386
G1 X185.3 Y32.9 E232.21206
G1 X34.7 Y32.9 E237.22104
G1 X34.323 Y32.94 E237.23365
G1 X33.963 Y33.058 E237.24625
G1 X33.636 Y33.248 E237.25883
G1 X33.355 Y33.503 E237.27145
M204 S2000
G0 F7500 X33.556 Y33.893
M204 S500
G1 F1500 X33.397 Y34.187 E237.28257
G1 X33.3 Y34.561 E237.29542
G1 X33.3 Y185.3 E242.30902
G1 X33.34 Y185.632 E242.32014
G1 X33.457 Y185.944 E242.33122
G1 X33.645 Y186.221 E242.34236
G1 X33.893 Y186.444 E242.35345
G1 X34.187 Y186.603 E242.36457
G1 X34.561 Y186.7 E242.37742
G1 X185.3 Y186.7 E247.39102
G1 X185.632 Y186.66 E247.40214
G1 X185.944 Y186.543 E247.41322
G1 X186.221 Y186.355 E247.42436
G1 X186.444 Y186.107 E247.43545
G1 X186.603 Y185.813 E247.44657
G1 X186.7 Y185.439 E247.45942
G1 X186.7 Y34.7 E252.47302
G1 X186.66 Y34.368 E252.48414
G1 X186.543 Y34.056 E252.49522
G1 X186.355 Y33.779 E252.50636
G1 X186.107 Y33.556 E252.51745
G1 X185.813 Y33.397 E252.52856
G1 X185.439 Y33.3 E252.54142
G1 X34.7 Y33.3 E257.55502
G1 X34.368 Y33.34 E257.56614
G1 X34.056 Y33.457 E257.57722
G1 X33.779 Y33.645 E257.58835
G1 X33.556 Y33.893 E257.59945
M204 S2000
G0 F7500 X33.949 Y34.039
M204 S500
G1 F1500 X33.795 Y34.275 E257.60882
G1 X33.7 Y34.584 E257.61957
G1 X33.7 Y185.3 E262.63241
G1 X33.74 Y185.579 E262.64178
G1 X33.856 Y185.836 E262.65116
G1 X34.039 Y186.051 E262.66055
G1 X34.275 Y186.205 E262.66992
G1 X34.584 Y186.3 E262.68068
G1 X185.3 Y186.3 E267.69351
G1 X185.579 Y186.26 E267.70288
G1 X185.836 Y186.144 E267.71226
G1 X186.051 Y185.961 E267.72165
G1 X186.205 Y185.725 E267.73103
G1 X186.3 Y185.416 E267.74178
G1 X186.3 Y34.7 E272.75461
G1 X186.26 Y34.421 E272.76399
G1 X186.144 Y34.164 E272.77337
G1 X185.961 Y33.949 E272.78276
G1 X185.725 Y33.795 E272.79213
G1 X185.416 Y33.7 E272.80288
G1 X34.7 Y33.7 E277.81572
G1 X34.421 Y33.74 E277.82509
G1 X34.164 Y33.856 E277.83447
G1 X33.949 Y34.039 E277.84386
M204 S2000
G0 F7500 X34.299 Y34.253
M204 S500
G1 F1500 X34.166 Y34.426 E277.85112
G1 X34.1 Y34.7 E277.86049
G1 X34.1 Y185.3 E282.86947
G1 X34.14 Y185.515 E282.87674
G1 X34.253 Y185.701 E282.88398
G1 X34.426 Y185.834 E282.89124
G1 X34.7 Y185.9 E282.90061
G1 X185.3 Y185.9 E287.90959
G1 X185.515 Y185.86 E287.91686
G1 X185.701 Y185.747 E287.9241
G1 X185.834 Y185.574 E287.93136
G1 X185.9 Y185.3 E287.94073
G1 X185.9 Y34.7 E292.94971
G1 X185.86 Y34.485 E292.95698
G1 X185.747 Y34.299 E292.96422
G1 X185.574 Y34.166 E292.97148
G1 X185.3 Y34.1 E292.98085
G1 X34.7 Y34.1 E297.98983
G1 X34.485 Y34.14 E297.9971
G1 X34.299 Y34.253 E298.00434
M204 S2000
G0 F7500 X34.581 Y34.539
M204 S500
G1 F1500 X34.5 Y34.7 E298.01033
G1 X34.5 Y185.3 E303.01931
G1 X34.539 Y185.419 E303.02348
G1 X34.7 Y185.5 E303.02947
G1 X185.3 Y185.5 E308.03845
G1 X185.419 Y185.461 E308.04261
G1 X185.5 Y185.3 E308.04861
G1 X185.5 Y34.7 E313.05758
G1 X185.461 Y34.581 E313.06175
G1 X185.3 Y34.5 E313.06774
G1 X34.7 Y34.5 E318.07672
G1 X34.581 Y34.539 E318.08088
M204 S2000
G1 F2400 E317.28088
G0 F7500 X186.817 Y32.6
M204 S500
G1 F2400 E318.08088
G1 F1500 X187.4 Y32.6 E318.10027
G1 X187.4 Y33.184 E318.1197
G1 X187.285 Y33.021 E318.12633
G1 X186.962 Y32.7 E318.14148
G1 X186.817 Y32.6 E318.14734
M204 S2000
G1 F2400 E317.34734
G0 F7500 X187.4 Y186.817
M204 S500
G1 F2400 E318.14734
G1 F1500 X187.4 Y187.4 E318.16673
G1 X186.816 Y187.4 E318.18615
G1 X186.979 Y187.285 E318.19279
G1 X187.3 Y186.962 E318.20793
G1 X187.4 Y186.817 E318.21379
M204 S2000
G1 F2400 E317.41379
G0 F7500 X33.183 Y187.4
M204 S500
G1 F2400 E318.21379
G1 F1500 X32.6 Y187.4 E318.23318
G1 X32.6 Y186.816 E318.25261
G1 X32.715 Y186.979 E318.25924
G1 X33.038 Y187.3 E318.27439
G1 X33.183 Y187.4 E318.28024
M204 S2000
G1 F2400 E317.48024
;MESH:final-led-box-lid.stl
G0 F7500 X35.914 Y185.165
G0 X36.101 Y183.899
M204 S500
;TYPE:WALL-INNER
G1 F2400 E318.28024
G1 F1500 X183.9 Y183.9 E323.19606
G1 X183.9 Y36.1 E328.11191
G1 X36.101 Y36.101 E333.02772
G1 X36.101 Y183.899 E337.9435
M204 S2000
G0 F7500 X35.701 Y184.299
M204 S500
;TYPE:WALL-OUTER
G1 F1500 X184.3 Y184.3 E342.88593
G1 X184.3 Y35.7 E347.82838
G1 X35.701 Y35.701 E352.7708
G1 X35.701 Y184.299 E357.71319
M204 S2000
G1 F2400 E356.91319
G0 F7500 X35.97 Y184.03
G0 X35.92 Y165.359
G0 X54.219 Y165
G0 X54.518 Y165.359
M204 S500
;TYPE:WALL-INNER
G1 F2400 E357.71319
G1 F1500 X54.402 Y165.05 E357.72417
G1 X54.4 Y55 E361.38445
G1 X54.469 Y54.719 E361.39407
G1 X54.641 Y54.518 E361.40287
G1 X54.95 Y54.402 E361.41385
G1 X165.104 Y54.408 E365.07759
G1 X165.281 Y54.469 E365.08381
G1 X165.482 Y54.641 E365.09261
G1 X165.599 Y54.95 E365.1036
G1 X165.599 Y165.05 E368.76554
G1 X165.482 Y165.359 E368.77653
G1 X165.359 Y165.482 E368.78232
G1 X165.05 Y165.598 E368.7933
