;FLAVOR:Marlin
;TIME:25885
;Filament used: 20.0751m
;Layer height: 0.2
;MINX:19
;MINY:19
;MINZ:0.2
;MAXX:201
;MAXY:201
;MAXZ:35
;Generated with Cura_SteamEngine 5.2.0
M82 ;absolute extrusion mode
; Ender 3 S1 Start G-code
G92 E0 ; Reset Extruder
G28 ; Home all axes
G1 Z10.0 F3000 ; Move Z Axis up little to prevent scratching of Heat Bed
G1 X0 Y0

M104 S200
M190 S60
M109 S200

G1 X0.1 Y20 Z0.3 F5000.0 ; Move to start position
G1 X0.1 Y200.0 Z0.3 F1500.0 E15 ; Draw the first line
G1 X0.4 Y200.0 Z0.3 F5000.0 ; Move to side a little
G1 X0.4 Y20 Z0.3 F1500.0 E30 ; Draw the second line
G92 E0 ; Reset Extruder
G1 Z2.0 F3000 ; Move Z Axis up little to prevent scratching of Heat Bed
G1 X5 Y20 Z0.3 F5000.0 ; Move over to prevent blob squish

G92 E0
G92 E0
G1 F2400 E-0.8
;LAYER_COUNT:175
;LAYER:0
M107
M204 S2000
G0 F7500 X22.198 Y22.264 Z0.2
M204 S500
;TYPE:SKIRT
G1 F2400 E0
G1 F1500 X22.886 Y21.627 E0.03119
G1 X23.626 Y21.051 E0.06237
G1 X24.412 Y20.539 E0.09357
G1 X25.239 Y20.097 E0.12476
G1 X26.101 Y19.727 E0.15596
G1 X26.991 Y19.431 E0.18716
G1 X27.903 Y19.213 E0.21835
G1 X28.83 Y19.072 E0.24953
G1 X29.701 Y19.013 E0.27857
G1 X30.33 Y19 E0.29949
G1 X189.451 Y19.001 E5.59188
G1 X190.149 Y19.011 E5.6151
G1 X191.085 Y19.065 E5.64628
G1 X192.013 Y19.197 E5.67746
G1 X192.927 Y19.409 E5.70866
G1 X193.819 Y19.698 E5.73985
G1 X194.684 Y20.061 E5.77105
G1 X195.514 Y20.497 E5.80223
G1 X196.305 Y21.002 E5.83345
G1 X197.049 Y21.573 E5.86464
G1 X197.742 Y22.205 E5.89584
G1 X198.379 Y22.893 E5.92702
G1 X198.954 Y23.634 E5.95822
G1 X199.465 Y24.42 E5.9894
G1 X199.907 Y25.248 E6.02062
G1 X200.276 Y26.11 E6.0518
G1 X200.571 Y27 E6.08299
G1 X200.789 Y27.912 E6.11417
G1 X200.929 Y28.84 E6.14539
G1 X200.987 Y29.701 E6.17409
G1 X201 Y30.33 E6.19502
G1 X200.999 Y189.4 E11.48571
G1 X200.99 Y190.127 E11.50989
G1 X200.939 Y191.064 E11.5411
G1 X200.807 Y191.992 E11.57228
G1 X200.598 Y192.906 E11.60346
G1 X200.311 Y193.799 E11.63466
G1 X199.949 Y194.665 E11.66588
G1 X199.515 Y195.496 E11.69706
G1 X199.011 Y196.287 E11.72825
G1 X198.442 Y197.032 E11.75943
G1 X197.811 Y197.727 E11.79065
G1 X197.124 Y198.365 E11.82184
G1 X196.385 Y198.942 E11.85302
G1 X195.599 Y199.454 E11.88422
G1 X194.773 Y199.897 E11.9154
G1 X193.911 Y200.269 E11.94662
G1 X193.022 Y200.565 E11.97779
G1 X192.11 Y200.785 E12.00899
G1 X191.183 Y200.926 E12.04018
G1 X190.299 Y200.987 E12.06965
G1 X189.67 Y201 E12.09057
G1 X30.565 Y200.999 E17.38243
G1 X29.867 Y200.99 E17.40564
G1 X28.931 Y200.938 E17.43682
G1 X28.002 Y200.806 E17.46803
G1 X27.088 Y200.596 E17.49922
G1 X26.195 Y200.309 E17.53042
G1 X25.33 Y199.946 E17.56162
G1 X24.499 Y199.512 E17.5928
G1 X23.708 Y199.008 E17.624
G1 X22.963 Y198.438 E17.6552
G1 X22.269 Y197.807 E17.6864
G1 X21.632 Y197.12 E17.71756
G1 X21.055 Y196.38 E17.74877
G1 X20.543 Y195.594 E17.77997
G1 X20.1 Y194.767 E17.81117
G1 X19.729 Y193.906 E17.84235
G1 X19.433 Y193.016 E17.87355
G1 X19.214 Y192.104 E17.90474
G1 X19.073 Y191.177 E17.93593
G1 X19.013 Y190.288 E17.96557
G1 X19 Y189.658 E17.98652
G1 X19.001 Y30.525 E23.27931
G1 X19.01 Y29.86 E23.30143
G1 X19.063 Y28.924 E23.33261
G1 X19.195 Y27.995 E23.36382
G1 X19.406 Y27.081 E23.39502
G1 X19.694 Y26.189 E23.4262
G1 X20.057 Y25.324 E23.4574
G1 X20.492 Y24.493 E23.48859
G1 X20.996 Y23.703 E23.51976
G1 X21.566 Y22.958 E23.55096
G1 X22.198 Y22.264 E23.58218
M204 S2000
G0 F7500 X22.589 Y22.439
M204 S500
G1 F1500 X23.274 Y21.823 E23.61282
G1 X24.01 Y21.27 E23.64344
G1 X24.791 Y20.782 E23.67407
G1 X25.611 Y20.364 E23.70468
G1 X26.465 Y20.019 E23.73532
G1 X27.345 Y19.749 E23.76593
G1 X28.245 Y19.557 E23.79654
G1 X29.159 Y19.443 E23.82717
G1 X29.712 Y19.413 E23.84559
G1 X30.33 Y19.4 E23.86615
G1 X189.445 Y19.401 E29.15834
G1 X190.143 Y19.411 E29.18156
G1 X191.062 Y19.464 E29.21218
G1 X191.973 Y19.597 E29.2428
G1 X192.869 Y19.808 E29.27341
G1 X193.743 Y20.096 E29.30402
G1 X194.59 Y20.459 E29.33467
G1 X195.401 Y20.894 E29.36528
G1 X196.171 Y21.398 E29.39589
G1 X196.895 Y21.967 E29.42651
G1 X197.567 Y22.597 E29.45715
G1 X198.182 Y23.282 E29.48777
G1 X198.735 Y24.018 E29.51839
G1 X199.222 Y24.799 E29.549
G1 X199.639 Y25.62 E29.57963
G1 X199.984 Y26.474 E29.61026
G1 X200.253 Y27.354 E29.64087
G1 X200.445 Y28.255 E29.67151
G1 X200.558 Y29.168 E29.70211
G1 X200.587 Y29.712 E29.72023
G1 X200.6 Y30.33 E29.74079
G1 X200.599 Y189.395 E35.03131
G1 X200.59 Y190.122 E35.05549
G1 X200.539 Y191.041 E35.0861
G1 X200.408 Y191.953 E35.11675
G1 X200.198 Y192.849 E35.14736
G1 X199.912 Y193.724 E35.17797
G1 X199.551 Y194.571 E35.2086
G1 X199.117 Y195.383 E35.23922
G1 X198.615 Y196.155 E35.26985
G1 X198.047 Y196.88 E35.30048
G1 X197.419 Y197.553 E35.3311
G1 X196.735 Y198.169 E35.36171
G1 X196 Y198.723 E35.39233
G1 X195.22 Y199.212 E35.42295
G1 X194.4 Y199.631 E35.45357
G1 X193.547 Y199.977 E35.48419
G1 X192.667 Y200.248 E35.51481
G1 X191.767 Y200.441 E35.54543
G1 X190.853 Y200.556 E35.57607
G1 X190.288 Y200.587 E35.59489
G1 X189.67 Y200.6 E35.61545
G1 X30.57 Y200.599 E40.90714
G1 X29.872 Y200.59 E40.93035
G1 X28.953 Y200.538 E40.96097
G1 X28.042 Y200.407 E40.99158
G1 X27.146 Y200.197 E41.02219
G1 X26.271 Y199.91 E41.05282
G1 X25.424 Y199.548 E41.08345
G1 X24.612 Y199.114 E41.11408
G1 X23.841 Y198.612 E41.14468
G1 X23.116 Y198.044 E41.17531
G1 X22.443 Y197.415 E41.20595
G1 X21.828 Y196.731 E41.23654
G1 X21.274 Y195.996 E41.26715
G1 X20.786 Y195.215 E41.29778
G1 X20.367 Y194.395 E41.32841
G1 X20.021 Y193.542 E41.35903
G1 X19.751 Y192.662 E41.38964
G1 X19.558 Y191.761 E41.42029
G1 X19.444 Y190.848 E41.45089
G1 X19.413 Y190.277 E41.46991
G1 X19.4 Y189.658 E41.4905
G1 X19.401 Y30.531 E46.78309
G1 X19.41 Y29.866 E46.80521
G1 X19.462 Y28.946 E46.83586
G1 X19.594 Y28.035 E46.86647
G1 X19.805 Y27.139 E46.89709
G1 X20.092 Y26.264 E46.92772
G1 X20.455 Y25.418 E46.95834
G1 X20.889 Y24.606 E46.98896
G1 X21.392 Y23.835 E47.01958
G1 X21.961 Y23.111 E47.05021
G1 X22.589 Y22.439 E47.0808
M204 S2000
G0 F7500 X22.981 Y22.617
M204 S500
G1 F1500 X23.662 Y22.024 E47.11083
G1 X24.394 Y21.494 E47.14089
G1 X25.169 Y21.031 E47.17092
G1 X25.982 Y20.638 E47.20095
G1 X26.827 Y20.318 E47.231
G1 X27.696 Y20.075 E47.26101
G1 X28.584 Y19.909 E47.29106
G1 X29.723 Y19.813 E47.32908
G1 X30.33 Y19.8 E47.34927
G1 X189.439 Y19.801 E52.64126
G1 X190.137 Y19.811 E52.66448
G1 X191.039 Y19.864 E52.69453
G1 X191.932 Y19.996 E52.72455
G1 X192.81 Y20.207 E52.75459
G1 X193.666 Y20.495 E52.78463
G1 X194.493 Y20.857 E52.81465
G1 X195.285 Y21.292 E52.84471
G1 X196.036 Y21.794 E52.87475
G1 X196.739 Y22.361 E52.90479
G1 X197.389 Y22.988 E52.93483
G1 X197.981 Y23.67 E52.96486
G1 X198.511 Y24.401 E52.9949
G1 X198.973 Y25.177 E53.02493
G1 X199.366 Y25.99 E53.05497
G1 X199.684 Y26.835 E53.085
G1 X199.927 Y27.705 E53.11504
G1 X200.092 Y28.593 E53.14508
G1 X200.187 Y29.723 E53.1828
G1 X200.2 Y30.33 E53.20299
G1 X200.199 Y189.39 E58.49335
G1 X200.19 Y190.117 E58.51753
G1 X200.139 Y191.019 E58.54758
G1 X200.008 Y191.913 E58.57763
G1 X199.799 Y192.791 E58.60765
G1 X199.513 Y193.648 E58.6377
G1 X199.152 Y194.476 E58.66774
G1 X198.72 Y195.268 E58.69775
G1 X198.219 Y196.02 E58.7278
G1 X197.653 Y196.724 E58.75785
G1 X197.028 Y197.375 E58.78786
G1 X196.347 Y197.969 E58.81792
G1 X195.616 Y198.5 E58.84797
G1 X194.842 Y198.964 E58.87798
G1 X194.029 Y199.358 E58.90803
G1 X193.185 Y199.678 E58.93805
G1 X192.315 Y199.923 E58.96811
G1 X191.428 Y200.089 E58.99813
G1 X190.277 Y200.187 E59.03655
G1 X189.67 Y200.2 E59.05674
G1 X30.575 Y200.199 E64.34826
G1 X29.877 Y200.19 E64.37148
G1 X28.976 Y200.139 E64.4015
G1 X28.082 Y200.007 E64.43155
G1 X27.204 Y199.798 E64.46157
G1 X26.347 Y199.511 E64.49163
G1 X25.52 Y199.15 E64.52164
G1 X24.727 Y198.717 E64.5517
G1 X23.976 Y198.216 E64.58172
G1 X23.272 Y197.65 E64.61177
G1 X22.621 Y197.024 E64.64181
G1 X22.028 Y196.343 E64.67184
G1 X21.498 Y195.612 E64.70187
G1 X21.034 Y194.837 E64.73191
G1 X20.64 Y194.024 E64.76196
G1 X20.32 Y193.18 E64.79198
G1 X20.076 Y192.31 E64.82204
G1 X19.91 Y191.422 E64.85208
G1 X19.813 Y190.267 E64.89063
G1 X19.8 Y189.658 E64.91089
G1 X19.801 Y30.536 E70.20331
G1 X19.81 Y29.871 E70.22543
G1 X19.862 Y28.969 E70.25548
G1 X19.994 Y28.076 E70.28551
G1 X20.204 Y27.198 E70.31553
G1 X20.491 Y26.341 E70.34559
G1 X20.853 Y25.514 E70.37562
G1 X21.286 Y24.722 E70.40564
G1 X21.788 Y23.971 E70.43569
G1 X22.355 Y23.267 E70.46575
G1 X22.981 Y22.617 E70.49577
M204 S2000
G1 F2400 E69.69577
G0 F7500 X33 Y33
M204 S500
G1 F2400 E70.49577
G1 F1500 X33.159 Y33 E70.50105
G1 X33.054 Y33.292 E70.51138
G1 X33 Y33.584 E70.52125
G1 X33 Y33 E70.54068
M204 S2000
G0 F7500 X33.501 Y33.202
M204 S500
G1 F1500 X33.386 Y33.643 E70.55583
G1 X33.35 Y34.075 E70.57025
G1 X33.35 Y185.675 E75.61249
G1 X33.39 Y186.129 E75.62765
G1 X33.508 Y186.569 E75.6428
G1 X33.702 Y186.981 E75.65795
G1 X33.997 Y187.4 E75.67499
G1 X32.6 Y187.4 E75.72145
G1 X32.6 Y32.6 E80.87012
G1 X33.821 Y32.6 E80.91073
G1 X33.691 Y32.788 E80.91834
G1 X33.501 Y33.202 E80.93349
M204 S2000
G0 F7500 X33.947 Y33.165
M204 S500
G1 F1500 X33.811 Y33.562 E80.94744
G1 X33.75 Y34.075 E80.96463
G1 X33.75 Y185.675 E86.00686
G1 X33.79 Y186.092 E86.0208
G1 X33.908 Y186.494 E86.03473
G1 X34.101 Y186.866 E86.04867
G1 X34.36 Y187.195 E86.0626
G1 X34.677 Y187.469 E86.07653
G1 X35.04 Y187.678 E86.09046
G1 X35.396 Y187.8 E86.10298
G1 X32.2 Y187.8 E86.20928
G1 X32.2 Y32.2 E91.38456
G1 X34.792 Y32.2 E91.47077
G1 X34.43 Y32.485 E91.48609
G1 X34.156 Y32.802 E91.50003
G1 X33.947 Y33.165 E91.51396
M204 S2000
G0 F7500 X34.385 Y33.187
M204 S500
G1 F1500 X34.233 Y33.534 E91.52656
G1 X34.15 Y34.075 E91.54476
G1 X34.15 Y185.675 E96.587
G1 X34.19 Y186.052 E96.59961
G1 X34.308 Y186.412 E96.61221
G1 X34.498 Y186.739 E96.62479
G1 X34.753 Y187.02 E96.63741
G1 X35.062 Y187.24 E96.65002
G1 X35.409 Y187.392 E96.66262
G1 X35.95 Y187.475 E96.68083
G1 X187.55 Y187.475 E101.72306
G1 X187.927 Y187.435 E101.73567
G1 X188.2 Y187.346 E101.74522
G1 X188.2 Y188.2 E101.77363
G1 X31.8 Y188.2 E106.97551
G1 X31.8 Y31.8 E112.1774
G1 X188.2 Y31.8 E117.37928
G1 X188.2 Y32.406 E117.39944
G1 X188.091 Y32.358 E117.4034
G1 X187.55 Y32.275 E117.42161
G1 X35.95 Y32.275 E122.46384
G1 X35.573 Y32.315 E122.47645
G1 X35.213 Y32.433 E122.48905
G1 X34.886 Y32.623 E122.50163
G1 X34.605 Y32.878 E122.51425
G1 X34.385 Y33.187 E122.52687
M204 S2000
G0 F7500 X34.806 Y33.268
M204 S500
G1 F1500 X34.647 Y33.562 E122.53798
G1 X34.55 Y33.936 E122.55084
G1 X34.55 Y185.675 E127.59769
G1 X34.59 Y186.007 E127.60882
G1 X34.707 Y186.319 E127.6199
G1 X34.895 Y186.596 E127.63103
G1 X35.143 Y186.819 E127.64213
G1 X35.437 Y186.978 E127.65324
G1 X35.811 Y187.075 E127.6661
G1 X187.55 Y187.075 E132.71295
G1 X187.882 Y187.035 E132.72408
G1 X188.194 Y186.918 E132.73516
G1 X188.471 Y186.73 E132.74629
G1 X188.6 Y186.587 E132.7527
G1 X188.6 Y188.6 E132.81965
G1 X31.4 Y188.6 E138.04815
G1 X31.4 Y31.4 E143.27664
G1 X188.6 Y31.4 E148.50513
G1 X188.6 Y33.15 E148.56334
G1 X188.357 Y32.931 E148.57422
G1 X188.063 Y32.772 E148.58533
G1 X187.689 Y32.675 E148.59819
G1 X35.95 Y32.675 E153.64504
G1 X35.618 Y32.715 E153.65617
G1 X35.306 Y32.832 E153.66725
G1 X35.029 Y33.02 E153.67838
G1 X34.806 Y33.268 E153.68948
M204 S2000
G0 F7500 X35.199 Y33.414
M204 S500
G1 F1500 X35.045 Y33.65 E153.69885
G1 X34.95 Y33.959 E153.7096
G1 X34.95 Y185.675 E158.7557
G1 X34.99 Y185.954 E158.76507
G1 X35.106 Y186.211 E158.77445
G1 X35.289 Y186.426 E158.78384
G1 X35.525 Y186.58 E158.79321
G1 X35.834 Y186.675 E158.80397
G1 X187.55 Y186.675 E163.85006
G1 X187.829 Y186.635 E163.85943
G1 X188.086 Y186.519 E163.86881
G1 X188.301 Y186.336 E163.8782
G1 X188.455 Y186.1 E163.88758
G1 X188.55 Y185.791 E163.89833
G1 X188.55 Y34.075 E168.94442
G1 X188.51 Y33.796 E168.9538
G1 X188.394 Y33.539 E168.96318
G1 X188.211 Y33.324 E168.97257
G1 X187.975 Y33.17 E168.98194
G1 X187.666 Y33.075 E168.99269
G1 X35.95 Y33.075 E174.03879
G1 X35.671 Y33.115 E174.04816
G1 X35.414 Y33.231 E174.05754
G1 X35.199 Y33.414 E174.06693
M204 S2000
G0 F7500 X35.549 Y33.628
M204 S500
G1 F1500 X35.416 Y33.801 E174.07419
G1 X35.35 Y34.075 E174.08356
G1 X35.35 Y185.675 E179.1258
G1 X35.39 Y185.89 E179.13307
G1 X35.503 Y186.076 E179.14031
G1 X35.676 Y186.209 E179.14757
G1 X35.95 Y186.275 E179.15694
G1 X187.55 Y186.275 E184.19918
G1 X187.765 Y186.235 E184.20645
G1 X187.951 Y186.122 E184.21369
G1 X188.084 Y185.949 E184.22095
G1 X188.15 Y185.675 E184.23032
G1 X188.15 Y34.075 E189.27256
G1 X188.11 Y33.86 E189.27983
G1 X187.997 Y33.674 E189.28707
G1 X187.824 Y33.541 E189.29433
G1 X187.55 Y33.475 E189.3037
G1 X35.95 Y33.475 E194.34594
G1 X35.735 Y33.515 E194.35321
G1 X35.549 Y33.628 E194.36045
M204 S2000
G0 F7500 X35.831 Y33.914
M204 S500
G1 F1500 X35.75 Y34.075 E194.36644
G1 X35.75 Y185.675 E199.40868
G1 X35.789 Y185.794 E199.41285
G1 X35.95 Y185.875 E199.41884
G1 X187.55 Y185.875 E204.46108
G1 X187.669 Y185.836 E204.46524
G1 X187.75 Y185.675 E204.47124
G1 X187.75 Y34.075 E209.51347
G1 X187.711 Y33.956 E209.51764
G1 X187.55 Y33.875 E209.52363
G1 X35.95 Y33.875 E214.56587
G1 X35.831 Y33.914 E214.57003
M204 S2000
G1 F2400 E213.77003
G0 F7500 X31 Y31
M204 S500
G1 F2400 E214.57003
G1 F1500 X189 Y31 E219.82514
G1 X189 Y189 E225.08024
G1 X31 Y189 E230.33534
G1 X31 Y31 E235.59044
M204 S2000
G0 F7500 X30.6 Y30.6
M204 S500
G1 F1500 X189.4 Y30.6 E240.87215
G1 X189.4 Y189.4 E246.15386
G1 X30.6 Y189.4 E251.43557
G1 X30.6 Y30.6 E256.71728
M204 S2000
G0 F7500 X30.2 Y30.2
M204 S500
G1 F1500 X189.8 Y30.2 E262.02559
G1 X189.8 Y189.8 E267.33391
G1 X30.2 Y189.8 E272.64223
G1 X30.2 Y30.2 E277.95055
M204 S2000
G1 F2400 E277.15055
G0 F7500 X33 Y186.203
M204 S500
G1 F2400 E277.95055
G1 F1500 X33.109 Y186.638 E277.96546
G1 X33.265 Y187 E277.97857
G1 X33 Y187 E277.98739
G1 X33 Y186.203 E278.0139
M204 S2000
G1 F2400 E277.2139
;MESH:led-box-lid.stl
G0 F7500 X36.085 Y184.461
G0 X37.35 Y184.275
M204 S500
;TYPE:WALL-INNER
G1 F2400 E278.0139
G1 F1500 X186.15 Y184.275 E282.963
G1 X186.15 Y35.475 E287.91211
G1 X37.351 Y35.476 E292.86119
G1 X37.35 Y184.275 E297.81026
M204 S2000
G0 F7500 X36.95 Y184.675
M204 S500
;TYPE:WALL-OUTER
G1 F1500 X186.55 Y184.675 E302.78598
G1 X186.55 Y35.075 E307.76169
G1 X36.951 Y35.076 E312.73738
G1 X36.95 Y184.675 E317.71306
M204 S2000
G1 F2400 E316.91306
G0 F7500 X37.22 Y184.405
G0 X37.55 Y168.303
G0 X51.219 Y168
G0 X51.481 Y168.303
M204 S500
;TYPE:WALL-INNER
G1 F2400 E317.71306
G1 F1500 X51.4 Y168.072 E317.7212
G1 X51.4 Y52 E321.58177
G1 X51.498 Y51.67 E321.59322
G1 X51.728 Y51.464 E321.60349
G1 X51.942 Y51.402 E321.6109
G1 X168.058 Y51.402 E325.47294
G1 X168.363 Y51.521 E325.48382
G1 X168.497 Y51.662 E325.49029
G1 X168.598 Y51.947 E325.50035
G1 X168.598 Y168.052 E329.36202
G1 X168.475 Y168.368 E329.3733
G1 X168.326 Y168.505 E329.38003
G1 X168.059 Y168.598 E329.38943
G1 X51.941 Y168.598 E333.25153
G1 X51.721 Y168.532 E333.25917
G1 X51.481 Y168.303 E333.27021
M204 S2000
G0 F7500 X51.85 Y168.133
M204 S500
;TYPE:WALL-OUTER
G1 F1500 X51.802 Y168.035 E333.27384
G1 X51.8 Y52 E337.13318
G1 X51.854 Y51.862 E337.1381
G1 X51.965 Y51.802 E337.1423
G1 X168.039 Y51.803 E341.00294
G1 X168.146 Y51.862 E341.007
G1 X168.2 Y51.982 E341.01138
G1 X168.2 Y168.018 E344.87075
G1 X168.159 Y168.123 E344.8745
G1 X168.02 Y168.2 E344.87979
G1 X51.98 Y168.2 E348.73929
G1 X51.85 Y168.133 E348.74416
M204 S2000
G0 F7500 X51.907 Y168.957
M204 S500
;TYPE:SKIN
G1 F1500 X51.564 Y168.858 E348.75603
G1 X51.327 Y168.687 E348.76575
G1 X51.114 Y168.373 E348.77837
G1 X51.046 Y168.116 E348.78721
G1 X51.043 Y51.926 E352.65171
G1 X51.051 Y51.868 E352.65365
G1 X51.15 Y51.54 E352.66505
G1 X51.417 Y51.233 E352.67858
G1 X51.73 Y51.077 E352.69021
G1 X51.91 Y51.043 E352.69631
G1 X168.106 Y51.045 E356.561
G1 X168.354 Y51.106 E356.5695
G1 X168.642 Y51.284 E356.58076
G1 X168.839 Y51.525 E356.59111
G1 X168.952 Y51.842 E356.6023
G1 X168.956 Y168.098 E360.46899
G1 X168.881 Y168.384 E360.47883
G1 X168.749 Y168.604 E360.48736
G1 X168.456 Y168.851 E360.50011
G1 X168.157 Y168.951 E360.51059
G1 X51.907 Y168.957 E364.37708
M204 S2000
G1 F2400 E363.57708
G0 F7500 X51.929 Y168.698
G0 X51.465 Y168.57
G0 X37.55 Y168.57
G0 X37.71 Y183.915
M204 S500
G1 F2400 E364.37708
G1 F1500 X185.79 Y183.915 E369.30224
G1 X185.79 Y35.835 E374.22741
