;FLAVOR:Marlin
;TIME:29748
;Filament used: 23.7568m
;Layer height: 0.2
;MINX:19
;MINY:19
;MINZ:0.2
;MAXX:201
;MAXY:201
;MAXZ:32
;Generated with Cura_SteamEngine 5.2.0
M82 ;absolute extrusion mode
; Ender 3 S1 Start G-code
G92 E0 ; Reset Extruder
G28 ; Home all axes
G1 Z10.0 F3000 ; Move Z Axis up little to prevent scratching of Heat Bed
G1 X0 Y0

M104 S200
M190 S60
M109 S200

G1 X0.1 Y20 Z0.3 F5000.0 ; Move to start position
G1 X0.1 Y200.0 Z0.3 F1500.0 E15 ; Draw the first line
G1 X0.4 Y200.0 Z0.3 F5000.0 ; Move to side a little
G1 X0.4 Y20 Z0.3 F1500.0 E30 ; Draw the second line
G92 E0 ; Reset Extruder
G1 Z2.0 F3000 ; Move Z Axis up little to prevent scratching of Heat Bed
G1 X5 Y20 Z0.3 F5000.0 ; Move over to prevent blob squish

G92 E0
G92 E0
G1 F2400 E-0.8
;LAYER_COUNT:160
;LAYER:0
M107
M204 S2000
G0 F7500 X22.198 Y22.264 Z0.2
M204 S500
;TYPE:SKIRT
G1 F2400 E0
G1 F1500 X22.886 Y21.627 E0.03119
G1 X23.626 Y21.051 E0.06237
G1 X24.412 Y20.539 E0.09357
G1 X25.239 Y20.097 E0.12476
G1 X26.101 Y19.727 E0.15596
G1 X26.991 Y19.431 E0.18716
G1 X27.903 Y19.213 E0.21835
G1 X28.83 Y19.072 E0.24953
G1 X29.701 Y19.013 E0.27857
G1 X30.33 Y19 E0.29949
G1 X189.451 Y19.001 E5.59188
G1 X190.149 Y19.011 E5.6151
G1 X191.085 Y19.065 E5.64628
G1 X192.013 Y19.197 E5.67746
G1 X192.927 Y19.409 E5.70866
G1 X193.819 Y19.698 E5.73985
G1 X194.684 Y20.061 E5.77105
G1 X195.514 Y20.497 E5.80223
G1 X196.305 Y21.002 E5.83345
G1 X197.049 Y21.573 E5.86464
G1 X197.742 Y22.205 E5.89584
G1 X198.379 Y22.893 E5.92702
G1 X198.954 Y23.634 E5.95822
G1 X199.465 Y24.42 E5.9894
G1 X199.907 Y25.248 E6.02062
G1 X200.276 Y26.11 E6.0518
G1 X200.571 Y27 E6.08299
G1 X200.789 Y27.912 E6.11417
G1 X200.929 Y28.84 E6.14539
G1 X200.987 Y29.701 E6.17409
G1 X201 Y30.33 E6.19502
G1 X200.999 Y189.4 E11.48571
G1 X200.99 Y190.127 E11.50989
G1 X200.939 Y191.064 E11.5411
G1 X200.807 Y191.992 E11.57228
G1 X200.598 Y192.906 E11.60346
G1 X200.311 Y193.799 E11.63466
G1 X199.949 Y194.665 E11.66588
G1 X199.515 Y195.496 E11.69706
G1 X199.011 Y196.287 E11.72825
G1 X198.442 Y197.032 E11.75943
G1 X197.811 Y197.727 E11.79065
G1 X197.124 Y198.365 E11.82184
G1 X196.385 Y198.942 E11.85302
G1 X195.599 Y199.454 E11.88422
G1 X194.773 Y199.897 E11.9154
G1 X193.911 Y200.269 E11.94662
G1 X193.022 Y200.565 E11.97779
G1 X192.11 Y200.785 E12.00899
G1 X191.183 Y200.926 E12.04018
G1 X190.299 Y200.987 E12.06965
G1 X189.67 Y201 E12.09057
G1 X30.565 Y200.999 E17.38243
G1 X29.867 Y200.99 E17.40564
G1 X28.931 Y200.938 E17.43682
G1 X28.002 Y200.806 E17.46803
G1 X27.088 Y200.596 E17.49922
G1 X26.195 Y200.309 E17.53042
G1 X25.33 Y199.946 E17.56162
G1 X24.499 Y199.512 E17.5928
G1 X23.708 Y199.008 E17.624
G1 X22.963 Y198.438 E17.6552
G1 X22.269 Y197.807 E17.6864
G1 X21.632 Y197.12 E17.71756
G1 X21.055 Y196.38 E17.74877
G1 X20.543 Y195.594 E17.77997
G1 X20.1 Y194.767 E17.81117
G1 X19.729 Y193.906 E17.84235
G1 X19.433 Y193.016 E17.87355
G1 X19.214 Y192.104 E17.90474
G1 X19.073 Y191.177 E17.93593
G1 X19.013 Y190.288 E17.96557
G1 X19 Y189.658 E17.98652
G1 X19.001 Y30.525 E23.27931
G1 X19.01 Y29.86 E23.30143
G1 X19.063 Y28.924 E23.33261
G1 X19.195 Y27.995 E23.36382
G1 X19.406 Y27.081 E23.39502
G1 X19.694 Y26.189 E23.4262
G1 X20.057 Y25.324 E23.4574
G1 X20.492 Y24.493 E23.48859
G1 X20.996 Y23.703 E23.51976
G1 X21.566 Y22.958 E23.55096
G1 X22.198 Y22.264 E23.58218
M204 S2000
G0 F7500 X22.589 Y22.439
M204 S500
G1 F1500 X23.274 Y21.823 E23.61282
G1 X24.01 Y21.27 E23.64344
G1 X24.791 Y20.782 E23.67407
G1 X25.611 Y20.364 E23.70468
G1 X26.465 Y20.019 E23.73532
G1 X27.345 Y19.749 E23.76593
G1 X28.245 Y19.557 E23.79654
G1 X29.159 Y19.443 E23.82717
G1 X29.712 Y19.413 E23.84559
G1 X30.33 Y19.4 E23.86615
G1 X189.445 Y19.401 E29.15834
G1 X190.143 Y19.411 E29.18156
G1 X191.062 Y19.464 E29.21218
G1 X191.973 Y19.597 E29.2428
G1 X192.869 Y19.808 E29.27341
G1 X193.743 Y20.096 E29.30402
G1 X194.59 Y20.459 E29.33467
G1 X195.401 Y20.894 E29.36528
G1 X196.171 Y21.398 E29.39589
G1 X196.895 Y21.967 E29.42651
G1 X197.567 Y22.597 E29.45715
G1 X198.182 Y23.282 E29.48777
G1 X198.735 Y24.018 E29.51839
G1 X199.222 Y24.799 E29.549
G1 X199.639 Y25.62 E29.57963
G1 X199.984 Y26.474 E29.61026
G1 X200.253 Y27.354 E29.64087
G1 X200.445 Y28.255 E29.67151
G1 X200.558 Y29.168 E29.70211
G1 X200.587 Y29.712 E29.72023
G1 X200.6 Y30.33 E29.74079
G1 X200.599 Y189.395 E35.03131
G1 X200.59 Y190.122 E35.05549
G1 X200.539 Y191.041 E35.0861
G1 X200.408 Y191.953 E35.11675
G1 X200.198 Y192.849 E35.14736
G1 X199.912 Y193.724 E35.17797
G1 X199.551 Y194.571 E35.2086
G1 X199.117 Y195.383 E35.23922
G1 X198.615 Y196.155 E35.26985
G1 X198.047 Y196.88 E35.30048
G1 X197.419 Y197.553 E35.3311
G1 X196.735 Y198.169 E35.36171
G1 X196 Y198.723 E35.39233
G1 X195.22 Y199.212 E35.42295
G1 X194.4 Y199.631 E35.45357
G1 X193.547 Y199.977 E35.48419
G1 X192.667 Y200.248 E35.51481
G1 X191.767 Y200.441 E35.54543
G1 X190.853 Y200.556 E35.57607
G1 X190.288 Y200.587 E35.59489
G1 X189.67 Y200.6 E35.61545
G1 X30.57 Y200.599 E40.90714
G1 X29.872 Y200.59 E40.93035
G1 X28.953 Y200.538 E40.96097
G1 X28.042 Y200.407 E40.99158
G1 X27.146 Y200.197 E41.02219
G1 X26.271 Y199.91 E41.05282
G1 X25.424 Y199.548 E41.08345
G1 X24.612 Y199.114 E41.11408
G1 X23.841 Y198.612 E41.14468
G1 X23.116 Y198.044 E41.17531
G1 X22.443 Y197.415 E41.20595
G1 X21.828 Y196.731 E41.23654
G1 X21.274 Y195.996 E41.26715
G1 X20.786 Y195.215 E41.29778
G1 X20.367 Y194.395 E41.32841
G1 X20.021 Y193.542 E41.35903
G1 X19.751 Y192.662 E41.38964
G1 X19.558 Y191.761 E41.42029
G1 X19.444 Y190.848 E41.45089
G1 X19.413 Y190.277 E41.46991
G1 X19.4 Y189.658 E41.4905
G1 X19.401 Y30.531 E46.78309
G1 X19.41 Y29.866 E46.80521
G1 X19.462 Y28.946 E46.83586
G1 X19.594 Y28.035 E46.86647
G1 X19.805 Y27.139 E46.89709
G1 X20.092 Y26.264 E46.92772
G1 X20.455 Y25.418 E46.95834
G1 X20.889 Y24.606 E46.98896
G1 X21.392 Y23.835 E47.01958
G1 X21.961 Y23.111 E47.05021
G1 X22.589 Y22.439 E47.0808
M204 S2000
G0 F7500 X22.981 Y22.617
M204 S500
G1 F1500 X23.662 Y22.024 E47.11083
G1 X24.394 Y21.494 E47.14089
G1 X25.169 Y21.031 E47.17092
G1 X25.982 Y20.638 E47.20095
G1 X26.827 Y20.318 E47.231
G1 X27.696 Y20.075 E47.26101
G1 X28.584 Y19.909 E47.29106
G1 X29.723 Y19.813 E47.32908
G1 X30.33 Y19.8 E47.34927
G1 X189.439 Y19.801 E52.64126
G1 X190.137 Y19.811 E52.66448
G1 X191.039 Y19.864 E52.69453
G1 X191.932 Y19.996 E52.72455
G1 X192.81 Y20.207 E52.75459
G1 X193.666 Y20.495 E52.78463
G1 X194.493 Y20.857 E52.81465
G1 X195.285 Y21.292 E52.84471
G1 X196.036 Y21.794 E52.87475
G1 X196.739 Y22.361 E52.90479
G1 X197.389 Y22.988 E52.93483
G1 X197.981 Y23.67 E52.96486
G1 X198.511 Y24.401 E52.9949
G1 X198.973 Y25.177 E53.02493
G1 X199.366 Y25.99 E53.05497
G1 X199.684 Y26.835 E53.085
G1 X199.927 Y27.705 E53.11504
G1 X200.092 Y28.593 E53.14508
G1 X200.187 Y29.723 E53.1828
G1 X200.2 Y30.33 E53.20299
G1 X200.199 Y189.39 E58.49335
G1 X200.19 Y190.117 E58.51753
G1 X200.139 Y191.019 E58.54758
G1 X200.008 Y191.913 E58.57763
G1 X199.799 Y192.791 E58.60765
G1 X199.513 Y193.648 E58.6377
G1 X199.152 Y194.476 E58.66774
G1 X198.72 Y195.268 E58.69775
G1 X198.219 Y196.02 E58.7278
G1 X197.653 Y196.724 E58.75785
G1 X197.028 Y197.375 E58.78786
G1 X196.347 Y197.969 E58.81792
G1 X195.616 Y198.5 E58.84797
G1 X194.842 Y198.964 E58.87798
G1 X194.029 Y199.358 E58.90803
G1 X193.185 Y199.678 E58.93805
G1 X192.315 Y199.923 E58.96811
G1 X191.428 Y200.089 E58.99813
G1 X190.277 Y200.187 E59.03655
G1 X189.67 Y200.2 E59.05674
G1 X30.575 Y200.199 E64.34826
G1 X29.877 Y200.19 E64.37148
G1 X28.976 Y200.139 E64.4015
G1 X28.082 Y200.007 E64.43155
G1 X27.204 Y199.798 E64.46157
G1 X26.347 Y199.511 E64.49163
G1 X25.52 Y199.15 E64.52164
G1 X24.727 Y198.717 E64.5517
G1 X23.976 Y198.216 E64.58172
G1 X23.272 Y197.65 E64.61177
G1 X22.621 Y197.024 E64.64181
G1 X22.028 Y196.343 E64.67184
G1 X21.498 Y195.612 E64.70187
G1 X21.034 Y194.837 E64.73191
G1 X20.64 Y194.024 E64.76196
G1 X20.32 Y193.18 E64.79198
G1 X20.076 Y192.31 E64.82204
G1 X19.91 Y191.422 E64.85208
G1 X19.813 Y190.267 E64.89063
G1 X19.8 Y189.658 E64.91089
G1 X19.801 Y30.536 E70.20331
G1 X19.81 Y29.871 E70.22543
G1 X19.862 Y28.969 E70.25548
G1 X19.994 Y28.076 E70.28551
G1 X20.204 Y27.198 E70.31553
G1 X20.491 Y26.341 E70.34559
G1 X20.853 Y25.514 E70.37562
G1 X21.286 Y24.722 E70.40564
G1 X21.788 Y23.971 E70.43569
G1 X22.355 Y23.267 E70.46575
G1 X22.981 Y22.617 E70.49577
M204 S2000
G1 F2400 E69.69577
G0 F7500 X31.299 Y31.253
M204 S500
G1 F2400 E70.49577
G1 F1500 X31.166 Y31.426 E70.50302
G1 X31.1 Y31.7 E70.5124
G1 X31.1 Y188.3 E75.72094
G1 X31.14 Y188.515 E75.72821
G1 X31.253 Y188.701 E75.73545
G1 X31.426 Y188.834 E75.74271
G1 X31.7 Y188.9 E75.75208
G1 X188.3 Y188.9 E80.96062
G1 X188.515 Y188.86 E80.96789
G1 X188.701 Y188.747 E80.97513
G1 X188.834 Y188.574 E80.98239
G1 X188.9 Y188.3 E80.99176
G1 X188.9 Y31.7 E86.2003
G1 X188.86 Y31.485 E86.20757
G1 X188.747 Y31.299 E86.21481
G1 X188.574 Y31.166 E86.22207
G1 X188.3 Y31.1 E86.23144
G1 X31.7 Y31.1 E91.43998
G1 X31.485 Y31.14 E91.44725
G1 X31.299 Y31.253 E91.45449
M204 S2000
G0 F7500 X31.581 Y31.539
M204 S500
G1 F1500 X31.5 Y31.7 E91.46049
G1 X31.5 Y188.3 E96.66902
G1 X31.539 Y188.419 E96.67319
G1 X31.7 Y188.5 E96.67918
G1 X188.3 Y188.5 E101.88772
G1 X188.419 Y188.461 E101.89188
G1 X188.5 Y188.3 E101.89788
G1 X188.5 Y31.7 E107.10642
G1 X188.461 Y31.581 E107.11058
G1 X188.3 Y31.5 E107.11658
G1 X31.7 Y31.5 E112.32511
G1 X31.581 Y31.539 E112.32928
M204 S2000
G0 F7500 X30.6 Y30.6
M204 S500
G1 F1500 X189.4 Y30.6 E117.61099
G1 X189.4 Y189.4 E122.8927
G1 X30.6 Y189.4 E128.17441
G1 X30.6 Y30.6 E133.45612
M204 S2000
G0 F7500 X30.2 Y30.2
M204 S500
G1 F1500 X189.8 Y30.2 E138.76443
G1 X189.8 Y189.8 E144.07275
G1 X30.2 Y189.8 E149.38107
G1 X30.2 Y30.2 E154.68939
M204 S2000
G1 F2400 E153.88939
;MESH:led-box-lid.stl
G0 F7500 X50.219 Y51
G0 X50.761 Y169.551
M204 S500
;TYPE:WALL-INNER
G1 F2400 E154.68939
G1 F1500 X50.518 Y169.359 E154.69969
G1 X50.402 Y169.05 E154.71066
G1 X50.4 Y51 E158.63702
G1 X50.418 Y50.853 E158.64195
G1 X50.518 Y50.641 E158.64974
G1 X50.641 Y50.518 E158.65553
G1 X50.95 Y50.402 E158.66651
G1 X169.05 Y50.402 E162.59453
G1 X169.359 Y50.518 E162.60551
G1 X169.508 Y50.678 E162.61278
G1 X169.599 Y50.95 E162.62232
G1 X169.599 Y169.05 E166.55034
G1 X169.482 Y169.359 E166.56133
G1 X169.359 Y169.482 E166.56712
G1 X169.05 Y169.598 E166.57809
G1 X50.95 Y169.598 E170.50612
G1 X50.761 Y169.551 E170.51259
M204 S2000
G0 F7500 X50.839 Y169.12
M204 S500
;TYPE:WALL-OUTER
G1 F1500 X50.8 Y169.017 E170.51626
G1 X50.8 Y51 E174.44152
G1 X50.88 Y50.839 E174.4475
G1 X50.983 Y50.8 E174.45116
G1 X169.017 Y50.8 E178.37699
G1 X169.12 Y50.839 E178.38065
G1 X169.2 Y50.983 E178.38613
G1 X169.2 Y169.017 E182.31196
G1 X169.12 Y169.161 E182.31743
G1 X169.017 Y169.2 E182.3211
G1 X50.983 Y169.2 E186.24692
G1 X50.839 Y169.12 E186.2524
M204 S2000
G1 F2400 E185.4524
G0 F7500 X50.5 Y169.12
G0 X50.448 Y169.552
G0 X33.3 Y169.552
G0 X33.1 Y186.9
M204 S500
;TYPE:WALL-INNER
G1 F2400 E186.2524
G1 F1500 X186.9 Y186.9 E191.36781
G1 X186.9 Y33.1 E196.48322
G1 X33.1 Y33.1 E201.59863
G1 X33.1 Y186.9 E206.71404
M204 S2000
G0 F7500 X32.7 Y187.3
M204 S500
;TYPE:WALL-OUTER
G1 F1500 X187.3 Y187.3 E211.85606
G1 X187.3 Y32.7 E216.99807
G1 X32.7 Y32.7 E222.14009
G1 X32.7 Y187.3 E227.28211
M204 S2000
G0 F7500 X32.97 Y187.03
G0 X33.2 Y186.54
G0 X33.46 Y186.54
M204 S500
;TYPE:SKIN
G1 F1500 X186.54 Y186.54 E232.37357
G1 X186.54 Y33.46 E237.46503
G1 X33.46 Y33.46 E242.55649
G1 X33.46 Y186.54 E247.64795
M204 S2000
G1 F2400 E246.84795
G0 F7500 X33.2 Y186.54
G0 X50.936 Y186.7
G0 X51 Y169.781
G0 X50.904 Y169.956
M204 S500
G1 F2400 E247.64795
G1 F1500 X50.652 Y169.895 E247.65658
G1 X50.277 Y169.639 E247.67168
G1 X50.095 Y169.325 E247.68375
G1 X50.042 Y169.081 E247.69205
G1 X50.042 Y50.939 E251.62147
G1 X50.049 Y50.883 E251.62335
G1 X50.148 Y50.553 E251.63481
G1 X50.322 Y50.312 E251.6447
G1 X50.66 Y50.101 E251.65795
G1 X50.918 Y50.042 E251.66675
G1 X169.096 Y50.044 E255.59737
G1 X169.311 Y50.089 E255.60467
G1 X169.582 Y50.231 E255.61485
G1 X169.82 Y50.491 E255.62657
G1 X169.956 Y50.898 E255.64084
G1 X169.956 Y169.176 E259.57479
G1 X169.813 Y169.517 E259.58709
G1 X169.584 Y169.763 E259.59826
G1 X169.325 Y169.905 E259.60809
G1 X169.08 Y169.958 E259.61643
G1 X50.904 Y169.956 E263.54698
M204 S2000
G1 F2400 E262.74698
G0 F7500 X50.936 Y169.697
G0 X50.448 Y169.552
G0 X50.448 Y186.7
G0 X34.17 Y186.339
M204 S500
G1 F2400 E263.54698
G1 F1500 X33.659 Y185.829 E263.57099
M204 S2000
G0 F7500 X33.659 Y185.263
M204 S500
G1 F1500 X34.735 Y186.339 E263.6216
M204 S2000
G0 F7500 X35.301 Y186.339
M204 S500
G1 F1500 X33.659 Y184.697 E263.69883
M204 S2000
G0 F7500 X33.659 Y184.132
M204 S500
G1 F1500 X35.867 Y186.339 E263.80267
M204 S2000
G0 F7500 X36.432 Y186.339
M204 S500
G1 F1500 X33.659 Y183.566 E263.9331
M204 S2000
G0 F7500 X33.659 Y183
M204 S500
G1 F1500 X36.998 Y186.339 E264.09016
M204 S2000
G0 F7500 X37.564 Y186.339
M204 S500
G1 F1500 X33.659 Y182.434 E264.27384
M204 S2000
G0 F7500 X33.659 Y181.869
M204 S500
G1 F1500 X38.13 Y186.339 E264.48412
M204 S2000
G0 F7500 X38.695 Y186.339
M204 S500
G1 F1500 X33.659 Y181.303 E264.72099
M204 S2000
G0 F7500 X33.659 Y180.737
M204 S500
G1 F1500 X39.261 Y186.339 E264.98449
M204 S2000
G0 F7500 X39.827 Y186.339
M204 S500
G1 F1500 X33.659 Y180.172 E265.27459
M204 S2000
G0 F7500 X33.659 Y179.606
M204 S500
G1 F1500 X40.392 Y186.339 E265.59129
M204 S2000
G0 F7500 X40.958 Y186.339
M204 S500
G1 F1500 X33.659 Y179.04 E265.93462
M204 S2000
G0 F7500 X33.659 Y178.475
M204 S500
G1 F1500 X41.524 Y186.339 E266.30454
M204 S2000
G0 F7500 X42.089 Y186.339
M204 S500
G1 F1500 X33.659 Y177.909 E266.70106
M204 S2000
G0 F7500 X33.659 Y177.343
M204 S500
G1 F1500 X42.655 Y186.339 E267.1242
M204 S2000
G0 F7500 X43.221 Y186.339
M204 S500
G1 F1500 X33.659 Y176.778 E267.57395
M204 S2000
G0 F7500 X33.659 Y176.212
M204 S500
G1 F1500 X43.786 Y186.339 E268.05029
M204 S2000
G0 F7500 X44.352 Y186.339
M204 S500
G1 F1500 X33.659 Y175.646 E268.55326
M204 S2000
G0 F7500 X33.659 Y175.081
M204 S500
G1 F1500 X44.918 Y186.339 E269.08282
M204 S2000
G0 F7500 X45.483 Y186.339
M204 S500
G1 F1500 X33.659 Y174.515 E269.63899
M204 S2000
G0 F7500 X33.659 Y173.949
M204 S500
G1 F1500 X46.049 Y186.339 E270.22177
M204 S2000
G0 F7500 X46.615 Y186.339
M204 S500
G1 F1500 X33.659 Y173.383 E270.83119
M204 S2000
G0 F7500 X33.659 Y172.818
M204 S500
G1 F1500 X47.18 Y186.339 E271.46717
M204 S2000
G0 F7500 X47.746 Y186.339
M204 S500
G1 F1500 X33.659 Y172.252 E272.12978
M204 S2000
G0 F7500 X33.659 Y171.686
M204 S500
G1 F1500 X48.312 Y186.339 E272.81901
M204 S2000
G0 F7500 X48.878 Y186.339
M204 S500
G1 F1500 X33.659 Y171.121 E273.53484
M204 S2000
G0 F7500 X33.659 Y170.555
M204 S500
G1 F1500 X49.443 Y186.339 E274.27728
M204 S2000
G0 F7500 X50.009 Y186.339
M204 S500
G1 F1500 X33.659 Y169.989 E275.04633
M204 S2000
G0 F7500 X33.659 Y169.424
M204 S500
G1 F1500 X50.575 Y186.339 E275.84198
M204 S2000
G0 F7500 X51.14 Y186.339
M204 S500
G1 F1500 X33.659 Y168.858 E276.66424
M204 S2000
G0 F7500 X33.659 Y168.292
M204 S500
G1 F1500 X51.706 Y186.339 E277.51311
M204 S2000
G0 F7500 X52.272 Y186.339
M204 S500
G1 F1500 X33.659 Y167.727 E278.38859
M204 S2000
G0 F7500 X33.659 Y167.161
M204 S500
G1 F1500 X52.837 Y186.339 E279.29066
M204 S2000
G0 F7500 X53.403 Y186.339
M204 S500
G1 F1500 X33.659 Y166.595 E280.21936
M204 S2000
G0 F7500 X33.659 Y166.03
M204 S500
G1 F1500 X53.969 Y186.339 E281.17465
M204 S2000
G0 F7500 X54.534 Y186.339
M204 S500
G1 F1500 X33.659 Y165.464 E282.15655
M204 S2000
G0 F7500 X33.659 Y164.898
M204 S500
G1 F1500 X55.1 Y186.339 E283.16507
M204 S2000
G0 F7500 X55.666 Y186.339
M204 S500
G1 F1500 X33.659 Y164.333 E284.20019
M204 S2000
G0 F7500 X33.659 Y163.767
M204 S500
G1 F1500 X56.231 Y186.339 E285.2619
M204 S2000
G0 F7500 X56.797 Y186.339
M204 S500
G1 F1500 X33.659 Y163.201 E286.35025
M204 S2000
G0 F7500 X33.659 Y162.635
M204 S500
G1 F1500 X57.363 Y186.339 E287.46521
M204 S2000
G0 F7500 X57.929 Y186.339
M204 S500
G1 F1500 X33.659 Y162.07 E288.60677
M204 S2000
G0 F7500 X33.659 Y161.504
M204 S500
G1 F1500 X58.494 Y186.339 E289.77493
M204 S2000
G0 F7500 X59.06 Y186.339
M204 S500
G1 F1500 X33.659 Y160.938 E290.96972
