;FLAVOR:Marlin
;TIME:2816
;Filament used: 2.15447m
;Layer height: 0.28
;MINX:63.814
;MINY:84.071
;MINZ:0.28
;MAXX:157.484
;MAXY:142.206
;MAXZ:8.12
;Generated with Cura_SteamEngine 5.2.0
M82 ;absolute extrusion mode
; Ender 3 S1 Start G-code
G92 E0 ; Reset Extruder
G28 ; Home all axes
G1 Z10.0 F3000 ; Move Z Axis up little to prevent scratching of Heat Bed
G1 X0 Y0

M104 S200
M190 S60
M109 S200

G1 X0.1 Y20 Z0.3 F5000.0 ; Move to start position
G1 X0.1 Y200.0 Z0.3 F1500.0 E15 ; Draw the first line
G1 X0.4 Y200.0 Z0.3 F5000.0 ; Move to side a little
G1 X0.4 Y20 Z0.3 F1500.0 E30 ; Draw the second line
G92 E0 ; Reset Extruder
G1 Z2.0 F3000 ; Move Z Axis up little to prevent scratching of Heat Bed
G1 X5 Y20 Z0.3 F5000.0 ; Move over to prevent blob squish

G92 E0
G92 E0
G1 F2400 E-0.8
;LAYER_COUNT:29
;LAYER:0
M107
M204 S2000
G0 F7500 X68.531 Y87.586 Z0.28
M204 S500
;TYPE:SKIRT
G1 F2400 E0
G1 F1500 X69.318 Y87.076 E0.04367
G1 X70.146 Y86.634 E0.08737
G1 X71.008 Y86.265 E0.13103
G1 X71.898 Y85.97 E0.17469
G1 X72.81 Y85.752 E0.21836
G1 X73.738 Y85.613 E0.26205
G1 X74.597 Y85.555 E0.30214
G1 X75.226 Y85.542 E0.33143
G1 X88.086 Y85.542 E0.93025
G1 X90.694 Y85.505 E1.0517
G1 X93.215 Y85.398 E1.1692
G1 X95.71 Y85.221 E1.28567
G1 X98.21 Y84.973 E1.40265
G1 X101.1 Y84.6 E1.53833
G1 X102.201 Y84.513 E1.58976
G1 X102.83 Y84.5 E1.61906
G1 X116.938 Y84.501 E2.27598
G1 X118.994 Y84.528 E2.37173
G1 X121.381 Y84.536 E2.48288
G1 X123.876 Y84.472 E2.59909
G1 X126.387 Y84.338 E2.71618
G1 X128.124 Y84.204 E2.7973
G1 X129.091 Y84.121 E2.8425
G1 X129.719 Y84.085 E2.87179
G1 X130.348 Y84.071 E2.90108
G1 X144.467 Y84.072 E3.55852
G1 X145.166 Y84.082 E3.59108
G1 X146.103 Y84.136 E3.63478
G1 X147.031 Y84.268 E3.67842
G1 X147.945 Y84.48 E3.72211
G1 X148.837 Y84.769 E3.76578
G1 X149.702 Y85.132 E3.80946
G1 X150.532 Y85.568 E3.85311
G1 X151.322 Y86.073 E3.89677
G1 X152.067 Y86.644 E3.94048
G1 X152.76 Y87.276 E3.98415
G1 X153.397 Y87.964 E4.02781
G1 X153.972 Y88.705 E4.07149
G1 X154.483 Y89.491 E4.11514
G1 X154.925 Y90.319 E4.15884
G1 X155.294 Y91.18 E4.20246
G1 X155.589 Y92.071 E4.24617
G1 X155.807 Y92.983 E4.28983
G1 X155.947 Y93.91 E4.33348
G1 X156.004 Y94.758 E4.37306
G1 X156.018 Y95.387 E4.40236
G1 X156.018 Y102.817 E4.74833
G1 X156.055 Y105.425 E4.86978
G1 X156.162 Y107.946 E4.98727
G1 X156.339 Y110.441 E5.10374
G1 X156.587 Y112.941 E5.22072
G1 X156.906 Y115.433 E5.33771
G1 X157.34 Y118.189 E5.46762
G1 X157.469 Y119.57 E5.53221
G1 X157.484 Y120.233 E5.56309
G1 X157.483 Y129.303 E5.98542
G1 X157.474 Y130.03 E6.01928
G1 X157.423 Y130.967 E6.06297
G1 X157.291 Y131.895 E6.10662
G1 X157.082 Y132.809 E6.15028
G1 X156.795 Y133.702 E6.19395
G1 X156.433 Y134.568 E6.23766
G1 X155.999 Y135.399 E6.28131
G1 X155.495 Y136.19 E6.32499
G1 X154.926 Y136.935 E6.36864
G1 X154.295 Y137.63 E6.41235
G1 X153.608 Y138.268 E6.45601
G1 X152.869 Y138.845 E6.49966
G1 X152.083 Y139.357 E6.54334
G1 X151.257 Y139.8 E6.58699
G1 X150.395 Y140.172 E6.6307
G1 X149.506 Y140.468 E6.67433
G1 X148.594 Y140.688 E6.71802
G1 X147.667 Y140.829 E6.76168
G1 X146.783 Y140.89 E6.80294
G1 X146.154 Y140.903 E6.83224
G1 X132.039 Y140.902 E7.48949
G1 X131.089 Y140.888 E7.53373
G1 X128.52 Y140.816 E7.6534
G1 X125.998 Y140.816 E7.77084
G1 X123.511 Y140.887 E7.88669
G1 X120.942 Y141.034 E8.00651
G1 X118.426 Y141.241 E8.12406
G1 X117.799 Y141.276 E8.1533
G1 X117.17 Y141.29 E8.1826
G1 X103.348 Y141.29 E8.82621
G1 X100.74 Y141.327 E8.94766
G1 X98.219 Y141.434 E9.06515
G1 X95.724 Y141.611 E9.18162
G1 X93.233 Y141.858 E9.29818
G1 X91.98 Y142.019 E9.35701
G1 X91.049 Y142.126 E9.40064
G1 X90.113 Y142.193 E9.44434
G1 X89.484 Y142.206 E9.47363
G1 X75.379 Y142.205 E10.13042
G1 X74.681 Y142.196 E10.16293
G1 X73.745 Y142.144 E10.20658
G1 X72.816 Y142.012 E10.25027
G1 X71.902 Y141.802 E10.29394
G1 X71.009 Y141.515 E10.33761
G1 X70.144 Y141.152 E10.3813
G1 X69.313 Y140.718 E10.42495
G1 X68.522 Y140.214 E10.46862
G1 X67.777 Y139.644 E10.5123
G1 X67.083 Y139.013 E10.55598
G1 X66.446 Y138.326 E10.5996
G1 X65.869 Y137.586 E10.6433
G1 X65.357 Y136.8 E10.68698
G1 X64.914 Y135.973 E10.73066
G1 X64.543 Y135.112 E10.77432
G1 X64.247 Y134.222 E10.81799
G1 X64.028 Y133.31 E10.86167
G1 X63.887 Y132.383 E10.90533
G1 X63.827 Y131.494 E10.94682
G1 X63.814 Y130.864 E10.97616
G1 X63.815 Y121.757 E11.40022
G1 X63.825 Y121.051 E11.4331
G1 X63.852 Y120.427 E11.46218
G1 X63.901 Y119.738 E11.49434
G1 X64.049 Y117.103 E11.61723
G1 X64.121 Y114.57 E11.73523
G1 X64.121 Y112.081 E11.85113
G1 X64.048 Y109.501 E11.97131
G1 X63.921 Y107.119 E12.08238
G1 X63.9 Y106.522 E12.1102
G1 X63.897 Y97.08 E12.54986
G1 X63.907 Y96.391 E12.58195
G1 X63.961 Y95.455 E12.6256
G1 X64.094 Y94.527 E12.66925
G1 X64.306 Y93.613 E12.71294
G1 X64.594 Y92.721 E12.75659
G1 X64.958 Y91.856 E12.80029
G1 X65.394 Y91.026 E12.84395
G1 X65.899 Y90.236 E12.88761
G1 X66.47 Y89.492 E12.93128
G1 X67.102 Y88.799 E12.97495
G1 X67.791 Y88.162 E13.01864
G1 X68.531 Y87.586 E13.06231
M204 S2000
G0 F7500 X68.916 Y87.806
M204 S500
G1 F1500 X69.697 Y87.319 E13.10517
G1 X70.518 Y86.902 E13.14804
G1 X71.372 Y86.558 E13.19091
G1 X72.252 Y86.289 E13.23376
G1 X73.153 Y86.097 E13.27666
G1 X74.066 Y85.984 E13.3195
G1 X74.608 Y85.955 E13.34477
G1 X75.226 Y85.942 E13.37355
G1 X88.092 Y85.942 E13.97265
G1 X90.717 Y85.905 E14.09489
G1 X93.225 Y85.798 E14.21178
G1 X95.745 Y85.62 E14.32941
G1 X98.235 Y85.373 E14.44593
G1 X101.152 Y84.996 E14.58289
G1 X102.212 Y84.913 E14.63239
G1 X102.83 Y84.9 E14.66118
G1 X116.933 Y84.901 E15.31787
G1 X118.988 Y84.928 E15.41357
G1 X121.355 Y84.935 E15.52379
G1 X123.907 Y84.87 E15.64266
G1 X126.44 Y84.735 E15.76077
G1 X128.116 Y84.606 E15.83905
G1 X129.125 Y84.519 E15.8862
G1 X129.73 Y84.484 E15.91442
G1 X130.348 Y84.471 E15.9432
G1 X144.462 Y84.472 E16.60041
G1 X145.161 Y84.482 E16.63296
G1 X146.08 Y84.535 E16.67583
G1 X146.991 Y84.668 E16.7187
G1 X147.887 Y84.879 E16.76156
G1 X148.761 Y85.167 E16.80441
G1 X149.607 Y85.53 E16.84728
G1 X150.419 Y85.965 E16.89017
G1 X151.189 Y86.469 E16.93302
G1 X151.913 Y87.038 E16.9759
G1 X152.585 Y87.667 E17.01876
G1 X153.2 Y88.353 E17.06166
G1 X153.753 Y89.089 E17.10453
G1 X154.24 Y89.87 E17.14738
G1 X154.657 Y90.691 E17.19026
G1 X155.002 Y91.545 E17.23315
G1 X155.271 Y92.425 E17.276
G1 X155.463 Y93.325 E17.31885
G1 X155.576 Y94.239 E17.36173
G1 X155.604 Y94.769 E17.38645
G1 X155.618 Y95.387 E17.41523
G1 X155.618 Y102.823 E17.76148
G1 X155.655 Y105.448 E17.88372
G1 X155.762 Y107.956 E18.00061
G1 X155.94 Y110.476 E18.11825
G1 X156.189 Y112.991 E18.23593
G1 X156.508 Y115.48 E18.35278
G1 X156.945 Y118.251 E18.4834
G1 X157.069 Y119.582 E18.54564
G1 X157.084 Y120.233 E18.57597
G1 X157.083 Y129.298 E18.99807
G1 X157.074 Y130.025 E19.03193
G1 X157.023 Y130.944 E19.07478
G1 X156.892 Y131.856 E19.11769
G1 X156.682 Y132.752 E19.16054
G1 X156.396 Y133.627 E19.2034
G1 X156.035 Y134.474 E19.24628
G1 X155.601 Y135.286 E19.28915
G1 X155.099 Y136.058 E19.33203
G1 X154.531 Y136.783 E19.37491
G1 X153.903 Y137.456 E19.41777
G1 X153.219 Y138.072 E19.46064
G1 X152.484 Y138.626 E19.50349
G1 X151.704 Y139.115 E19.54636
G1 X150.884 Y139.534 E19.58924
G1 X150.031 Y139.88 E19.6321
G1 X149.151 Y140.151 E19.67498
G1 X148.251 Y140.344 E19.71784
G1 X147.337 Y140.459 E19.76073
G1 X146.772 Y140.49 E19.78708
G1 X146.154 Y140.503 E19.81587
G1 X132.044 Y140.502 E20.47289
G1 X131.1 Y140.488 E20.51685
G1 X128.531 Y140.416 E20.63652
G1 X126.021 Y140.416 E20.75339
G1 X123.479 Y140.489 E20.87181
G1 X120.934 Y140.634 E20.99051
G1 X118.391 Y140.842 E21.10932
G1 X117.788 Y140.877 E21.13744
G1 X117.17 Y140.89 E21.16622
G1 X103.342 Y140.89 E21.81011
G1 X100.717 Y140.927 E21.93236
G1 X98.209 Y141.034 E22.04925
G1 X95.689 Y141.212 E22.16688
G1 X93.179 Y141.461 E22.28433
G1 X91.776 Y141.641 E22.35019
G1 X91.004 Y141.729 E22.38638
G1 X90.102 Y141.793 E22.42848
G1 X89.484 Y141.806 E22.45726
G1 X75.384 Y141.805 E23.11382
G1 X74.686 Y141.796 E23.14632
G1 X73.767 Y141.744 E23.18919
G1 X72.856 Y141.613 E23.23204
G1 X71.96 Y141.403 E23.27489
G1 X71.085 Y141.116 E23.31777
G1 X70.238 Y140.754 E23.36066
G1 X69.426 Y140.32 E23.40354
G1 X68.655 Y139.818 E23.44638
G1 X67.93 Y139.25 E23.48926
G1 X67.257 Y138.621 E23.53216
G1 X66.642 Y137.937 E23.57499
G1 X66.088 Y137.202 E23.61784
G1 X65.6 Y136.421 E23.66073
G1 X65.181 Y135.601 E23.70361
G1 X64.835 Y134.748 E23.74647
G1 X64.565 Y133.868 E23.78933
G1 X64.372 Y132.967 E23.83224
G1 X64.258 Y132.054 E23.87508
G1 X64.227 Y131.483 E23.90171
G1 X64.214 Y130.864 E23.93054
G1 X64.215 Y121.763 E24.35432
G1 X64.225 Y121.057 E24.38719
G1 X64.251 Y120.455 E24.41525
G1 X64.303 Y119.721 E24.44952
G1 X64.449 Y117.136 E24.57008
G1 X64.521 Y114.581 E24.68909
G1 X64.521 Y112.07 E24.80602
G1 X64.448 Y109.507 E24.92541
G1 X64.32 Y107.097 E25.03779
G1 X64.3 Y106.511 E25.06509
G1 X64.297 Y97.086 E25.50396
G1 X64.307 Y96.397 E25.53604
G1 X64.36 Y95.478 E25.57891
G1 X64.493 Y94.567 E25.62178
G1 X64.705 Y93.671 E25.66465
G1 X64.993 Y92.797 E25.7075
G1 X65.356 Y91.951 E25.75037
G1 X65.791 Y91.139 E25.79326
G1 X66.295 Y90.369 E25.83611
G1 X66.864 Y89.645 E25.87899
G1 X67.494 Y88.973 E25.92188
G1 X68.179 Y88.359 E25.96472
G1 X68.916 Y87.806 E26.00762
M204 S2000
G0 F7500 X69.299 Y88.03
M204 S500
G1 F1500 X70.075 Y87.568 E26.04967
G1 X70.888 Y87.176 E26.0917
G1 X71.733 Y86.857 E26.13376
G1 X72.603 Y86.614 E26.17582
G1 X73.491 Y86.45 E26.21787
G1 X74.619 Y86.355 E26.27058
G1 X75.226 Y86.342 E26.29885
G1 X88.098 Y86.342 E26.89822
G1 X90.704 Y86.305 E27.01958
G1 X93.269 Y86.196 E27.13913
G1 X95.776 Y86.018 E27.25616
G1 X98.293 Y85.769 E27.37393
G1 X101.203 Y85.393 E27.51056
G1 X102.223 Y85.313 E27.5582
G1 X102.83 Y85.3 E27.58647
G1 X116.928 Y85.301 E28.24293
G1 X118.982 Y85.328 E28.33859
G1 X121.364 Y85.336 E28.4495
G1 X123.938 Y85.27 E28.5694
G1 X126.452 Y85.136 E28.68663
G1 X128.186 Y85.002 E28.76761
G1 X129.16 Y84.918 E28.81313
G1 X129.742 Y84.884 E28.84028
G1 X130.348 Y84.871 E28.8685
G1 X144.456 Y84.872 E29.52543
G1 X145.155 Y84.882 E29.55798
G1 X146.056 Y84.935 E29.60001
G1 X146.95 Y85.067 E29.64209
G1 X147.828 Y85.278 E29.68414
G1 X148.684 Y85.566 E29.72619
G1 X149.511 Y85.928 E29.76823
G1 X150.303 Y86.362 E29.81028
G1 X151.054 Y86.865 E29.85237
G1 X151.757 Y87.432 E29.89442
G1 X152.407 Y88.059 E29.93648
G1 X152.999 Y88.741 E29.97853
G1 X153.528 Y89.472 E30.02054
G1 X153.991 Y90.248 E30.06262
G1 X154.383 Y91.061 E30.10465
G1 X154.702 Y91.906 E30.14671
G1 X154.945 Y92.776 E30.18877
G1 X155.11 Y93.664 E30.23082
G1 X155.205 Y94.781 E30.28302
G1 X155.218 Y95.387 E30.31125
G1 X155.218 Y102.829 E30.65778
G1 X155.255 Y105.435 E30.77914
G1 X155.364 Y108 E30.89868
G1 X155.542 Y110.507 E31.01571
G1 X155.793 Y113.048 E31.13461
G1 X156.11 Y115.522 E31.25075
G1 X156.55 Y118.313 E31.38231
G1 X156.669 Y119.594 E31.44222
G1 X156.684 Y120.233 E31.47198
G1 X156.683 Y129.293 E31.89385
G1 X156.674 Y130.02 E31.92771
G1 X156.623 Y130.922 E31.96978
G1 X156.492 Y131.816 E32.01185
G1 X156.283 Y132.694 E32.05388
G1 X155.997 Y133.551 E32.09595
G1 X155.636 Y134.379 E32.13801
G1 X155.204 Y135.171 E32.18001
G1 X154.703 Y135.923 E32.22209
G1 X154.137 Y136.627 E32.26415
G1 X153.512 Y137.278 E32.30617
G1 X152.831 Y137.872 E32.34825
G1 X152.1 Y138.403 E32.39032
G1 X151.326 Y138.867 E32.43234
G1 X150.513 Y139.261 E32.47441
G1 X149.669 Y139.581 E32.51644
G1 X148.799 Y139.826 E32.55853
G1 X147.912 Y139.992 E32.60055
G1 X146.761 Y140.09 E32.65434
G1 X146.154 Y140.103 E32.68261
G1 X132.05 Y140.102 E33.33935
G1 X131.111 Y140.088 E33.38308
G1 X128.542 Y140.016 E33.50275
G1 X126.01 Y140.016 E33.62065
G1 X123.444 Y140.089 E33.74018
G1 X120.928 Y140.233 E33.85753
G1 X118.357 Y140.443 E33.97764
G1 X117.776 Y140.477 E34.00474
G1 X117.17 Y140.49 E34.03297
G1 X103.336 Y140.49 E34.67714
G1 X100.73 Y140.527 E34.79849
G1 X98.165 Y140.636 E34.91804
G1 X95.658 Y140.814 E35.03507
G1 X93.122 Y141.065 E35.15373
G1 X91.73 Y141.243 E35.21908
G1 X90.958 Y141.331 E35.25526
G1 X90.091 Y141.393 E35.29573
G1 X89.484 Y141.406 E35.324
G1 X75.389 Y141.405 E35.98033
G1 X74.691 Y141.396 E36.01283
G1 X73.79 Y141.345 E36.05485
G1 X72.896 Y141.213 E36.09693
G1 X72.018 Y141.004 E36.13896
G1 X71.161 Y140.717 E36.18104
G1 X70.334 Y140.356 E36.22306
G1 X69.541 Y139.923 E36.26513
G1 X68.79 Y139.422 E36.30717
G1 X68.086 Y138.856 E36.34923
G1 X67.435 Y138.23 E36.39128
G1 X66.842 Y137.549 E36.43333
G1 X66.312 Y136.818 E36.47538
G1 X65.848 Y136.043 E36.51744
G1 X65.454 Y135.23 E36.5595
G1 X65.134 Y134.386 E36.60153
G1 X64.89 Y133.516 E36.64361
G1 X64.724 Y132.628 E36.68567
G1 X64.627 Y131.473 E36.73964
G1 X64.614 Y130.864 E36.76801
G1 X64.615 Y121.769 E37.19151
G1 X64.625 Y121.063 E37.22439
G1 X64.65 Y120.484 E37.25137
G1 X64.701 Y119.773 E37.28457
G1 X64.849 Y117.136 E37.40755
G1 X64.921 Y114.592 E37.52606
G1 X64.921 Y112.059 E37.644
G1 X64.849 Y109.515 E37.76251
G1 X64.719 Y107.076 E37.87624
G1 X64.696 Y106.213 E37.91644
G1 X64.697 Y97.092 E38.34115
G1 X64.707 Y96.403 E38.37324
G1 X64.76 Y95.501 E38.41531
G1 X64.893 Y94.608 E38.45735
G1 X65.104 Y93.73 E38.4994
G1 X65.392 Y92.874 E38.54145
G1 X65.754 Y92.047 E38.58349
G1 X66.189 Y91.255 E38.62556
G1 X66.691 Y90.505 E38.66759
G1 X67.258 Y89.802 E38.70964
G1 X67.885 Y89.152 E38.7517
G1 X68.567 Y88.56 E38.79375
G1 X69.299 Y88.03 E38.83583
M204 S2000
G1 F2400 E38.03583
;MESH:magnet-test.stl(2)
G0 F7500 X75.31 Y95.877
G0 X89.296 Y105.942
M204 S500
;TYPE:WALL-INNER
G1 F2400 E38.83583
G1 F1500 X89.296 Y97.142 E39.2456
G1 X75.496 Y97.142 E39.88818
G1 X75.496 Y105.942 E40.29795
G1 X89.296 Y105.942 E40.94053
M204 S2000
G0 F7500 X89.696 Y106.342
M204 S500
;TYPE:WALL-OUTER
G1 F1500 X89.696 Y96.742 E41.38755
G1 X75.096 Y96.742 E42.06738
G1 X75.096 Y106.342 E42.5144
G1 X89.696 Y106.342 E43.19424
M204 S2000
G0 F7500 X89.426 Y106.072
G0 X89.196 Y105.582
G0 X88.936 Y105.582
M204 S500
;TYPE:SKIN
G1 F1500 X88.936 Y97.502 E43.57048
G1 X75.856 Y97.502 E44.17954
G1 X75.856 Y105.582 E44.55578
G1 X88.936 Y105.582 E45.16483
M204 S2000
G0 F7500 X89.196 Y105.582
G0 X89.196 Y97.787
G0 X88.736 Y97.787
M204 S500
G1 F1500 X88.65 Y97.701 E45.1705
M204 S2000
G0 F7500 X88.084 Y97.701
M204 S500
G1 F1500 X88.736 Y98.352 E45.2134
M204 S2000
G0 F7500 X88.736 Y98.918
M204 S500
G1 F1500 X87.519 Y97.701 E45.29354
M204 S2000
G0 F7500 X86.953 Y97.701
M204 S500
G1 F1500 X88.736 Y99.484 E45.41096
M204 S2000
G0 F7500 X88.736 Y100.049
M204 S500
G1 F1500 X86.387 Y97.701 E45.56561
M204 S2000
G0 F7500 X85.822 Y97.701
M204 S500
G1 F1500 X88.736 Y100.615 E45.7575
M204 S2000
G0 F7500 X88.736 Y101.181
M204 S500
G1 F1500 X85.256 Y97.701 E45.98666
M204 S2000
G0 F7500 X84.69 Y97.701
M204 S500
G1 F1500 X88.736 Y101.747 E46.2531
M204 S2000
G0 F7500 X88.736 Y102.312
M204 S500
G1 F1500 X84.125 Y97.701 E46.55674
M204 S2000
G0 F7500 X83.559 Y97.701
M204 S500
G1 F1500 X88.736 Y102.878 E46.89766
M204 S2000
G0 F7500 X88.736 Y103.444
M204 S500
G1 F1500 X82.993 Y97.701 E47.27584
M204 S2000
G0 F7500 X82.428 Y97.701
M204 S500
G1 F1500 X88.736 Y104.009 E47.69124
M204 S2000
G0 F7500 X88.736 Y104.575
M204 S500
G1 F1500 X81.862 Y97.701 E48.1439
M204 S2000
G0 F7500 X81.296 Y97.701
M204 S500
G1 F1500 X88.736 Y105.141 E48.63384
M204 S2000
G0 F7500 X88.41 Y105.381
M204 S500
G1 F1500 X80.731 Y97.701 E49.13955
M204 S2000
G0 F7500 X80.165 Y97.701
M204 S500
G1 F1500 X87.845 Y105.381 E49.64529
M204 S2000
G0 F7500 X87.279 Y105.381
M204 S500
G1 F1500 X79.599 Y97.701 E50.15103
M204 S2000
G0 F7500 X79.034 Y97.701
M204 S500
G1 F1500 X86.713 Y105.381 E50.65674
M204 S2000
G0 F7500 X86.148 Y105.381
M204 S500
G1 F1500 X78.468 Y97.701 E51.16248
M204 S2000
G0 F7500 X77.902 Y97.701
M204 S500
G1 F1500 X85.582 Y105.381 E51.66822
M204 S2000
G0 F7500 X85.016 Y105.381
M204 S500
G1 F1500 X77.336 Y97.701 E52.17396
M204 S2000
G0 F7500 X76.771 Y97.701
M204 S500
G1 F1500 X84.451 Y105.381 E52.6797
M204 S2000
G0 F7500 X83.885 Y105.381
M204 S500
G1 F1500 X76.205 Y97.701 E53.18544
M204 S2000
G0 F7500 X76.055 Y98.117
M204 S500
G1 F1500 X83.319 Y105.381 E53.66379
M204 S2000
G0 F7500 X82.754 Y105.381
M204 S500
G1 F1500 X76.055 Y98.683 E54.1049
M204 S2000
G0 F7500 X76.055 Y99.248
M204 S500
G1 F1500 X82.188 Y105.381 E54.50876
M204 S2000
G0 F7500 X81.622 Y105.381
M204 S500
