;FLAVOR:Marlin
;TIME:2903
;Filament used: 1.89359m
;Layer height: 0.2
;MINX:77
;MINY:79
;MINZ:0.2
;MAXX:143
;MAXY:141
;MAXZ:8
;Generated with Cura_SteamEngine 5.2.0
M82 ;absolute extrusion mode
; Ender 3 S1 Start G-code
G92 E0 ; Reset Extruder
G28 ; Home all axes
G1 Z10.0 F3000 ; Move Z Axis up little to prevent scratching of Heat Bed
G1 X0 Y0

M104 S200
M190 S60
M109 S200

G1 X0.1 Y20 Z0.3 F5000.0 ; Move to start position
G1 X0.1 Y200.0 Z0.3 F1500.0 E15 ; Draw the first line
G1 X0.4 Y200.0 Z0.3 F5000.0 ; Move to side a little
G1 X0.4 Y20 Z0.3 F1500.0 E30 ; Draw the second line
G92 E0 ; Reset Extruder
G1 Z2.0 F3000 ; Move Z Axis up little to prevent scratching of Heat Bed
G1 X5 Y20 Z0.3 F5000.0 ; Move over to prevent blob squish

G92 E0
G92 E0
G1 F2400 E-0.8
;LAYER_COUNT:40
;LAYER:0
M107
M204 S2000
G0 F7500 X80.198 Y82.264 Z0.2
M204 S500
;TYPE:SKIRT
G1 F2400 E0
G1 F1500 X80.886 Y81.627 E0.03119
G1 X81.626 Y81.051 E0.06237
G1 X82.412 Y80.539 E0.09357
G1 X83.239 Y80.097 E0.12476
G1 X84.101 Y79.727 E0.15596
G1 X84.991 Y79.431 E0.18716
G1 X85.903 Y79.213 E0.21835
G1 X86.83 Y79.072 E0.24953
G1 X87.701 Y79.013 E0.27857
G1 X88.33 Y79 E0.29949
G1 X131.451 Y79.001 E1.7337
G1 X132.149 Y79.011 E1.75692
G1 X133.085 Y79.065 E1.78811
G1 X134.013 Y79.197 E1.81928
G1 X134.927 Y79.409 E1.85049
G1 X135.819 Y79.698 E1.88167
G1 X136.684 Y80.061 E1.91288
G1 X137.514 Y80.497 E1.94406
G1 X138.305 Y81.002 E1.97527
G1 X139.049 Y81.573 E2.00646
G1 X139.742 Y82.205 E2.03766
G1 X140.379 Y82.893 E2.06884
G1 X140.954 Y83.634 E2.10004
G1 X141.465 Y84.42 E2.13122
G1 X141.907 Y85.248 E2.16244
G1 X142.276 Y86.11 E2.19363
G1 X142.571 Y87 E2.22481
G1 X142.789 Y87.912 E2.256
G1 X142.929 Y88.84 E2.28721
G1 X142.987 Y89.701 E2.31592
G1 X143 Y90.33 E2.33684
G1 X142.999 Y129.4 E3.63631
G1 X142.99 Y130.127 E3.6605
G1 X142.939 Y131.064 E3.69171
G1 X142.807 Y131.992 E3.72288
G1 X142.598 Y132.906 E3.75407
G1 X142.311 Y133.799 E3.78527
G1 X141.949 Y134.665 E3.81648
G1 X141.515 Y135.496 E3.84767
G1 X141.011 Y136.287 E3.87886
G1 X140.442 Y137.032 E3.91004
G1 X139.811 Y137.727 E3.94126
G1 X139.124 Y138.365 E3.97244
G1 X138.385 Y138.942 E4.00363
G1 X137.599 Y139.454 E4.03483
G1 X136.773 Y139.897 E4.066
G1 X135.911 Y140.269 E4.09723
G1 X135.022 Y140.565 E4.12839
G1 X134.11 Y140.785 E4.1596
G1 X133.183 Y140.926 E4.19078
G1 X132.299 Y140.987 E4.22026
G1 X131.67 Y141 E4.24118
G1 X88.565 Y140.999 E5.67486
G1 X87.867 Y140.99 E5.69808
G1 X86.931 Y140.938 E5.72926
G1 X86.002 Y140.806 E5.76046
G1 X85.088 Y140.596 E5.79166
G1 X84.195 Y140.309 E5.82285
G1 X83.33 Y139.946 E5.85405
G1 X82.499 Y139.512 E5.88524
G1 X81.708 Y139.008 E5.91643
G1 X80.963 Y138.438 E5.94763
G1 X80.269 Y137.807 E5.97883
G1 X79.632 Y137.12 E6.00999
G1 X79.055 Y136.38 E6.0412
G1 X78.543 Y135.594 E6.0724
G1 X78.1 Y134.767 E6.1036
G1 X77.729 Y133.906 E6.13479
G1 X77.433 Y133.016 E6.16598
G1 X77.214 Y132.104 E6.19718
G1 X77.073 Y131.177 E6.22836
G1 X77.013 Y130.288 E6.258
G1 X77 Y129.658 E6.27896
G1 X77.001 Y90.525 E7.58053
G1 X77.01 Y89.86 E7.60265
G1 X77.063 Y88.924 E7.63383
G1 X77.195 Y87.995 E7.66504
G1 X77.406 Y87.081 E7.69624
G1 X77.694 Y86.189 E7.72741
G1 X78.057 Y85.324 E7.75861
G1 X78.492 Y84.493 E7.78981
G1 X78.996 Y83.703 E7.82098
G1 X79.566 Y82.958 E7.85218
G1 X80.198 Y82.264 E7.8834
M204 S2000
G0 F7500 X80.589 Y82.439
M204 S500
G1 F1500 X81.274 Y81.823 E7.91404
G1 X82.01 Y81.27 E7.94466
G1 X82.791 Y80.782 E7.97529
G1 X83.611 Y80.364 E8.0059
G1 X84.465 Y80.019 E8.03653
G1 X85.345 Y79.749 E8.06715
G1 X86.245 Y79.557 E8.09776
G1 X87.159 Y79.443 E8.12839
G1 X87.712 Y79.413 E8.14681
G1 X88.33 Y79.4 E8.16737
G1 X131.293 Y79.4 E9.59633
G1 X132.143 Y79.411 E9.6246
G1 X133.062 Y79.464 E9.65522
G1 X133.973 Y79.597 E9.68584
G1 X134.869 Y79.808 E9.71645
G1 X135.743 Y80.096 E9.74706
G1 X136.59 Y80.459 E9.77771
G1 X137.401 Y80.894 E9.80832
G1 X138.171 Y81.398 E9.83893
G1 X138.895 Y81.967 E9.86955
G1 X139.567 Y82.597 E9.90019
G1 X140.182 Y83.282 E9.93081
G1 X140.735 Y84.018 E9.96143
G1 X141.222 Y84.799 E9.99204
G1 X141.639 Y85.62 E10.02267
G1 X141.984 Y86.474 E10.0533
G1 X142.253 Y87.354 E10.08391
G1 X142.445 Y88.255 E10.11455
G1 X142.558 Y89.168 E10.14515
G1 X142.587 Y89.712 E10.16327
G1 X142.6 Y90.33 E10.18383
G1 X142.599 Y129.395 E11.48313
G1 X142.59 Y130.122 E11.50731
G1 X142.539 Y131.041 E11.53793
G1 X142.408 Y131.953 E11.56857
G1 X142.198 Y132.849 E11.59918
G1 X141.912 Y133.724 E11.6298
G1 X141.551 Y134.571 E11.66042
G1 X141.117 Y135.383 E11.69105
G1 X140.615 Y136.155 E11.72167
G1 X140.047 Y136.88 E11.75231
G1 X139.419 Y137.553 E11.78292
G1 X138.735 Y138.169 E11.81354
G1 X138 Y138.723 E11.84415
G1 X137.22 Y139.212 E11.87477
G1 X136.4 Y139.631 E11.9054
G1 X135.547 Y139.977 E11.93601
G1 X134.667 Y140.248 E11.96664
G1 X133.767 Y140.441 E11.99725
G1 X132.853 Y140.556 E12.02789
G1 X132.288 Y140.587 E12.04671
G1 X131.67 Y140.6 E12.06727
G1 X88.57 Y140.599 E13.50078
G1 X87.872 Y140.59 E13.524
G1 X86.953 Y140.538 E13.55462
G1 X86.042 Y140.407 E13.58523
G1 X85.146 Y140.197 E13.61584
G1 X84.271 Y139.91 E13.64647
G1 X83.424 Y139.548 E13.6771
G1 X82.612 Y139.114 E13.70772
G1 X81.841 Y138.612 E13.73832
G1 X81.116 Y138.044 E13.76896
G1 X80.443 Y137.415 E13.7996
G1 X79.828 Y136.731 E13.83019
G1 X79.274 Y135.996 E13.8608
G1 X78.786 Y135.215 E13.89143
G1 X78.367 Y134.395 E13.92206
G1 X78.021 Y133.542 E13.95268
G1 X77.751 Y132.662 E13.98329
G1 X77.558 Y131.761 E14.01394
G1 X77.444 Y130.848 E14.04454
G1 X77.413 Y130.277 E14.06356
G1 X77.4 Y129.658 E14.08415
G1 X77.401 Y90.531 E15.38552
G1 X77.41 Y89.866 E15.40764
G1 X77.462 Y88.946 E15.43829
G1 X77.594 Y88.035 E15.46891
G1 X77.805 Y87.139 E15.49952
G1 X78.092 Y86.264 E15.53015
G1 X78.455 Y85.418 E15.56077
G1 X78.889 Y84.606 E15.59139
G1 X79.392 Y83.835 E15.62201
G1 X79.961 Y83.111 E15.65264
G1 X80.589 Y82.439 E15.68323
M204 S2000
G0 F7500 X80.981 Y82.617
M204 S500
G1 F1500 X81.662 Y82.024 E15.71326
G1 X82.394 Y81.494 E15.74332
G1 X83.169 Y81.031 E15.77335
G1 X83.982 Y80.638 E15.80338
G1 X84.827 Y80.318 E15.83343
G1 X85.696 Y80.075 E15.86345
G1 X86.584 Y79.909 E15.89349
G1 X87.723 Y79.813 E15.93151
G1 X88.33 Y79.8 E15.9517
G1 X131.293 Y79.8 E17.38066
G1 X132.137 Y79.811 E17.40873
G1 X133.039 Y79.864 E17.43879
G1 X133.932 Y79.996 E17.46881
G1 X134.81 Y80.207 E17.49884
G1 X135.666 Y80.495 E17.52888
G1 X136.493 Y80.857 E17.55891
G1 X137.285 Y81.292 E17.58896
G1 X138.036 Y81.794 E17.61901
G1 X138.739 Y82.361 E17.64905
G1 X139.389 Y82.988 E17.67908
G1 X139.981 Y83.67 E17.70912
G1 X140.511 Y84.401 E17.73915
G1 X140.973 Y85.177 E17.76919
G1 X141.366 Y85.99 E17.79922
G1 X141.684 Y86.835 E17.82925
G1 X141.927 Y87.705 E17.8593
G1 X142.092 Y88.593 E17.88934
G1 X142.187 Y89.723 E17.92705
G1 X142.2 Y90.33 E17.94725
G1 X142.199 Y129.39 E19.24639
G1 X142.19 Y130.117 E19.27057
G1 X142.139 Y131.019 E19.30062
G1 X142.008 Y131.913 E19.33067
G1 X141.799 Y132.791 E19.36069
G1 X141.513 Y133.648 E19.39074
G1 X141.152 Y134.476 E19.42078
G1 X140.72 Y135.268 E19.45079
G1 X140.219 Y136.02 E19.48084
G1 X139.653 Y136.724 E19.51089
G1 X139.028 Y137.375 E19.5409
G1 X138.347 Y137.969 E19.57096
G1 X137.616 Y138.5 E19.60101
G1 X136.842 Y138.964 E19.63102
G1 X136.029 Y139.358 E19.66107
G1 X135.185 Y139.678 E19.69109
G1 X134.315 Y139.923 E19.72116
G1 X133.428 Y140.089 E19.75117
G1 X132.277 Y140.187 E19.78959
G1 X131.67 Y140.2 E19.80978
G1 X88.575 Y140.199 E21.24313
G1 X87.877 Y140.19 E21.26635
G1 X86.976 Y140.139 E21.29636
G1 X86.082 Y140.007 E21.32642
G1 X85.204 Y139.798 E21.35644
G1 X84.347 Y139.511 E21.3865
G1 X83.52 Y139.15 E21.41651
G1 X82.727 Y138.717 E21.44656
G1 X81.976 Y138.216 E21.47659
G1 X81.272 Y137.65 E21.50663
G1 X80.621 Y137.024 E21.53667
G1 X80.028 Y136.343 E21.5667
G1 X79.498 Y135.612 E21.59674
G1 X79.034 Y134.837 E21.62678
G1 X78.64 Y134.024 E21.65683
G1 X78.32 Y133.18 E21.68685
G1 X78.076 Y132.31 E21.7169
G1 X77.91 Y131.422 E21.74695
G1 X77.813 Y130.267 E21.7855
G1 X77.8 Y129.658 E21.80576
G1 X77.801 Y90.536 E23.10696
G1 X77.81 Y89.871 E23.12908
G1 X77.862 Y88.969 E23.15913
G1 X77.994 Y88.076 E23.18916
G1 X78.204 Y87.198 E23.21918
G1 X78.491 Y86.341 E23.24924
G1 X78.853 Y85.514 E23.27927
G1 X79.286 Y84.722 E23.30929
G1 X79.788 Y83.971 E23.33934
G1 X80.355 Y83.267 E23.3694
G1 X80.981 Y82.617 E23.39942
M204 S2000
G1 F2400 E22.59942
;MESH:sheet_supports_v1.stl
G0 F7500 X95.469 Y95
G0 X99.599 Y125.489
M204 S500
;TYPE:WALL-INNER
G1 F2400 E23.39942
G1 F1500 X99.322 Y125.6 E23.40934
G1 X96.25 Y125.6 E23.51152
G1 X96.059 Y125.569 E23.51795
G1 X95.895 Y125.485 E23.52408
G1 X95.775 Y125.368 E23.52965
G1 X95.65 Y125.078 E23.54016
G1 X95.65 Y95 E24.54056
G1 X95.7 Y94.758 E24.54877
G1 X95.895 Y94.515 E24.55914
G1 X96.176 Y94.4 E24.56924
G1 X99.25 Y94.4 E24.67148
G1 X99.438 Y94.429 E24.6778
G1 X99.599 Y94.511 E24.68381
G1 X99.795 Y94.748 E24.69404
G1 X99.847 Y94.932 E24.7004
G1 X99.847 Y125.068 E25.70273
G1 X99.795 Y125.252 E25.70909
G1 X99.599 Y125.489 E25.71932
M204 S2000
G0 F7500 X99.407 Y125.126
M204 S500
;TYPE:WALL-OUTER
G1 F1500 X99.285 Y125.198 E25.72403
G1 X96.2 Y125.2 E25.82664
G1 X96.091 Y125.123 E25.83108
G1 X96.052 Y125.035 E25.83428
G1 X96.05 Y95 E26.83325
G1 X96.131 Y94.838 E26.83927
G1 X96.215 Y94.802 E26.84231
G1 X99.3 Y94.8 E26.94492
G1 X99.407 Y94.874 E26.94924
G1 X99.449 Y94.977 E26.95294
G1 X99.449 Y125.023 E27.95228
G1 X99.407 Y125.126 E27.95598
M204 S2000
G1 F2400 E27.15598
G0 F7500 X99.75 Y125.126
G0 X100.029 Y125.069
G0 X106.469 Y125
G0 X107.062 Y125.571
M204 S500
;TYPE:WALL-INNER
G1 F2400 E27.95598
G1 F1500 X106.901 Y125.489 E27.96199
G1 X106.705 Y125.252 E27.97222
G1 X106.653 Y125.068 E27.97858
G1 X106.65 Y95 E28.97864
G1 X106.705 Y94.748 E28.98722
G1 X106.901 Y94.511 E28.99745
G1 X107.178 Y94.4 E29.00737
G1 X110.386 Y94.4 E29.11407
G1 X110.7 Y94.601 E29.12647
G1 X110.85 Y94.873 E29.1368
G1 X110.85 Y125.127 E30.14306
G1 X110.7 Y125.399 E30.15339
G1 X110.386 Y125.6 E30.16579
G1 X107.25 Y125.6 E30.27009
G1 X107.062 Y125.571 E30.27642
M204 S2000
G0 F7500 X107.133 Y125.163
M204 S500
;TYPE:WALL-OUTER
G1 F1500 X107.05 Y125.018 E30.28198
G1 X107.05 Y95 E31.28038
G1 X107.093 Y94.874 E31.28481
G1 X107.215 Y94.802 E31.28952
G1 X110.292 Y94.8 E31.39186
G1 X110.45 Y94.923 E31.39852
G1 X110.449 Y125.021 E32.39958
G1 X110.361 Y125.167 E32.40525
G1 X110.285 Y125.198 E32.40798
G1 X107.204 Y125.2 E32.51046
G1 X107.133 Y125.163 E32.51312
M204 S2000
G1 F2400 E31.71312
G0 F7500 X107.133 Y125.5
G0 X110.678 Y125.428
G0 X111.027 Y125.082
G0 X118.469 Y125
G0 X119.114 Y125.6
M204 S500
;TYPE:WALL-INNER
G1 F2400 E32.51312
G1 F1500 X118.8 Y125.399 E32.52552
G1 X118.65 Y125.127 E32.53585
G1 X118.65 Y94.968 E33.53894
G1 X118.673 Y94.831 E33.54356
G1 X118.8 Y94.601 E33.5523
G1 X119.114 Y94.4 E33.5647
G1 X122.75 Y94.4 E33.68564
G1 X122.931 Y94.427 E33.69172
G1 X123.088 Y94.503 E33.69752
G1 X123.286 Y94.729 E33.70752
G1 X123.349 Y94.952 E33.71523
G1 X123.349 Y125.048 E34.71622
G1 X123.286 Y125.271 E34.72393
G1 X123.088 Y125.497 E34.73392
G1 X122.931 Y125.573 E34.73973
G1 X122.75 Y125.6 E34.74581
G1 X119.114 Y125.6 E34.86675
M204 S2000
G0 F7500 X119.05 Y125.077
M204 S500
;TYPE:WALL-OUTER
G1 F1500 X119.05 Y94.989 E35.86748
G1 X119.1 Y94.867 E35.87186
G1 X119.215 Y94.802 E35.87626
G1 X122.792 Y94.8 E35.99523
G1 X122.95 Y94.926 E36.00195
G1 X122.95 Y125.016 E37.00275
G1 X122.863 Y125.166 E37.00851
G1 X122.785 Y125.198 E37.01132
G1 X119.208 Y125.2 E37.13029
G1 X119.05 Y125.077 E37.13695
M204 S2000
G1 F2400 E36.33695
G0 F7500 X118.75 Y125.077
G0 X118.473 Y125.082
G0 X118.473 Y129.2
G0 X88.6 Y129.4
M204 S500
;TYPE:WALL-INNER
G1 F2400 E37.13695
G1 F1500 X131.4 Y129.4 E38.56048
G1 X131.4 Y90.6 E39.85098
G1 X88.6 Y90.6 E41.27451
G1 X88.6 Y129.4 E42.565
M204 S2000
G0 F7500 X88.2 Y129.8
M204 S500
;TYPE:WALL-OUTER
G1 F1500 X131.8 Y129.8 E44.01514
G1 X131.8 Y90.2 E45.33225
G1 X88.2 Y90.2 E46.78239
G1 X88.2 Y129.8 E48.09949
M204 S2000
G0 F7500 X88.47 Y129.53
G0 X88.7 Y129.039
G0 X88.961 Y129.039
M204 S500
;TYPE:SKIN
G1 F1500 X131.04 Y129.04 E49.49904
G1 X131.04 Y90.96 E50.76559
G1 X88.961 Y90.961 E52.16514
G1 X88.961 Y129.039 E53.43162
M204 S2000
G1 F2400 E52.63162
G0 F7500 X88.7 Y129.039
G0 X99.456 Y129.2
G0 X99.25 Y125.781
G0 X99.519 Y125.921
M204 S500
G1 F2400 E53.43162
G1 F1500 X99.276 Y125.958 E53.4398
G1 X96.22 Y125.958 E53.54144
G1 X95.918 Y125.9 E53.55167
G1 X95.708 Y125.79 E53.55955
G1 X95.479 Y125.583 E53.56982
G1 X95.292 Y125.14 E53.58581
G1 X95.29 Y94.897 E54.5917
G1 X95.294 Y94.853 E54.59317
G1 X95.464 Y94.454 E54.60759
G1 X95.683 Y94.218 E54.6183
G1 X96.126 Y94.042 E54.63416
G1 X99.273 Y94.042 E54.73883
G1 X99.579 Y94.098 E54.74917
G1 X99.786 Y94.204 E54.75691
G1 X99.979 Y94.374 E54.76546
G1 X100.125 Y94.597 E54.77433
G1 X100.205 Y94.889 E54.7844
G1 X100.208 Y125.084 E55.78869
G1 X100.135 Y125.37 E55.7985
G1 X100.013 Y125.584 E55.8067
G1 X99.809 Y125.785 E55.81622
G1 X99.519 Y125.921 E55.82688
M204 S2000
G1 F2400 E55.02688
G0 F7500 X99.456 Y125.669
G0 X99.86 Y125.489
G0 X106.64 Y125.489
G0 X106.921 Y125.902
M204 S500
G1 F2400 E55.82688
G1 F1500 X106.69 Y125.784 E55.8355
G1 X106.487 Y125.584 E55.84498
G1 X106.374 Y125.401 E55.85214
G1 X106.294 Y125.101 E55.86246
G1 X106.294 Y94.914 E56.86649
G1 X106.301 Y94.859 E56.86833
G1 X106.389 Y94.575 E56.87822
G1 X106.521 Y94.374 E56.88622
G1 X106.715 Y94.204 E56.8948
G1 X106.981 Y94.079 E56.90457
G1 X107.224 Y94.042 E56.91275
G1 X110.273 Y94.042 E57.01416
G1 X110.561 Y94.093 E57.02388
G1 X110.818 Y94.231 E57.03359
G1 X111.103 Y94.546 E57.04772
G1 X111.205 Y94.898 E57.0599
G1 X111.205 Y125.101 E58.06446
G1 X111.103 Y125.454 E58.07668
G1 X110.79 Y125.8 E58.0922
G1 X110.508 Y125.924 E58.10245
G1 X110.275 Y125.958 E58.11028
G1 X107.227 Y125.958 E58.21165
G1 X106.921 Y125.902 E58.222
M204 S2000
G1 F2400 E57.422
G0 F7500 X107.03 Y125.666
G0 X110.835 Y125.518
G0 X118.665 Y125.518
G0 X118.939 Y125.907
M204 S500
G1 F2400 E58.222
G1 F1500 X118.682 Y125.769 E58.2317
G1 X118.397 Y125.454 E58.24583
G1 X118.294 Y125.097 E58.25819
G1 X118.294 Y94.921 E59.26185
G1 X118.302 Y94.863 E59.2638
G1 X118.398 Y94.545 E59.27484
G1 X118.71 Y94.2 E59.29031
G1 X118.992 Y94.076 E59.30056
G1 X119.225 Y94.042 E59.30839
G1 X122.772 Y94.041 E59.42637
G1 X123.009 Y94.075 E59.43433
G1 X123.301 Y94.206 E59.44497
G1 X123.61 Y94.557 E59.46053
G1 X123.708 Y94.92 E59.47303
G1 X123.708 Y125.077 E60.47606
G1 X123.607 Y125.438 E60.48853
G1 X123.301 Y125.791 E60.50407
G1 X123.01 Y125.924 E60.51471
G1 X122.775 Y125.958 E60.5226
G1 X119.227 Y125.958 E60.64061
G1 X118.939 Y125.907 E60.65034
M204 S2000
G1 F2400 E59.85034
G0 F7500 X119.05 Y125.672
G0 X118.665 Y125.518
G0 X118.665 Y129.2
G0 X89.24 Y128.838
M204 S500
G1 F2400 E60.65034
G1 F1500 X89.16 Y128.758 E60.6541
M204 S2000
G0 F7500 X89.16 Y128.192
M204 S500
G1 F1500 X89.806 Y128.838 E60.68449
M204 S2000
G0 F7500 X90.371 Y128.838
M204 S500
G1 F1500 X89.16 Y127.627 E60.74145
M204 S2000
G0 F7500 X89.16 Y127.061
M204 S500
G1 F1500 X90.937 Y128.838 E60.82503
M204 S2000
G0 F7500 X91.503 Y128.838
M204 S500
G1 F1500 X89.16 Y126.495 E60.93524
M204 S2000
G0 F7500 X89.16 Y125.93
M204 S500
G1 F1500 X92.068 Y128.838 E61.07203
M204 S2000
G0 F7500 X92.634 Y128.838
M204 S500
G1 F1500 X89.16 Y125.364 E61.23543
M204 S2000
G0 F7500 X89.16 Y124.798
M204 S500
G1 F1500 X93.2 Y128.838 E61.42546
M204 S2000
G0 F7500 X93.765 Y128.838
M204 S500
G1 F1500 X89.16 Y124.233 E61.64207
M204 S2000
G0 F7500 X89.16 Y123.667
M204 S500
G1 F1500 X94.331 Y128.838 E61.88529
M204 S2000
G0 F7500 X94.897 Y128.838
M204 S500
G1 F1500 X89.16 Y123.101 E62.15515
M204 S2000
G0 F7500 X89.16 Y122.535
M204 S500
G1 F1500 X95.462 Y128.838 E62.4516
M204 S2000
G0 F7500 X96.028 Y128.838
M204 S500
G1 F1500 X89.16 Y121.97 E62.77465
M204 S2000
G0 F7500 X89.16 Y121.404
M204 S500
G1 F1500 X96.594 Y128.838 E63.12432
M204 S2000
G0 F7500 X97.16 Y128.838
M204 S500
G1 F1500 X89.16 Y120.838 E63.50061
M204 S2000
G0 F7500 X89.16 Y120.273
M204 S500
G1 F1500 X97.725 Y128.838 E63.90348
M204 S2000
G0 F7500 X98.291 Y128.838
M204 S500
G1 F1500 X89.16 Y119.707 E64.33298
M204 S2000
G0 F7500 X89.16 Y119.141
M204 S500
G1 F1500 X95.094 Y125.075 E64.6121
M204 S2000
G0 F7500 X95.094 Y124.51
M204 S500
