;FLAVOR:Marlin
;TIME:11284
;Filament used: 10.8223m
;Layer height: 0.28
;MINX:7.018
;MINY:21.153
;MINZ:0.28
;MAXX:200.223
;MAXY:205.036
;MAXZ:22.12
;Generated with Cura_SteamEngine 5.2.0
M82 ;absolute extrusion mode
; Ender 3 S1 Start G-code
G92 E0 ; Reset Extruder
G28 ; Home all axes
G1 Z10.0 F3000 ; Move Z Axis up little to prevent scratching of Heat Bed
G1 X0 Y0

M104 S200
M190 S60
M109 S200

G1 X0.1 Y20 Z0.3 F5000.0 ; Move to start position
G1 X0.1 Y200.0 Z0.3 F1500.0 E15 ; Draw the first line
G1 X0.4 Y200.0 Z0.3 F5000.0 ; Move to side a little
G1 X0.4 Y20 Z0.3 F1500.0 E30 ; Draw the second line
G92 E0 ; Reset Extruder
G1 Z2.0 F3000 ; Move Z Axis up little to prevent scratching of Heat Bed
G1 X5 Y20 Z0.3 F5000.0 ; Move over to prevent blob squish

G92 E0
G92 E0
G1 F2400 E-0.8
;LAYER_COUNT:79
;LAYER:0
M107
M204 S2000
G0 F7500 X29.984 Y69.846 Z0.28
M204 S500
;TYPE:SKIRT
G1 F2400 E0
G1 F1500 X30.733 Y69.534 E0.03778
G1 X32.13 Y68.999 E0.10744
G1 X34.54 Y68.037 E0.22827
G1 X36.836 Y67.044 E0.34475
G1 X39.097 Y65.989 E0.46093
G1 X41.368 Y64.851 E0.57921
G1 X43.595 Y63.654 E0.69694
G1 X45.747 Y62.418 E0.8125
G1 X47.918 Y61.09 E0.931
G1 X50.025 Y59.716 E1.04813
G1 X52.1 Y58.277 E1.16571
G1 X54.092 Y56.811 E1.28088
G1 X56.104 Y55.241 E1.39971
G1 X58.033 Y53.645 E1.51629
G1 X59.946 Y51.97 E1.63469
G1 X61.776 Y50.275 E1.75084
G1 X63.574 Y48.51 E1.86816
G1 X65.332 Y46.685 E1.98615
G1 X67.016 Y44.834 E2.10268
G1 X68.667 Y42.914 E2.22059
G1 X70.239 Y40.977 E2.33675
G1 X71.784 Y38.959 E2.45509
G1 X73.237 Y36.948 E2.57062
G1 X74.681 Y34.824 E2.69021
G1 X76.016 Y32.734 E2.80569
G1 X77.307 Y30.581 E2.92258
G1 X78.714 Y28.073 E3.05649
G1 X79.327 Y26.937 E3.1166
G1 X79.807 Y26.132 E3.16024
G1 X80.354 Y25.37 E3.20392
G1 X80.964 Y24.658 E3.24757
G1 X81.633 Y24 E3.29127
G1 X82.355 Y23.401 E3.33495
G1 X83.126 Y22.867 E3.37862
G1 X83.939 Y22.4 E3.42228
G1 X84.789 Y22.003 E3.46596
G1 X85.67 Y21.681 E3.50964
G1 X86.575 Y21.435 E3.55331
G1 X87.497 Y21.267 E3.59695
G1 X88.667 Y21.168 E3.65162
G1 X89.33 Y21.153 E3.6825
G1 X130.45 Y21.154 E5.59722
G1 X131.151 Y21.164 E5.62987
G1 X132.087 Y21.217 E5.67352
G1 X133.016 Y21.35 E5.71722
G1 X133.594 Y21.475 E5.74476
G1 X134.733 Y21.752 E5.79934
G1 X137.28 Y22.339 E5.92105
G1 X139.756 Y22.836 E6.03864
G1 X142.246 Y23.263 E6.15628
G1 X144.727 Y23.616 E6.27297
G1 X147.246 Y23.902 E6.39102
G1 X149.744 Y24.115 E6.50775
G1 X152.226 Y24.256 E6.62351
G1 X154.783 Y24.328 E6.74263
G1 X157.337 Y24.328 E6.86155
G1 X160.66 Y24.245 E7.01633
G1 X179.802 Y24.246 E7.90766
G1 X180.5 Y24.256 E7.94017
G1 X181.436 Y24.31 E7.98382
G1 X182.364 Y24.442 E8.02747
G1 X183.278 Y24.654 E8.07116
G1 X184.17 Y24.943 E8.11482
G1 X185.035 Y25.306 E8.1585
G1 X185.865 Y25.742 E8.20216
G1 X186.656 Y26.247 E8.24586
G1 X187.4 Y26.818 E8.28953
G1 X188.093 Y27.45 E8.3332
G1 X188.73 Y28.138 E8.37686
G1 X189.305 Y28.879 E8.42053
G1 X189.816 Y29.665 E8.46419
G1 X190.258 Y30.493 E8.50789
G1 X190.627 Y31.355 E8.55155
G1 X190.922 Y32.245 E8.59521
G1 X191.14 Y33.157 E8.63888
G1 X191.28 Y34.085 E8.68258
G1 X191.338 Y34.946 E8.72276
G1 X191.351 Y35.575 E8.75205
G1 X191.351 Y44.478 E9.16662
G1 X191.388 Y47.086 E9.28807
G1 X191.495 Y49.607 E9.40556
G1 X191.672 Y52.102 E9.52203
G1 X191.92 Y54.602 E9.63901
G1 X192.239 Y57.095 E9.75604
G1 X192.63 Y59.588 E9.87355
G1 X193.093 Y62.078 E9.99148
G1 X193.623 Y64.542 E10.10884
G1 X194.212 Y66.944 E10.224
G1 X194.888 Y69.4 E10.34261
G1 X195.626 Y71.81 E10.45998
G1 X196.424 Y74.178 E10.57633
G1 X197.299 Y76.547 E10.69393
G1 X198.599 Y79.745 E10.85467
G1 X198.753 Y80.103 E10.87282
G1 X199.199 Y81.339 E10.93401
G1 X199.431 Y82.127 E10.97226
G1 X199.605 Y82.769 E11.00323
G1 X199.866 Y84.085 E11.0657
G1 X200.039 Y85.402 E11.12755
G1 X200.116 Y86.21 E11.16535
G1 X200.18 Y87.163 E11.20982
G1 X200.212 Y88.008 E11.2492
G1 X200.223 Y88.757 E11.28408
G1 X200.223 Y131.891 E13.29258
G1 X200.213 Y132.58 E13.32466
G1 X200.177 Y133.524 E13.36865
G1 X200.091 Y134.719 E13.42444
G1 X199.983 Y135.752 E13.4728
G1 X199.904 Y136.362 E13.50144
G1 X199.693 Y137.507 E13.55566
G1 X199.164 Y139.721 E13.66165
G1 X198.643 Y142.215 E13.78029
G1 X198.193 Y144.716 E13.89862
G1 X197.825 Y147.164 E14.01389
G1 X197.52 Y149.672 E14.13153
G1 X197.286 Y152.171 E14.2484
G1 X197.125 Y154.669 E14.36496
G1 X197.033 Y157.202 E14.48299
G1 X197.012 Y159.725 E14.60047
G1 X197.063 Y162.249 E14.71803
G1 X197.184 Y164.734 E14.83387
G1 X197.38 Y167.282 E14.95287
G1 X197.641 Y169.759 E15.06885
G1 X197.975 Y172.293 E15.18786
G1 X198.058 Y173.228 E15.23157
G1 X198.06 Y174.165 E15.2752
G1 X197.983 Y175.1 E15.31889
G1 X197.827 Y176.025 E15.36257
G1 X197.592 Y176.933 E15.40624
G1 X197.281 Y177.818 E15.44992
G1 X196.896 Y178.673 E15.49358
G1 X196.499 Y179.4 E15.53215
G1 X196.001 Y180.194 E15.5758
G1 X195.438 Y180.944 E15.61946
G1 X194.812 Y181.643 E15.66316
G1 X194.222 Y182.205 E15.7011
G1 X192.694 Y183.558 E15.79613
G1 X190.835 Y185.273 E15.91391
G1 X189.057 Y187.011 E16.02968
G1 X186.945 Y189.207 E16.17155
G1 X186.033 Y190.178 E16.23358
G1 X185.558 Y190.651 E16.26479
G1 X185.18 Y191.011 E16.2891
G1 X184.407 Y191.708 E16.33757
G1 X184.137 Y191.942 E16.3542
G1 X183.57 Y192.41 E16.38844
G1 X183.175 Y192.721 E16.41185
G1 X182.471 Y193.247 E16.45277
G1 X181.663 Y193.81 E16.49862
G1 X180.715 Y194.422 E16.55117
G1 X180.057 Y194.812 E16.58678
G1 X179.079 Y195.354 E16.63885
G1 X178.497 Y195.651 E16.66927
G1 X177.75 Y196.005 E16.70777
G1 X177.015 Y196.331 E16.74521
G1 X176.481 Y196.551 E16.7721
G1 X175.62 Y196.88 E16.81502
G1 X175.191 Y197.034 E16.83624
G1 X174.369 Y197.304 E16.87653
G1 X173.61 Y197.529 E16.91339
G1 X172.874 Y197.723 E16.94883
G1 X172.14 Y197.896 E16.98395
G1 X171.108 Y198.106 E17.03299
G1 X170.195 Y198.258 E17.07609
G1 X169.32 Y198.375 E17.11719
G1 X168.555 Y198.452 E17.15299
G1 X167.497 Y198.529 E17.20239
G1 X166.895 Y198.551 E17.23044
G1 X164.987 Y198.583 E17.3193
G1 X162.347 Y198.664 E17.44228
G1 X159.825 Y198.813 E17.55992
G1 X157.321 Y199.033 E17.67697
G1 X154.845 Y199.321 E17.79304
G1 X152.324 Y199.686 E17.91165
G1 X149.853 Y200.116 E18.02844
G1 X147.376 Y200.619 E18.14613
G1 X144.969 Y201.179 E18.26121
G1 X142.489 Y201.831 E18.38061
G1 X140.086 Y202.536 E18.49722
G1 X137.727 Y203.301 E18.6127
G1 X135.998 Y203.925 E18.69829
G1 X134.652 Y204.4 E18.76475
G1 X133.755 Y204.674 E18.80843
G1 X132.838 Y204.871 E18.8521
G1 X131.907 Y204.989 E18.8958
G1 X131.299 Y205.023 E18.92415
G1 X130.67 Y205.036 E18.95345
G1 X89.551 Y205.035 E20.86812
G1 X88.848 Y205.025 E20.90086
G1 X87.911 Y204.972 E20.94456
G1 X86.983 Y204.839 E20.98821
G1 X86.069 Y204.627 E21.0319
G1 X85.177 Y204.339 E21.07555
G1 X84.037 Y203.841 E21.13348
G1 X83.154 Y203.394 E21.17956
G1 X80.83 Y202.249 E21.3002
G1 X78.573 Y201.217 E21.41576
G1 X76.219 Y200.218 E21.53483
G1 X73.877 Y199.303 E21.65191
G1 X71.527 Y198.459 E21.76818
G1 X69.121 Y197.673 E21.88604
G1 X66.73 Y196.965 E22.00216
G1 X64.257 Y196.308 E22.1213
G1 X61.846 Y195.74 E22.23664
G1 X59.329 Y195.222 E22.3563
G1 X56.895 Y194.793 E22.47138
G1 X54.399 Y194.424 E22.58887
G1 X51.914 Y194.128 E22.7054
G1 X49.37 Y193.899 E22.82434
G1 X46.89 Y193.746 E22.94004
G1 X44.36 Y193.661 E23.05791
G1 X41.843 Y193.649 E23.17512
G1 X39.346 Y193.707 E23.29142
G1 X36.757 Y193.84 E23.41213
G1 X33.5 Y194.083 E23.56421
G1 X32.706 Y194.114 E23.60121
G1 X31.827 Y194.121 E23.64214
G1 X30.909 Y194.101 E23.6849
G1 X30.36 Y194.075 E23.71049
G1 X29.729 Y194.031 E23.73995
G1 X28.482 Y193.9 E23.79833
G1 X25.885 Y193.652 E23.91981
G1 X23.403 Y193.486 E24.03564
G1 X20.843 Y193.387 E24.15493
G1 X18.068 Y193.352 E24.28416
G1 X17.132 Y193.3 E24.32781
G1 X16.203 Y193.169 E24.3715
G1 X15.289 Y192.959 E24.41516
G1 X14.396 Y192.672 E24.45884
G1 X13.531 Y192.31 E24.5025
G1 X12.7 Y191.875 E24.54618
G1 X11.909 Y191.371 E24.58985
G1 X11.163 Y190.802 E24.63354
G1 X10.469 Y190.171 E24.67722
G1 X9.831 Y189.484 E24.72087
G1 X9.254 Y188.744 E24.76457
G1 X8.718 Y187.917 E24.81046
G1 X8.528 Y187.593 E24.82795
G1 X8.089 Y186.765 E24.87159
G1 X7.721 Y185.902 E24.91527
G1 X7.429 Y185.011 E24.95893
G1 X7.213 Y184.098 E25.00262
G1 X7.076 Y183.17 E25.0463
G1 X7.018 Y181.874 E25.10671
G1 X7.022 Y181.591 E25.11989
G1 X7.107 Y180.37 E25.17688
G1 X7.199 Y179.716 E25.20763
G1 X7.254 Y179.386 E25.22321
G1 X7.447 Y178.468 E25.26689
G1 X7.747 Y177.488 E25.31461
G1 X7.997 Y176.822 E25.34774
G1 X8.163 Y176.415 E25.3682
G1 X8.602 Y175.468 E25.41681
G1 X9.631 Y173.502 E25.52013
G1 X10.751 Y171.222 E25.63842
G1 X11.793 Y168.939 E25.75527
G1 X12.777 Y166.613 E25.87288
G1 X13.698 Y164.248 E25.99106
G1 X14.546 Y161.878 E26.10826
G1 X15.315 Y159.515 E26.22398
G1 X16.03 Y157.096 E26.34143
G1 X16.673 Y154.664 E26.45857
G1 X17.251 Y152.201 E26.57637
G1 X17.758 Y149.716 E26.69447
G1 X18.186 Y147.278 E26.80973
G1 X18.556 Y144.753 E26.92856
G1 X18.845 Y142.301 E27.04352
G1 X19.072 Y139.757 E27.16245
G1 X19.224 Y137.24 E27.27987
G1 X19.304 Y134.76 E27.39541
G1 X19.31 Y131.647 E27.54036
G1 X19.309 Y99.275 E29.04774
G1 X19.301 Y96.276 E29.18738
G1 X19.306 Y88.478 E29.55049
G1 X19.326 Y87.497 E29.59618
G1 X19.386 Y86.262 E29.65375
G1 X19.437 Y85.552 E29.6869
G1 X19.525 Y84.635 E29.7298
G1 X19.639 Y83.716 E29.77292
G1 X19.869 Y82.491 E29.83095
G1 X20.059 Y81.753 E29.86644
G1 X20.403 Y80.555 E29.92448
G1 X20.851 Y79.291 E29.98692
G1 X21.166 Y78.575 E30.02335
G1 X21.448 Y77.982 E30.05392
G1 X21.887 Y77.153 E30.0976
G1 X22.397 Y76.36 E30.1415
G1 X22.914 Y75.628 E30.18323
G1 X23.493 Y74.845 E30.22858
G1 X24.085 Y74.117 E30.27227
G1 X24.692 Y73.486 E30.31304
G1 X24.974 Y73.215 E30.33125
G1 X25.584 Y72.657 E30.36975
G1 X26.305 Y72.058 E30.41339
G1 X26.806 Y71.699 E30.44209
G1 X27.278 Y71.385 E30.46849
G1 X27.797 Y71.054 E30.49716
G1 X28.567 Y70.58 E30.53926
G1 X29.386 Y70.124 E30.58291
G1 X29.984 Y69.846 E30.61361
M204 S2000
G0 F7500 X30.141 Y70.214
M204 S500
G1 F1500 X30.876 Y69.908 E30.65069
G1 X32.286 Y69.368 E30.72099
G1 X34.68 Y68.412 E30.84103
G1 X36.986 Y67.415 E30.95801
G1 X39.295 Y66.337 E31.07667
G1 X41.53 Y65.218 E31.19305
G1 X43.776 Y64.01 E31.3118
G1 X46.002 Y62.732 E31.43132
G1 X48.098 Y61.449 E31.54575
G1 X50.242 Y60.052 E31.66491
G1 X52.342 Y58.595 E31.78393
G1 X54.329 Y57.133 E31.8988
G1 X56.359 Y55.548 E32.01872
G1 X58.306 Y53.939 E32.13633
G1 X60.198 Y52.282 E32.25344
G1 X62.063 Y50.554 E32.37183
G1 X63.859 Y48.791 E32.48902
G1 X65.616 Y46.966 E32.60698
G1 X67.315 Y45.101 E32.72446
G1 X68.964 Y43.181 E32.84231
G1 X70.569 Y41.205 E32.96085
G1 X72.093 Y39.213 E33.07763
G1 X73.576 Y37.161 E33.19553
G1 X75.005 Y35.059 E33.31388
G1 X76.363 Y32.934 E33.43131
G1 X77.656 Y30.777 E33.54841
G1 X79.056 Y28.28 E33.68171
G1 X79.679 Y27.127 E33.74273
G1 X80.151 Y26.337 E33.78559
G1 X80.69 Y25.59 E33.82848
G1 X81.291 Y24.894 E33.8713
G1 X81.951 Y24.252 E33.91417
G1 X82.664 Y23.669 E33.95706
G1 X83.425 Y23.151 E33.99992
G1 X84.228 Y22.701 E34.04278
G1 X85.067 Y22.322 E34.08565
G1 X85.936 Y22.017 E34.12854
G1 X86.828 Y21.789 E34.17141
G1 X87.737 Y21.639 E34.21431
G1 X88.679 Y21.568 E34.25829
G1 X89.33 Y21.553 E34.28862
G1 X130.293 Y21.553 E36.19603
G1 X131.145 Y21.564 E36.2357
G1 X132.064 Y21.617 E36.27856
G1 X132.975 Y21.75 E36.32143
G1 X133.499 Y21.863 E36.34639
G1 X134.704 Y22.156 E36.40414
G1 X137.183 Y22.727 E36.52259
G1 X139.681 Y23.229 E36.64124
G1 X142.188 Y23.659 E36.75968
G1 X144.697 Y24.016 E36.87768
G1 X147.168 Y24.296 E36.99348
G1 X149.724 Y24.514 E37.11293
G1 X152.226 Y24.656 E37.22962
G1 X154.772 Y24.728 E37.34822
G1 X157.346 Y24.728 E37.46808
G1 X160.66 Y24.645 E37.62244
G1 X179.796 Y24.646 E38.51349
G1 X180.494 Y24.656 E38.546
G1 X181.413 Y24.709 E38.58886
G1 X182.324 Y24.842 E38.63173
G1 X183.22 Y25.053 E38.67459
G1 X184.094 Y25.341 E38.71744
G1 X184.941 Y25.704 E38.76035
G1 X185.752 Y26.139 E38.80321
G1 X186.522 Y26.643 E38.84606
G1 X187.246 Y27.212 E38.88894
G1 X187.918 Y27.842 E38.93183
G1 X188.533 Y28.527 E38.97469
G1 X189.086 Y29.263 E39.01756
G1 X189.573 Y30.044 E39.06042
G1 X189.99 Y30.865 E39.1033
G1 X190.335 Y31.719 E39.14618
G1 X190.604 Y32.599 E39.18903
G1 X190.796 Y33.5 E39.23193
G1 X190.909 Y34.413 E39.27477
G1 X190.938 Y34.957 E39.30013
G1 X190.951 Y35.575 E39.32892
G1 X190.951 Y44.484 E39.74376
G1 X190.988 Y47.109 E39.866
G1 X191.095 Y49.617 E39.98289
G1 X191.272 Y52.122 E40.09982
G1 X191.522 Y54.652 E40.2182
G1 X191.841 Y57.141 E40.33505
G1 X192.242 Y59.693 E40.45534
G1 X192.694 Y62.124 E40.57048
G1 X193.23 Y64.616 E40.68917
G1 X193.832 Y67.073 E40.80696
G1 X194.505 Y69.518 E40.92505
G1 X195.24 Y71.918 E41.04192
G1 X196.057 Y74.339 E41.1609
G1 X196.922 Y76.683 E41.27724
G1 X198.211 Y79.853 E41.43659
G1 X198.386 Y80.261 E41.45726
G1 X198.815 Y81.452 E41.5162
G1 X199.131 Y82.539 E41.56892
G1 X199.218 Y82.87 E41.58485
G1 X199.47 Y84.139 E41.6451
G1 X199.641 Y85.443 E41.70633
G1 X199.717 Y86.238 E41.74352
G1 X199.763 Y86.879 E41.77345
G1 X199.803 Y87.712 E41.81228
G1 X199.823 Y88.763 E41.86123
G1 X199.823 Y131.885 E43.86917
G1 X199.805 Y132.865 E43.91481
G1 X199.759 Y133.84 E43.96026
G1 X199.718 Y134.398 E43.98631
G1 X199.621 Y135.397 E44.03305
G1 X199.507 Y136.31 E44.07589
G1 X199.304 Y137.414 E44.12816
G1 X198.77 Y139.646 E44.23502
G1 X198.251 Y142.134 E44.35337
G1 X197.804 Y144.618 E44.47089
G1 X197.427 Y147.128 E44.58908
G1 X197.123 Y149.623 E44.70612
G1 X196.887 Y152.144 E44.82402
G1 X196.725 Y154.665 E44.94165
G1 X196.633 Y157.184 E45.05902
G1 X196.612 Y159.73 E45.17758
G1 X196.663 Y162.242 E45.29457
G1 X196.786 Y164.783 E45.41303
G1 X196.981 Y167.319 E45.53147
G1 X197.245 Y169.819 E45.64852
G1 X197.578 Y172.346 E45.76721
G1 X197.659 Y173.263 E45.81007
G1 X197.659 Y174.183 E45.85291
G1 X197.58 Y175.101 E45.89582
G1 X197.421 Y176.008 E45.9387
G1 X197.185 Y176.897 E45.98152
G1 X196.872 Y177.763 E46.0244
G1 X196.284 Y178.968 E46.08684
G1 X196.151 Y179.202 E46.09937
G1 X195.662 Y179.982 E46.14224
G1 X195.107 Y180.716 E46.18509
G1 X194.49 Y181.4 E46.22798
G1 X193.957 Y181.905 E46.26217
G1 X192.443 Y183.246 E46.35634
G1 X190.567 Y184.976 E46.47517
G1 X188.773 Y186.731 E46.59203
G1 X186.618 Y188.971 E46.73677
G1 X185.984 Y189.652 E46.78009
G1 X185.497 Y190.151 E46.81256
G1 X184.904 Y190.721 E46.85086
G1 X184.141 Y191.41 E46.89873
G1 X183.564 Y191.9 E46.93398
G1 X182.927 Y192.406 E46.97186
G1 X182.234 Y192.925 E47.01218
G1 X181.437 Y193.48 E47.0574
G1 X180.822 Y193.883 E47.09164
G1 X180.509 Y194.079 E47.10883
G1 X179.861 Y194.463 E47.14391
G1 X178.895 Y194.999 E47.19535
G1 X178.323 Y195.291 E47.22525
G1 X177.588 Y195.64 E47.26314
G1 X176.853 Y195.966 E47.30058
G1 X176.339 Y196.178 E47.32647
G1 X175.478 Y196.507 E47.36939
G1 X175.064 Y196.655 E47.38986
G1 X174.254 Y196.921 E47.42956
G1 X173.505 Y197.143 E47.46594
G1 X172.783 Y197.333 E47.5007
G1 X172.049 Y197.506 E47.53581
G1 X171.04 Y197.712 E47.58377
G1 X170.139 Y197.862 E47.6263
G1 X169.62 Y197.935 E47.6507
G1 X168.841 Y198.024 E47.68721
G1 X167.479 Y198.129 E47.75082
G1 X166.888 Y198.152 E47.77836
G1 X164.898 Y198.185 E47.87104
G1 X162.345 Y198.264 E47.98997
G1 X159.806 Y198.414 E48.10841
G1 X157.273 Y198.636 E48.2268
G1 X154.773 Y198.927 E48.344
G1 X152.275 Y199.288 E48.46153
G1 X149.77 Y199.725 E48.57993
G1 X147.319 Y200.222 E48.69638
G1 X144.841 Y200.798 E48.81485
G1 X142.413 Y201.437 E48.93175
G1 X139.965 Y202.155 E49.05054
G1 X137.567 Y202.933 E49.16793
G1 X135.865 Y203.548 E49.2522
G1 X134.519 Y204.023 E49.31867
G1 X133.638 Y204.291 E49.36154
G1 X132.737 Y204.482 E49.40443
G1 X131.823 Y204.594 E49.44731
G1 X131.288 Y204.623 E49.47226
G1 X130.67 Y204.636 E49.50104
G1 X89.556 Y204.635 E51.41548
G1 X88.853 Y204.625 E51.44822
G1 X87.934 Y204.572 E51.49108
G1 X87.023 Y204.439 E51.53395
G1 X86.127 Y204.228 E51.57681
G1 X85.253 Y203.94 E51.61966
G1 X84.218 Y203.484 E51.67233
G1 X83.333 Y203.036 E51.71852
G1 X81.036 Y201.905 E51.83774
G1 X78.716 Y200.843 E51.95655
G1 X76.384 Y199.854 E52.0745
G1 X74.009 Y198.926 E52.19323
G1 X71.639 Y198.075 E52.31048
G1 X69.254 Y197.296 E52.42731
G1 X66.809 Y196.572 E52.54605
G1 X64.38 Y195.927 E52.66307
G1 X61.92 Y195.346 E52.78077
G1 X59.407 Y194.83 E52.90023
G1 X56.952 Y194.396 E53.01632
G1 X54.468 Y194.03 E53.13323
G1 X51.926 Y193.727 E53.25244
G1 X49.43 Y193.502 E53.36913
